( Made using CamBam - http://www.cambam.co.uk )
( efm_vc_radsr_panel 3/27/2015 9:21:40 PM )
( T3 : 3.175 )
( T10 : 0.0 )
G21 G90 G61 G40
G0 Z3.0
( T10 : 0.0 )
T10 M6
( Engrave1 )
G17
M3 S1000
G0 X6.5508 Y102.4935
G0 Z0.408
G1 F1000.0 Z-0.002
G1 F2000.0 X4.5117
G1 X6.5508
G0 Z3.0
G0 Y99.9506
G0 Z0.408
G1 F1000.0 Z-0.002
G1 F2000.0 Y103.1732
G3 X6.4615 Y103.8602 I-2.4586 J0.0296
G3 X6.1328 Y104.4701 I-1.5148 J-0.4227
G3 X5.6276 Y104.8324 I-1.005 J-0.868
G3 X5.0157 Y104.9428 I-0.5882 J-1.5105
G3 X4.3867 Y104.8178 I-0.0185 J-1.5516
G3 X3.9024 Y104.4584 I0.5269 J-1.2163
G3 X3.5899 Y103.9037 I1.2926 J-1.0936
G3 X3.4805 Y103.1732 I2.1769 J-0.6994
G1 Y99.9506
G1 Y103.1732
G2 X3.5899 Y103.9037 I2.2864 J0.0311
G2 X3.9024 Y104.4584 I1.6051 J-0.5389
G2 X4.3867 Y104.8178 I1.0113 J-0.8569
G2 X5.0157 Y104.9428 I0.6104 J-1.4265
G2 X5.6276 Y104.8324 I0.0237 J-1.6208
G2 X6.1328 Y104.4701 I-0.4997 J-1.2303
G2 X6.4615 Y103.8602 I-1.1861 J-1.0326
G2 X6.5508 Y103.1732 I-2.3692 J-0.6574
G1 Y99.9506
G0 Z3.0
G0 X4.711 Y79.5267
G0 Z0.408
G1 F1000.0 Z-0.002
G3 F2000.0 X5.5664 Y79.6946 I0.0014 J2.2555
G3 X6.3086 Y80.179 I-0.8397 J2.0974
G3 X6.8321 Y80.9446 I-1.7138 J1.7334
G3 X7.0313 Y81.9759 I-2.347 J0.9883
G3 X6.8321 Y83.0032 I-2.5352 J0.0414
G3 X6.2891 Y83.7688 I-2.0551 J-0.8821
G3 X5.5039 Y84.2532 I-1.6103 J-1.7317
G3 X4.5742 Y84.4251 I-0.9185 J-2.3679
G1 X3.6407
G1 Y79.5267
G1 Y84.4251
G1 X4.5742
G2 X5.5039 Y84.2532 I0.0112 J-2.5398
G2 X6.2891 Y83.7688 I-0.8252 J-2.2161
G2 X6.8321 Y83.0032 I-1.5121 J-1.6477
G2 X7.0313 Y81.9759 I-2.336 J-0.986
G2 X6.8321 Y80.9446 I-2.5462 J-0.043
G2 X6.3086 Y80.179 I-2.2372 J0.9677
G2 X5.5664 Y79.6946 I-1.5818 J1.6129
G2 X4.711 Y79.5267 I-0.8541 J2.0875
G1 X4.6875
G1 X4.711
G0 Z3.0
G0 X4.9766 Y59.1867
G0 Z0.408
G1 F1000.0 Z-0.002
G3 F2000.0 X5.4434 Y59.2444 I0.0171 J1.7787
G3 X5.8672 Y59.4484 I-0.3154 J1.1973
G3 X6.1428 Y59.8326 I-0.5013 J0.6504
G3 X6.2149 Y60.2999 I-1.3154 J0.4422
G3 X6.1672 Y60.6309 I-1.0987 J0.0108
G3 X6.0078 Y60.9249 I-0.8243 J-0.2567
G3 X5.4883 Y61.3663 I-1.5166 J-1.2585
G3 X4.8047 Y61.7062 I-2.594 J-4.3603
G2 X4.125 Y62.0382 I2.2448 J5.4569
G2 X3.6055 Y62.4523 I1.0608 J1.8639
G2 X3.3985 Y63.0421 I0.6615 J0.5634
G2 X3.4414 Y63.382 I1.4669 J-0.0128
G2 X3.6055 Y63.7179 I0.9287 J-0.2455
G2 X3.9414 Y63.9796 I0.7324 J-0.5937
G2 X4.2208 Y64.0635 I0.432 J-0.9317
G2 X4.5117 Y64.0851 I0.2792 J-1.7912
G1 X5.9922
G1 X4.5117
G3 X4.2208 Y64.0635 I-0.0116 J-1.8152
G3 X3.9414 Y63.9796 I0.1527 J-1.0158
G3 X3.6055 Y63.7179 I0.3965 J-0.8554
G3 X3.4414 Y63.382 I0.7646 J-0.5814
G3 X3.3985 Y63.0421 I1.4243 J-0.3527
G3 X3.6055 Y62.4523 I0.8685 J-0.0264
G3 X4.125 Y62.0382 I1.5802 J1.4498
G3 X4.8047 Y61.7062 I2.9239 J5.1236
G2 X5.4883 Y61.3663 I-1.9092 J-4.6977
G2 X6.0078 Y60.9249 I-0.9971 J-1.7
G2 X6.2149 Y60.2999 I-0.7424 J-0.5927
G2 X6.1428 Y59.8326 I-1.3876 J-0.0251
G2 X5.8672 Y59.4484 I-0.7768 J0.2661
G2 X5.4434 Y59.2444 I-0.7391 J0.9931
G2 X4.9766 Y59.1867 I-0.4498 J1.7216
G1 X3.336
G1 X4.9766
G0 Z3.0
G0 X5.0286 Y43.9828
G0 Z0.408
G1 F1000.0 Z-0.002
G2 F2000.0 X5.0469 I0.0064 J-1.8707
G2 X5.6094 Y43.8812 I0.0219 J-1.487
G2 X6.0352 Y43.6117 I-0.4604 J-1.1984
G2 X6.3008 Y43.2171 I-0.819 J-0.8381
G2 X6.3985 Y42.7328 I-1.1131 J-0.4764
G2 X6.3002 Y42.2063 I-1.3432 J-0.0216
G2 X5.9766 Y41.7796 I-1.0084 J0.4286
G2 X5.4461 Y41.5097 I-0.8991 J1.111
G2 X4.8555 Y41.4359 I-0.5663 J2.1295
G1 X4.6211
G1 X5.1016
G2 X5.6378 Y41.3719 I0.0234 J-2.0816
G2 X6.1211 Y41.1312 I-0.3111 J-1.2306
G2 X6.4185 Y40.7 I-0.5872 J-0.7231
G2 X6.4961 Y40.182 I-1.5076 J-0.4907
G1 Y38.9906
G1 Y40.182
G3 X6.4185 Y40.7 I-1.5852 J0.0273
G3 X6.1211 Y41.1312 I-0.8846 J-0.292
G3 X5.6378 Y41.3719 I-0.7946 J-0.99
G3 X5.1016 Y41.4359 I-0.5129 J-2.0182
G1 X4.6211
G1 X4.8555
G3 X5.4461 Y41.5097 I0.0243 J2.2038
G3 X5.9766 Y41.7796 I-0.3686 J1.3809
G3 X6.3002 Y42.2063 I-0.6848 J0.8553
G3 X6.3985 Y42.7328 I-1.2448 J0.5048
G3 X6.3008 Y43.2171 I-1.2109 J0.0079
G3 X6.0352 Y43.6117 I-1.0848 J-0.4437
G3 X5.6094 Y43.8812 I-0.8862 J-0.9288
G3 X5.0469 Y43.9828 I-0.5405 J-1.3852
G3 X4.6884 Y43.9504 I-0.0118 J-1.8719
G3 X4.3477 Y43.8343 I0.2315 J-1.2376
G3 X3.8907 Y43.4554 I0.5917 J-1.1788
G3 X3.6407 Y42.9593 I1.2006 J-0.916
G3 X3.5664 Y42.4437 I1.8404 J-0.5281
G1 Y38.9906
G1 Y42.4437
G2 X3.6407 Y42.9593 I1.9151 J-0.0125
G2 X3.8907 Y43.4554 I1.4506 J-0.42
G2 X4.3477 Y43.8343 I1.0488 J-0.8
G2 X4.6884 Y43.9504 I0.5723 J-1.1216
G2 X5.0286 Y43.9828 I0.3466 J-1.8383
G0 Z3.0
G0 X7.98 Y22.5336
G0 Z0.408
G1 F1000.0 Z-0.002
G1 F2000.0 Y20.1693
G2 X7.8921 Y19.5834 I-1.804 J-0.029
G2 X7.6489 Y19.1498 I-1.1772 J0.3752
G2 X7.2739 Y18.8802 I-0.777 J0.6854
G2 X6.7935 Y18.7894 I-0.4649 J1.143
G2 X6.313 Y18.8715 I-0.0116 J1.3803
G2 X5.9234 Y19.1205 I0.3945 J1.0467
G2 X5.6626 Y19.5248 I0.8868 J0.8582
G2 X5.5689 Y20.0785 I1.4295 J0.5268
G2 X5.6597 Y20.5765 I1.3108 J0.0183
G2 X5.9116 Y20.9574 I1.0906 J-0.4477
G2 X6.2837 Y21.2006 I0.7902 J-0.8029
G2 X6.7378 Y21.2855 I0.4471 J-1.1338
G2 X7.2417 Y21.1947 I0.0159 J-1.355
G3 X6.7378 Y21.2855 I-0.488 J-1.2642
G3 X6.2837 Y21.2006 I-0.0069 J-1.2189
G3 X5.9116 Y20.9574 I0.4181 J-1.046
G3 X5.6597 Y20.5765 I0.8388 J-0.8286
G3 X5.5689 Y20.0785 I1.22 J-0.4798
G3 X5.6626 Y19.5248 I1.5234 J-0.0269
G3 X5.9234 Y19.1205 I1.1475 J0.4538
G3 X6.313 Y18.8715 I0.7842 J0.7977
G3 X6.7935 Y18.7894 I0.4689 J1.2983
G3 X7.2739 Y18.8802 I0.0156 J1.2338
G3 X7.6489 Y19.1498 I-0.402 J0.955
G3 X7.8921 Y19.5834 I-0.934 J0.8088
G3 X7.98 Y20.1693 I-1.7162 J0.557
G1 Y22.5336
G0 Z3.0
G0 X9.1043 Y22.1436
G0 Z0.408
G1 F1000.0 Z-0.002
G2 F2000.0 X9.1577 Y22.1761 I0.0465 J-0.0161
G2 X9.2105 Y22.1205 I0.0054 J-0.0477
G2 X9.1987 Y22.0853 I-0.0633 J0.0016
G2 X9.1577 Y22.0677 I-0.0366 J0.0287
G2 X9.1138 Y22.0853 I-0.0038 J0.0543
G2 X9.1021 Y22.1205 I0.0516 J0.0367
G2 X9.1043 Y22.1436 I0.0487 J0.007
G3 X9.1021 Y22.1205 I0.0465 J-0.0161
G3 X9.1138 Y22.0853 I0.0633 J0.0016
G3 X9.1577 Y22.0677 I0.0402 J0.0368
G3 X9.1987 Y22.0853 I0.0045 J0.0462
G3 X9.2105 Y22.1205 I-0.0516 J0.0367
G3 X9.1577 Y22.1761 I-0.0473 J0.008
G3 X9.1043 Y22.1436 I-0.007 J-0.0487
G3 X9.1021 Y22.1205 I0.0465 J-0.0161
G3 X9.1138 Y22.0853 I0.0633 J0.0016
G3 X9.1577 Y22.0677 I0.0402 J0.0368
G3 X9.1987 Y22.0853 I0.0045 J0.0462
G3 X9.2105 Y22.1205 I-0.0516 J0.0367
G3 X9.1577 Y22.1761 I-0.0473 J0.008
G3 X9.1043 Y22.1436 I-0.007 J-0.0487
G2 X9.1577 Y22.1761 I0.0465 J-0.0161
G2 X9.2105 Y22.1205 I0.0054 J-0.0477
G2 X9.1987 Y22.0853 I-0.0633 J0.0016
G2 X9.1577 Y22.0677 I-0.0366 J0.0287
G2 X9.1138 Y22.0853 I-0.0038 J0.0543
G2 X9.1021 Y22.1205 I0.0516 J0.0367
G2 X9.1043 Y22.1436 I0.0487 J0.007
G0 Z3.0
G0 X9.1577 Y21.2123
G0 Z0.408
G1 F1000.0 Z-0.002
G1 F2000.0 Y18.4115
G2 X9.1428 Y18.1939 I-1.4697 J-0.0087
G2 X9.0845 Y17.9838 I-0.8098 J0.1116
G2 X8.9028 Y17.726 I-0.6102 J0.237
G2 X8.648 Y17.6 I-0.3815 J0.4511
G2 X8.3579 Y17.559 I-0.3487 J1.4197
G3 X8.648 Y17.6 I-0.0587 J1.461
G3 X8.9028 Y17.726 I-0.1266 J0.5771
G3 X9.0845 Y17.9838 I-0.4285 J0.4948
G3 X9.1428 Y18.1939 I-0.7519 J0.3219
G3 X9.1577 Y18.4115 I-1.4523 J0.2088
G1 Y21.2123
G0 Z3.0
G0 X3.8989 Y18.9037
G0 Z0.408
G1 F1000.0 Z-0.002
G2 F2000.0 X3.4507 Y18.7894 I-0.4235 J0.7252
G2 X2.9585 Y18.8832 I-0.0129 J1.2712
G2 X2.5718 Y19.1439 I0.4506 J1.0854
G2 X2.3198 Y19.5424 I0.8996 J0.8477
G2 X2.2319 Y20.0521 I1.3398 J0.4935
G2 X2.3198 Y20.5531 I1.3723 J0.0174
G2 X2.5718 Y20.9457 I1.0906 J-0.4228
G2 X2.9585 Y21.2064 I0.8373 J-0.8247
G2 X3.4507 Y21.3002 I0.4793 J-1.1774
G2 X3.9312 Y21.2181 I0.0166 J-1.3509
G2 X4.3091 Y20.9926 I-0.3945 J-1.0902
G2 X4.5552 Y20.6439 I-0.6283 J-0.7047
G2 X4.6431 Y20.1957 I-1.0263 J-0.434
G1 Y18.8627
G1 Y20.1957
G3 X4.5552 Y20.6439 I-1.1142 J0.0143
G3 X4.3091 Y20.9926 I-0.8745 J-0.3561
G3 X3.9312 Y21.2181 I-0.7724 J-0.8646
G3 X3.4507 Y21.3002 I-0.4639 J-1.2689
G3 X2.9585 Y21.2064 I-0.0129 J-1.2712
G3 X2.5718 Y20.9457 I0.4506 J-1.0854
G3 X2.3198 Y20.5531 I0.8386 J-0.8154
G3 X2.2319 Y20.0521 I1.2845 J-0.4835
G3 X2.3198 Y19.5424 I1.4276 J-0.0163
G3 X2.5718 Y19.1439 I1.1515 J0.4493
G3 X2.9585 Y18.8832 I0.8373 J0.8247
G3 X3.4507 Y18.7894 I0.4793 J1.1774
G3 X3.8989 Y18.9037 I0.0247 J0.8395
G0 Z3.0
G0 X49.8723 Y33.0273
G0 Z0.408
G1 F1000.0 Z-0.002
G2 F2000.0 X49.8112 Y33.4504 I1.3252 J0.4071
G2 X49.9021 Y33.9543 I1.355 J0.0159
G2 X50.154 Y34.3498 I1.0874 J-0.4147
G2 X50.5407 Y34.6076 I0.791 J-0.7675
G2 X51.03 Y34.6985 I0.4773 J-1.2081
G2 X51.5192 Y34.6076 I0.0119 J-1.299
G2 X51.906 Y34.3498 I-0.4042 J-1.0253
G2 X52.1579 Y33.9543 I-0.8353 J-0.8101
G2 X52.2487 Y33.4504 I-1.2642 J-0.488
G2 X52.1579 Y32.9406 I-1.3864 J-0.016
G2 X51.906 Y32.5451 I-1.1206 J0.4359
G2 X51.5192 Y32.2903 I-0.7977 J0.7896
G2 X51.03 Y32.2024 I-0.477 J1.2493
G2 X50.5407 Y32.2903 I-0.0123 J1.3374
G2 X50.154 Y32.5451 I0.411 J1.0444
G2 X49.9021 Y32.9406 I0.8686 J0.8313
G2 X49.8723 Y33.0273 I1.2954 J0.4938
G2 X49.8112 Y33.4504 I1.3252 J0.4071
G2 X49.9021 Y33.9543 I1.355 J0.0159
G2 X50.154 Y34.3498 I1.0874 J-0.4147
G2 X50.5407 Y34.6076 I0.791 J-0.7675
G2 X51.03 Y34.6985 I0.4773 J-1.2081
G2 X51.5192 Y34.6076 I0.0119 J-1.299
G2 X51.906 Y34.3498 I-0.4042 J-1.0253
G2 X52.1579 Y33.9543 I-0.8353 J-0.8101
G2 X52.2487 Y33.4504 I-1.2642 J-0.488
G2 X52.1579 Y32.9406 I-1.3864 J-0.016
G2 X51.906 Y32.5451 I-1.1206 J0.4359
G2 X51.5192 Y32.2903 I-0.7977 J0.7896
G2 X51.03 Y32.2024 I-0.477 J1.2493
G2 X50.5407 Y32.2903 I-0.0123 J1.3374
G2 X50.154 Y32.5451 I0.411 J1.0444
G2 X49.9021 Y32.9406 I0.8686 J0.8313
G2 X49.8723 Y33.0273 I1.2954 J0.4938
G3 X49.9021 Y32.9406 I1.3253 J0.4071
G3 X50.154 Y32.5451 I1.1206 J0.4359
G3 X50.5407 Y32.2903 I0.7977 J0.7896
G3 X51.03 Y32.2024 I0.477 J1.2493
G3 X51.5192 Y32.2903 I0.0123 J1.3374
G3 X51.906 Y32.5451 I-0.411 J1.0444
G3 X52.1579 Y32.9406 I-0.8686 J0.8313
G3 X52.2487 Y33.4504 I-1.2954 J0.4938
G3 X52.1579 Y33.9543 I-1.355 J0.0159
G3 X51.906 Y34.3498 I-1.0874 J-0.4147
G3 X51.5192 Y34.6076 I-0.791 J-0.7675
G3 X51.03 Y34.6985 I-0.4773 J-1.2081
G3 X50.5407 Y34.6076 I-0.0119 J-1.299
G3 X50.154 Y34.3498 I0.4042 J-1.0253
G3 X49.9021 Y33.9543 I0.8353 J-0.8101
G3 X49.8112 Y33.4504 I1.2642 J-0.488
G3 X49.8723 Y33.0273 I1.3864 J-0.016
G3 X49.9021 Y32.9406 I1.3253 J0.4071
G3 X50.154 Y32.5451 I1.1206 J0.4359
G3 X50.5407 Y32.2903 I0.7977 J0.7896
G3 X51.03 Y32.2024 I0.477 J1.2493
G3 X51.5192 Y32.2903 I0.0123 J1.3374
G3 X51.906 Y32.5451 I-0.411 J1.0444
G3 X52.1579 Y32.9406 I-0.8686 J0.8313
G3 X52.2487 Y33.4504 I-1.2954 J0.4938
G3 X52.1579 Y33.9543 I-1.355 J0.0159
G3 X51.906 Y34.3498 I-1.0874 J-0.4147
G3 X51.5192 Y34.6076 I-0.791 J-0.7675
G3 X51.03 Y34.6985 I-0.4773 J-1.2081
G3 X50.5407 Y34.6076 I-0.0119 J-1.299
G3 X50.154 Y34.3498 I0.4042 J-1.0253
G3 X49.9021 Y33.9543 I0.8353 J-0.8101
G3 X49.8112 Y33.4504 I1.2642 J-0.488
G3 X49.8723 Y33.0273 I1.3864 J-0.016
G0 Z3.0
G0 X53.2331 Y33.2072
G0 Z0.408
G1 F1000.0 Z-0.002
G3 F2000.0 X53.2917 Y32.8469 I1.1693 J0.0052
G3 X53.4734 Y32.5246 I0.8948 J0.292
G3 X53.7751 Y32.2903 I0.736 J0.6361
G3 X54.197 Y32.1994 I0.4025 J0.8443
G3 X54.6159 Y32.2903 I0.0205 J0.9172
G3 X54.9177 Y32.5246 I-0.4073 J0.8359
G3 X55.0993 Y32.8469 I-0.7745 J0.6488
G3 X55.1638 Y33.2072 I-1.0086 J0.3663
G1 Y34.6252
G1 Y33.2072
G2 X55.0993 Y32.8469 I-1.0729 J0.006
G2 X54.9177 Y32.5246 I-0.956 J0.3265
G2 X54.6159 Y32.2903 I-0.7091 J0.6015
G2 X54.197 Y32.1994 I-0.3984 J0.8263
G2 X53.7751 Y32.2903 I-0.0194 J0.935
G2 X53.4734 Y32.5246 I0.4342 J0.8705
G2 X53.2917 Y32.8469 I0.7132 J0.6143
G2 X53.2331 Y33.2072 I1.1106 J0.3655
G1 Y34.6252
G1 Y33.2072
G0 Z3.0
G0 X56.9392 Y32.2727
G0 Z0.408
G1 F1000.0 Z-0.002
G2 F2000.0 X56.6978 Y32.3036 I-0.01 J0.8788
G2 X56.4821 Y32.4162 I0.1523 J0.5546
G2 X56.3465 Y32.6446 I0.3057 J0.3359
G2 X56.3151 Y32.9084 I0.9646 J0.2486
G1 Y35.3459
G1 Y32.9084
G3 X56.3465 Y32.6446 I0.9958 J-0.0152
G3 X56.4821 Y32.4162 I0.4413 J0.1075
G3 X56.6978 Y32.3036 I0.368 J0.4419
G3 X56.9392 Y32.2727 I0.2314 J0.8479
G1 X57.3493
G1 X56.9392
G0 Z3.0
G0 X57.3493 Y34.6369
G0 Z0.408
G1 F1000.0 Z-0.002
G1 F2000.0 X56.3151
G1 X57.3493
G0 Z3.0
G0 X55.1374 Y88.2434
G0 Z0.408
G1 F1000.0 Z-0.002
G2 F2000.0 X55.07 Y88.2424 I-0.0551 J1.3361
G2 X54.5807 Y88.3303 I-0.0123 J1.3374
G2 X54.194 Y88.5851 I0.411 J1.0444
G2 X53.9421 Y88.9806 I0.8686 J0.8313
G2 X53.8512 Y89.4904 I1.2954 J0.4938
G2 X53.9421 Y89.9943 I1.355 J0.0159
G2 X54.194 Y90.3898 I1.0874 J-0.4147
G2 X54.5807 Y90.6476 I0.791 J-0.7675
G2 X55.07 Y90.7385 I0.4773 J-1.2081
G2 X55.5592 Y90.6476 I0.0119 J-1.299
G2 X55.946 Y90.3898 I-0.4042 J-1.0253
G2 X56.1979 Y89.9943 I-0.8353 J-0.8101
G2 X56.2887 Y89.4904 I-1.2642 J-0.488
G2 X56.1979 Y88.9806 I-1.3864 J-0.016
G2 X55.946 Y88.5851 I-1.1206 J0.4359
G2 X55.5592 Y88.3303 I-0.7977 J0.7896
G2 X55.1374 Y88.2434 I-0.477 J1.2493
G2 X55.07 Y88.2424 I-0.0551 J1.3361
G2 X54.5807 Y88.3303 I-0.0123 J1.3374
G2 X54.194 Y88.5851 I0.411 J1.0444
G2 X53.9421 Y88.9806 I0.8686 J0.8313
G2 X53.8512 Y89.4904 I1.2954 J0.4938
G2 X53.9421 Y89.9943 I1.355 J0.0159
G2 X54.194 Y90.3898 I1.0874 J-0.4147
G2 X54.5807 Y90.6476 I0.791 J-0.7675
G2 X55.07 Y90.7385 I0.4773 J-1.2081
G2 X55.5592 Y90.6476 I0.0119 J-1.299
G2 X55.946 Y90.3898 I-0.4042 J-1.0253
G2 X56.1979 Y89.9943 I-0.8353 J-0.8101
G2 X56.2887 Y89.4904 I-1.2642 J-0.488
G2 X56.1979 Y88.9806 I-1.3864 J-0.016
G2 X55.946 Y88.5851 I-1.1206 J0.4359
G2 X55.5592 Y88.3303 I-0.7977 J0.7896
G2 X55.1374 Y88.2434 I-0.477 J1.2493
G3 X55.5592 Y88.3303 I-0.0552 J1.3363
G3 X55.946 Y88.5851 I-0.411 J1.0444
G3 X56.1979 Y88.9806 I-0.8686 J0.8313
G3 X56.2887 Y89.4904 I-1.2954 J0.4938
G3 X56.1979 Y89.9943 I-1.355 J0.0159
G3 X55.946 Y90.3898 I-1.0874 J-0.4147
G3 X55.5592 Y90.6476 I-0.791 J-0.7675
G3 X55.07 Y90.7385 I-0.4773 J-1.2081
G3 X54.5807 Y90.6476 I-0.0119 J-1.299
G3 X54.194 Y90.3898 I0.4042 J-1.0253
G3 X53.9421 Y89.9943 I0.8353 J-0.8101
G3 X53.8512 Y89.4904 I1.2642 J-0.488
G3 X53.9421 Y88.9806 I1.3864 J-0.016
G3 X54.194 Y88.5851 I1.1206 J0.4359
G3 X54.5807 Y88.3303 I0.7977 J0.7896
G3 X55.07 Y88.2424 I0.477 J1.2493
G3 X55.1374 Y88.2434 I0.0123 J1.3374
G3 X55.5592 Y88.3303 I-0.0552 J1.3363
G3 X55.946 Y88.5851 I-0.411 J1.0444
G3 X56.1979 Y88.9806 I-0.8686 J0.8313
G3 X56.2887 Y89.4904 I-1.2954 J0.4938
G3 X56.1979 Y89.9943 I-1.355 J0.0159
G3 X55.946 Y90.3898 I-1.0874 J-0.4147
G3 X55.5592 Y90.6476 I-0.791 J-0.7675
G3 X55.07 Y90.7385 I-0.4773 J-1.2081
G3 X54.5807 Y90.6476 I-0.0119 J-1.299
G3 X54.194 Y90.3898 I0.4042 J-1.0253
G3 X53.9421 Y89.9943 I0.8353 J-0.8101
G3 X53.8512 Y89.4904 I1.2642 J-0.488
G3 X53.9421 Y88.9806 I1.3864 J-0.016
G3 X54.194 Y88.5851 I1.1206 J0.4359
G3 X54.5807 Y88.3303 I0.7977 J0.7896
G3 X55.07 Y88.2424 I0.477 J1.2493
G3 X55.1374 Y88.2434 I0.0123 J1.3374
G0 Z3.0
G0 X52.3102 Y88.3097
G0 Z0.408
G1 F1000.0 Z-0.002
G1 F2000.0 Y91.2013
G2 X52.3512 Y91.4709 I0.9424 J-0.0055
G2 X52.486 Y91.7228 I0.714 J-0.2199
G2 X52.7292 Y91.9103 I0.55 J-0.4618
G2 X53.1012 Y91.9836 I0.3484 J-0.788
G1 X53.2477
G1 X53.1012
G3 X52.7292 Y91.9103 I-0.0237 J-0.8614
G3 X52.486 Y91.7228 I0.3069 J-0.6494
G3 X52.3512 Y91.4709 I0.5793 J-0.4719
G3 X52.3102 Y91.2013 I0.9012 J-0.275
G1 Y88.3097
G0 Z3.0
G0 X51.068
G0 Z0.408
G1 F1000.0 Z-0.002
G1 F2000.0 Y91.9836
G1 Y88.3097
G0 Z3.0
G0 X52.3102 Y90.6769
G0 Z0.408
G1 F1000.0 Z-0.002
G1 F2000.0 X53.1745
G1 X52.3102
G0 Z3.0
G0 X49.3109 Y106.9568
G0 Z0.408
G1 F1000.0 Z-0.002
G2 F2000.0 X49.0092 Y106.9328 I-0.2676 J1.4524
G2 X48.391 Y107.0148 I0.0363 J2.644
G3 X49.0092 Y106.9328 I0.6545 J2.5617
G3 X49.5775 Y107.0324 I0.0341 J1.4766
G3 X49.9672 Y107.3019 I-0.3731 J0.9558
G3 X50.1898 Y107.7004 I-0.7854 J0.7003
G3 X50.2631 Y108.1867 I-1.5118 J0.4764
G1 Y109.4992
G3 X50.1723 Y109.9767 I-1.4399 J-0.0264
G3 X49.9379 Y110.3693 I-1.1004 J-0.3907
G3 X49.5746 Y110.6388 I-0.8172 J-0.7219
G3 X49.1 Y110.7385 I-0.4577 J-1.0005
G3 X48.6195 Y110.6506 I-0.0109 J-1.2977
G3 X48.2357 Y110.3957 I0.3888 J-1.0018
G3 X47.9809 Y109.9885 I0.8503 J-0.8156
G3 X47.8871 Y109.4406 I1.4241 J-0.5256
G3 X47.9867 Y108.9396 I1.2166 J-0.0185
G3 X48.2504 Y108.5617 I1.1119 J0.4948
G3 X48.64 Y108.3215 I0.7857 J0.8383
G3 X49.1176 Y108.2394 I0.47 J1.3049
G3 X49.5248 Y108.3097 I0.0027 J1.1986
G2 X49.1176 Y108.2394 I-0.4045 J1.1282
G2 X48.64 Y108.3215 I-0.0076 J1.3868
G2 X48.2504 Y108.5617 I0.396 J1.0784
G2 X47.9867 Y108.9396 I0.8482 J0.8727
G2 X47.8871 Y109.4406 I1.1169 J0.4825
G2 X47.9809 Y109.9885 I1.518 J0.0222
G2 X48.2357 Y110.3957 I1.1053 J-0.4084
G2 X48.6195 Y110.6506 I0.7726 J-0.7469
G2 X49.1 Y110.7385 I0.4696 J-1.2098
G2 X49.5746 Y110.6388 I0.0169 J-1.1001
G2 X49.9379 Y110.3693 I-0.4539 J-0.9914
G2 X50.1723 Y109.9767 I-0.866 J-0.7833
G2 X50.2631 Y109.4992 I-1.3492 J-0.504
G1 Y108.1867
G2 X50.1898 Y107.7004 I-1.5851 J-0.01
G2 X49.9672 Y107.3019 I-1.0081 J0.3019
G2 X49.5775 Y107.0324 I-0.7627 J0.6862
G2 X49.3109 Y106.9568 I-0.5342 J1.3768
G0 Z3.0
G0 X52.8559 Y108.3537
G0 Z0.408
G1 F1000.0 Z-0.002
G2 F2000.0 X52.4076 Y108.2394 I-0.4235 J0.7252
G2 X51.9154 Y108.3332 I-0.0129 J1.2712
G2 X51.5287 Y108.5939 I0.4506 J1.0854
G2 X51.2767 Y108.9924 I0.8996 J0.8477
G2 X51.1889 Y109.5021 I1.3398 J0.4935
G2 X51.2767 Y110.0031 I1.3723 J0.0174
G2 X51.5287 Y110.3957 I1.0906 J-0.4228
G2 X51.9154 Y110.6564 I0.8373 J-0.8247
G2 X52.4076 Y110.7502 I0.4793 J-1.1774
G2 X52.8881 Y110.6681 I0.0166 J-1.3509
G2 X53.266 Y110.4426 I-0.3945 J-1.0902
G2 X53.5121 Y110.0939 I-0.6283 J-0.7047
G2 X53.6 Y109.6457 I-1.0263 J-0.434
G1 Y108.3127
G1 Y109.6457
G3 X53.5121 Y110.0939 I-1.1142 J0.0143
G3 X53.266 Y110.4426 I-0.8745 J-0.3561
G3 X52.8881 Y110.6681 I-0.7724 J-0.8646
G3 X52.4076 Y110.7502 I-0.4639 J-1.2689
G3 X51.9154 Y110.6564 I-0.0129 J-1.2712
G3 X51.5287 Y110.3957 I0.4506 J-1.0854
G3 X51.2767 Y110.0031 I0.8386 J-0.8154
G3 X51.1889 Y109.5021 I1.2845 J-0.4835
G3 X51.2767 Y108.9924 I1.4276 J-0.0163
G3 X51.5287 Y108.5939 I1.1515 J0.4493
G3 X51.9154 Y108.3332 I0.8373 J0.8247
G3 X52.4076 Y108.2394 I0.4793 J1.1774
G3 X52.8559 Y108.3537 I0.0247 J0.8395
G0 Z3.0
G0 X54.7418 Y108.7355
G0 Z0.408
G1 F1000.0 Z-0.002
G3 F2000.0 X54.7535 Y108.6846 I0.9761 J0.1976
G3 X54.8891 Y108.4562 I0.4413 J0.1075
G3 X55.1047 Y108.3436 I0.368 J0.4419
G3 X55.3461 Y108.3127 I0.2314 J0.8479
G1 X55.7562
G1 X55.3461
G2 X55.1047 Y108.3436 I-0.01 J0.8788
G2 X54.8891 Y108.4562 I0.1523 J0.5546
G2 X54.7535 Y108.6846 I0.3057 J0.3359
G2 X54.7221 Y108.9484 I0.9646 J0.2486
G1 Y111.3859
G1 Y108.9484
G3 X54.7418 Y108.7355 I0.9958 J-0.0152
G0 Z3.0
G0 X56.5885 Y109.1677
G0 Z0.408
G1 F1000.0 Z-0.002
G2 F2000.0 X56.5531 Y109.4904 I1.3123 J0.3071
G2 X56.6469 Y109.9943 I1.3175 J0.0156
G2 X56.9017 Y110.3898 I1.1172 J-0.4401
G2 X57.2885 Y110.6476 I0.791 J-0.7675
G2 X57.7777 Y110.7385 I0.4773 J-1.2081
G2 X58.4164 Y110.5744 I0.018 J-1.255
G2 X58.6483 Y110.3937 I-0.46 J-0.8296
G2 X58.8031 Y110.1437 I-0.5652 J-0.5229
G1 X57.35 Y109.3381
G1 X58.8031 Y110.1437
G3 X58.4164 Y110.5744 I-0.7753 J-0.3072
G3 X57.7777 Y110.7385 I-0.6206 J-1.0908
G3 X57.2885 Y110.6476 I-0.0119 J-1.299
G3 X56.9017 Y110.3898 I0.4042 J-1.0253
G3 X56.6469 Y109.9943 I0.8622 J-0.8355
G3 X56.5531 Y109.4904 I1.2236 J-0.4883
G3 X56.6469 Y108.9806 I1.3478 J-0.0156
G3 X56.9017 Y108.5851 I1.1526 J0.4629
G3 X57.2885 Y108.3303 I0.7977 J0.7896
G3 X57.7777 Y108.2424 I0.477 J1.2493
G3 X58.1639 Y108.2926 I0.0109 J1.4248
G3 X58.516 Y108.4592 I-0.3057 J1.1016
G3 X58.7896 Y108.7439 I-0.6086 J0.8586
G3 X58.9525 Y109.1037 I-1.1393 J0.7328
G2 X58.7896 Y108.7439 I-1.3026 J0.3732
G2 X58.516 Y108.4592 I-0.8822 J0.5737
G2 X57.7777 Y108.2424 I-0.7048 J1.0345
G2 X57.2885 Y108.3303 I-0.0123 J1.3374
G2 X56.9017 Y108.5851 I0.411 J1.0444
G2 X56.6469 Y108.9806 I0.8976 J0.8583
G2 X56.5885 Y109.1677 I1.2539 J0.4941
G0 Z3.0
G0 X55.7562 Y110.6769
G0 Z0.408
G1 F1000.0 Z-0.002
G1 F2000.0 X54.7221
G1 X55.7562
G0 Z3.0
G0 X54.0546 Y118.33
G0 Z0.408
G1 F1000.0 Z-0.002
G1 F2000.0 X53.0896
G1 X52.3223 Y119.5363
G3 X51.7686 Y120.3352 I-9.6541 J-6.0996
G3 X51.5879 Y120.5443 I-2.1187 J-1.6482
G3 X51.3771 Y120.7228 I-0.889 J-0.8363
G3 X51.029 Y120.8771 I-0.6251 J-0.9406
G3 X50.6019 Y120.9048 I-0.3732 J-2.4495
G1 X49.712
G1 Y118.33
G1 X48.9447
G1 Y124.1281
G1 X51.5155
G2 X52.1115 Y124.0991 I0.0294 J-5.5273
G2 X52.6941 Y123.9699 I-0.2129 J-2.3387
G2 X53.3388 Y123.4202 I-0.461 J-1.1935
G2 X53.58 Y122.5461 I-1.4049 J-0.8581
G2 X53.4835 Y121.9864 I-1.579 J-0.0159
G2 X53.1806 Y121.5059 I-1.3357 J0.5065
G2 X52.6087 Y121.1334 I-1.1226 J1.0981
G2 X51.9466 Y120.968 I-1.021 J2.68
G2 X52.4093 Y120.6793 I-0.8403 J-1.862
G2 X53.0461 Y119.9081 I-2.746 J-2.9157
G1 X54.0546 Y118.33
G0 Z3.0
G0 X52.302 Y121.7265
G0 Z0.408
G1 F1000.0 Z-0.002
G3 F2000.0 X52.6348 Y122.024 I-0.4085 J0.7916
G3 X52.789 Y122.5461 I-0.7968 J0.5192
G3 X52.4884 Y123.2224 I-0.8612 J0.0222
G3 X52.041 Y123.4375 I-0.6463 J-0.7714
G3 X51.5471 Y123.4874 I-0.4673 J-2.1563
G1 X49.712
G1 Y121.5692
G1 X51.3612
G3 X51.7768 Y121.5896 I0.019 J3.8645
G3 X52.1839 Y121.676 I-0.1699 J1.8018
G3 X52.302 Y121.7265 I-0.2903 J0.8422
G0 Z3.0
G0 X47.7107 Y122.4947
G0 Z0.408
G1 F1000.0 Z-0.002
G1 F2000.0 X46.975 Y122.4393
G3 X46.857 Y122.8953 I-1.4795 J-0.1397
G3 X46.5716 Y123.2699 I-0.9331 J-0.4148
G3 X46.0911 Y123.4955 I-0.7258 J-0.9212
G3 X45.5631 Y123.5507 I-0.5018 J-2.2482
G3 X45.0343 Y123.5033 I-0.0284 J-2.6529
G3 X44.5466 Y123.2936 I0.1972 J-1.1309
G3 X44.3152 Y123.0249 I0.5419 J-0.7008
G3 X44.2302 Y122.6806 I0.6301 J-0.3381
G3 X44.4557 Y122.1664 I0.6592 J-0.0175
G3 X44.7239 Y122.0126 I0.6274 J0.7834
G3 X45.1621 Y121.8646 I1.4791 J3.6549
G3 X45.6105 Y121.7511 I2.4805 J8.8644
G2 X46.2607 Y121.5931 I-3.4725 J-15.7053
G2 X46.8959 Y121.3833 I-1.1303 J-4.4889
G2 X47.3105 Y121.1381 I-0.904 J-2.0017
G2 X47.6435 Y120.7901 I-0.8823 J-1.1772
G2 X47.8847 Y119.9674 I-1.191 J-0.796
G2 X47.6197 Y119.0933 I-1.5874 J0.004
G2 X46.8564 Y118.4566 I-1.466 J0.9815
G2 X45.7411 Y118.2311 I-1.0735 J2.4393
G2 X45.0691 Y118.2799 I-0.0234 J4.3313
G2 X44.4201 Y118.4605 I0.3991 J2.6903
G2 X43.5855 Y119.1487 I0.7191 J1.7221
G2 X43.2691 Y120.1928 I1.6612 J1.0734
G1 X43.9929 Y120.2561
G3 X44.07 Y119.8844 I2.0337 J0.2277
G3 X44.2302 Y119.5403 I1.2988 J0.3954
G3 X44.4915 Y119.274 I0.9222 J0.6436
G3 X44.8156 Y119.0894 I0.9891 J1.3595
G3 X45.7055 Y118.9193 I0.8562 J2.0669
G3 X46.4807 Y119.0498 I0.0378 J2.1429
G3 X46.7556 Y119.1917 I-0.48 J1.2677
G3 X46.979 Y119.4058 I-0.4962 J0.7413
G3 X47.1451 Y119.9041 I-0.6664 J0.499
G3 X46.9869 Y120.3787 I-0.7467 J0.0148
G3 X46.7489 Y120.5857 I-0.6903 J-0.5534
G3 X46.4648 Y120.7228 I-0.8648 J-1.4289
G3 X45.952 Y120.8752 I-1.8928 J-5.4306
G3 X45.4326 Y121.0036 I-6.562 J-25.4276
G2 X44.8636 Y121.1568 I2.4313 J10.1638
G2 X44.3133 Y121.3675 I0.9225 J3.2337
G2 X43.9677 Y121.5959 I0.8783 J1.7041
G2 X43.6923 Y121.9054 I0.8804 J1.0608
G2 X43.4906 Y122.6292 I1.1413 J0.7081
G2 X43.7398 Y123.4479 I1.4644 J0.0016
G2 X44.4675 Y124.0293 I1.2813 J-0.8577
G2 X45.5314 Y124.227 I1.0277 J-2.5683
G2 X46.1096 Y124.1796 I0.015 J-3.3677
G2 X46.6666 Y124.0174 I-0.4192 J-2.4763
G2 X47.4259 Y123.4083 I-0.5934 J-1.5177
G2 X47.7107 Y122.4947 I-1.4704 J-0.9595
G0 Z3.0
G0 X42.4395 Y121.8352
G0 Z0.408
G1 F1000.0 Z-0.002
G2 F2000.0 X42.4742 Y121.2607 I-4.4544 J-0.5573
G2 X42.3199 Y120.09 I-4.0731 J-0.0589
G2 X41.9244 Y119.2436 I-2.7838 J0.7852
G2 X41.3944 Y118.7176 I-1.7476 J1.2308
G2 X40.7023 Y118.4289 I-1.1675 J1.8248
G2 X39.7729 Y118.33 I-0.8799 J3.8531
G1 X37.6806
G1 Y124.1281
G1 X39.6779
G2 X40.1962 Y124.1131 I0.0255 J-8.0345
G2 X40.7102 Y124.0451 I-0.1768 J-3.3145
G2 X41.5605 Y123.6298 I-0.4125 J-1.9228
G2 X42.2448 Y122.6371 I-1.5225 J-1.7815
G2 X42.4222 Y121.9593 I-3.1548 J-1.1879
G2 X42.4395 Y121.8352 I-4.4371 J-0.6814
G0 Z3.0
G0 X41.659 Y121.7493
G0 Z0.408
G1 F1000.0 Z-0.002
G3 F2000.0 X41.6251 Y121.9905 I-4.0181 J-0.4424
G3 X41.3826 Y122.6687 I-1.9406 J-0.3115
G3 X41.0755 Y123.0575 I-1.5913 J-0.9412
G3 X40.6588 Y123.3253 I-0.8874 J-0.9228
G3 X40.1671 Y123.4237 I-0.6261 J-1.8506
G3 X39.6661 Y123.4439 I-0.4738 J-5.5194
G1 X38.4479
G1 Y119.0142
G1 X39.6858
G3 X40.1387 Y119.0345 I0.0206 J4.5982
G3 X40.5836 Y119.121 I-0.1834 J2.132
G3 X41.1057 Y119.4216 I-0.3678 J1.2425
G3 X41.3603 Y119.7626 I-1.1039 J1.0895
G3 X41.5289 Y120.1533 I-1.9283 J1.064
G3 X41.6502 Y120.7069 I-2.7615 J0.895
G3 X41.6832 Y121.2726 I-4.5199 J0.5473
G3 X41.659 Y121.7493 I-4.0422 J0.0343
G0 Z3.0
G0 X36.5243 Y119.6478
G0 Z0.408
G1 F1000.0 Z-0.002
G1 F2000.0 X37.0636 Y118.33
G1 X36.1896
G1 X35.5132 Y120.0861
G1 X33.0888
G1 X32.452 Y118.33
G1 X31.6373
G1 X33.864 Y124.1281
G1 X34.6906
G1 X36.5243 Y119.6478
G0 Z3.0
G0 X35.2759 Y120.711
G0 Z0.408
G1 F1000.0 Z-0.002
G1 F2000.0 X34.6708 Y122.3167
G2 X34.2595 Y123.5191 I15.1948 J5.8698
G2 X33.947 Y122.4116 I-7.2479 J1.4471
G1 X33.3103 Y120.711
G1 X35.2759
G0 Z3.0
G0 X31.5463 Y118.33
G0 Z0.408
G1 F1000.0 Z-0.002
G1 F2000.0 X30.5812
G1 X29.814 Y119.5363
G3 X29.2603 Y120.3352 I-9.6541 J-6.0996
G3 X29.0796 Y120.5443 I-2.1187 J-1.6482
G3 X28.8687 Y120.7228 I-0.889 J-0.8363
G3 X28.5207 Y120.8771 I-0.6251 J-0.9406
G3 X28.0935 Y120.9048 I-0.3732 J-2.4495
G1 X27.2036
G1 Y118.33
G1 X26.4363
G1 Y124.1281
G1 X29.0071
G2 X29.6032 Y124.0991 I0.0294 J-5.5273
G2 X30.1857 Y123.9699 I-0.2129 J-2.3387
G2 X30.8304 Y123.4202 I-0.461 J-1.1935
G2 X31.0717 Y122.5461 I-1.4049 J-0.8581
G2 X30.9752 Y121.9864 I-1.579 J-0.0159
G2 X30.6722 Y121.5059 I-1.3357 J0.5065
G2 X30.1004 Y121.1334 I-1.1226 J1.0981
G2 X29.4382 Y120.968 I-1.021 J2.68
G2 X29.901 Y120.6793 I-0.8403 J-1.862
G2 X30.5377 Y119.9081 I-2.746 J-2.9157
G1 X31.5463 Y118.33
G0 Z3.0
G0 X29.7937 Y121.7265
G0 Z0.408
G1 F1000.0 Z-0.002
G3 F2000.0 X30.1264 Y122.024 I-0.4085 J0.7916
G3 X30.2807 Y122.5461 I-0.7968 J0.5192
G3 X29.9801 Y123.2224 I-0.8612 J0.0222
G3 X29.5327 Y123.4375 I-0.6463 J-0.7714
G3 X29.0388 Y123.4874 I-0.4673 J-2.1563
G1 X27.2036
G1 Y121.5692
G1 X28.8529
G3 X29.2685 Y121.5896 I0.019 J3.8645
G3 X29.6755 Y121.676 I-0.1699 J1.8018
G3 X29.7937 Y121.7265 I-0.2903 J0.8422
G0 Z3.0
G0 X25.5464 Y120.7861
G0 Z0.408
G1 F1000.0 Z-0.002
G1 F2000.0 Y120.0702
G1 X23.3593
G1 Y120.7861
G1 X25.5464
G0 Z3.0
G0 X22.7818 Y120.1691
G0 Z0.408
G1 F1000.0 Z-0.002
G2 F2000.0 X22.4669 Y119.3749 I-3.0361 J0.7444
G2 X21.9117 Y118.7255 I-1.9698 J1.122
G2 X21.1891 Y118.346 I-1.3685 J1.7281
G2 X20.3811 Y118.2311 I-0.7835 J2.6114
G2 X19.5906 Y118.3119 I-0.0305 J3.611
G2 X18.8544 Y118.6108 I0.4735 J2.2219
G2 X18.3241 Y119.0972 I1.2267 J1.8697
G2 X17.9606 Y119.7182 I2.1308 J1.6642
G2 X17.6561 Y121.2726 I3.6635 J1.5248
G2 X17.7341 Y122.0821 I4.0111 J0.0221
G2 X18.0001 Y122.8507 I2.9569 J-0.5935
G2 X18.985 Y123.875 I2.1241 J-1.0565
G2 X20.393 Y124.227 I1.3792 J-2.5246
G2 X21.1611 Y124.1259 I0.0244 J-2.7834
G2 X21.8563 Y123.7841 I-0.5789 J-2.0551
G2 X22.3735 Y123.23 I-1.2741 J-1.7075
G2 X22.683 Y122.5382 I-2.1962 J-1.3977
G1 X21.9275 Y122.3602
G3 X21.7057 Y122.866 I-2.3099 J-0.7119
G3 X21.3422 Y123.2818 I-1.2413 J-0.7183
G3 X20.8835 Y123.5057 I-0.8201 J-1.0978
G3 X20.3771 Y123.5705 I-0.4889 J-1.8111
G3 X19.7923 Y123.4985 I-0.0194 J-2.2542
G3 X19.2579 Y123.2501 I0.4196 J-1.6021
G3 X18.629 Y122.3879 I0.9859 J-1.3795
G3 X18.4471 Y121.2765 I3.2634 J-1.1048
G3 X18.4946 Y120.6201 I4.3073 J-0.0181
G3 X18.6606 Y119.9832 I3.0383 J0.4521
G3 X18.9274 Y119.5152 I1.6878 J0.6519
G3 X19.333 Y119.1606 I1.1822 J0.943
G3 X20.3178 Y118.8877 I0.9756 J1.6072
G3 X20.8971 Y118.9753 I0.017 J1.8469
G3 X21.4094 Y119.2594 I-0.4837 J1.476
G3 X21.805 Y119.7602 I-1.032 J1.2217
G3 X22.0146 Y120.3629 I-2.1634 J1.0901
G1 X22.7818 Y120.1691
G0 Z3.0
G0 X16.5887 Y122.594
G0 Z0.408
G1 F1000.0 Z-0.002
G1 F2000.0 X14.9191 Y118.33
G1 X14.1321
G1 X11.8856 Y124.1281
G1 X12.7162
G1 X14.223 Y119.916
G2 X14.5276 Y118.9668 I-12.5994 J-4.5658
G2 X14.84 Y119.916 I11.6353 J-3.3039
G1 X16.4062 Y124.1281
G1 X17.1894
G1 X16.5887 Y122.594
( mounting )
G0 Z3.0
( T3 : 3.175 )
T3 M6
M3 S1000
G0 X7.29 Y125.5
G0 Z3.0
G0 X7.3025 Y125.5
G0 Z0.01
G1 F1000.0 Z0.0
G2 F2000.0 X7.2838 Y125.4892 Z-0.0333 I-0.0125 J0.0
G2 Y125.5108 Z-0.0667 I0.0062 J0.0108
G2 X7.3025 Y125.5 Z-0.1 I0.0063 J-0.0108
G2 X7.2838 Y125.4892 Z-0.1333 I-0.0125 J0.0
G2 Y125.5108 Z-0.1667 I0.0062 J0.0108
G2 X7.3025 Y125.5 Z-0.2 I0.0063 J-0.0108
G2 X7.2838 Y125.4892 Z-0.2333 I-0.0125 J0.0
G2 Y125.5108 Z-0.2667 I0.0062 J0.0108
G2 X7.3025 Y125.5 Z-0.3 I0.0063 J-0.0108
G2 X7.2838 Y125.4892 Z-0.3333 I-0.0125 J0.0
G2 Y125.5108 Z-0.3667 I0.0062 J0.0108
G2 X7.3025 Y125.5 Z-0.4 I0.0063 J-0.0108
G2 X7.2838 Y125.4892 Z-0.4333 I-0.0125 J0.0
G2 Y125.5108 Z-0.4667 I0.0062 J0.0108
G2 X7.3025 Y125.5 Z-0.5 I0.0063 J-0.0108
G2 X7.2838 Y125.4892 Z-0.5333 I-0.0125 J0.0
G2 Y125.5108 Z-0.5667 I0.0062 J0.0108
G2 X7.3025 Y125.5 Z-0.6 I0.0063 J-0.0108
G2 X7.2838 Y125.4892 Z-0.6333 I-0.0125 J0.0
G2 Y125.5108 Z-0.6667 I0.0062 J0.0108
G2 X7.3025 Y125.5 Z-0.7 I0.0063 J-0.0108
G2 X7.2838 Y125.4892 Z-0.7333 I-0.0125 J0.0
G2 Y125.5108 Z-0.7667 I0.0062 J0.0108
G2 X7.3025 Y125.5 Z-0.8 I0.0063 J-0.0108
G2 X7.2838 Y125.4892 Z-0.8333 I-0.0125 J0.0
G2 Y125.5108 Z-0.8667 I0.0062 J0.0108
G2 X7.3025 Y125.5 Z-0.9 I0.0063 J-0.0108
G2 X7.2838 Y125.4892 Z-0.9333 I-0.0125 J0.0
G2 Y125.5108 Z-0.9667 I0.0062 J0.0108
G2 X7.3025 Y125.5 Z-1.0 I0.0063 J-0.0108
G2 X7.2838 Y125.4892 Z-1.0333 I-0.0125 J0.0
G2 Y125.5108 Z-1.0667 I0.0062 J0.0108
G2 X7.3025 Y125.5 Z-1.1 I0.0063 J-0.0108
G2 X7.2838 Y125.4892 Z-1.1333 I-0.0125 J0.0
G2 Y125.5108 Z-1.1667 I0.0062 J0.0108
G2 X7.3025 Y125.5 Z-1.2 I0.0063 J-0.0108
G2 X7.2838 Y125.4892 Z-1.2333 I-0.0125 J0.0
G2 Y125.5108 Z-1.2667 I0.0062 J0.0108
G2 X7.3025 Y125.5 Z-1.3 I0.0063 J-0.0108
G2 X7.2838 Y125.4892 Z-1.3333 I-0.0125 J0.0
G2 Y125.5108 Z-1.3667 I0.0062 J0.0108
G2 X7.3025 Y125.5 Z-1.4 I0.0063 J-0.0108
G2 X7.2838 Y125.4892 Z-1.4333 I-0.0125 J0.0
G2 Y125.5108 Z-1.4667 I0.0062 J0.0108
G2 X7.3025 Y125.5 Z-1.5 I0.0063 J-0.0108
G2 X7.2838 Y125.4892 Z-1.5333 I-0.0125 J0.0
G2 Y125.5108 Z-1.5667 I0.0062 J0.0108
G2 X7.3025 Y125.5 Z-1.6 I0.0063 J-0.0108
G2 X7.2838 Y125.4892 Z-1.6333 I-0.0125 J0.0
G2 Y125.5108 Z-1.6667 I0.0062 J0.0108
G2 X7.3025 Y125.5 Z-1.7 I0.0063 J-0.0108
G2 X7.2838 Y125.4892 Z-1.7333 I-0.0125 J0.0
G2 Y125.5108 Z-1.7667 I0.0062 J0.0108
G2 X7.3025 Y125.5 Z-1.8 I0.0063 J-0.0108
G2 X7.2838 Y125.4892 Z-1.8333 I-0.0125 J0.0
G2 Y125.5108 Z-1.8667 I0.0062 J0.0108
G2 X7.3025 Y125.5 Z-1.9 I0.0063 J-0.0108
G2 X7.2838 Y125.4892 Z-1.9333 I-0.0125 J0.0
G2 Y125.5108 Z-1.9667 I0.0062 J0.0108
G2 X7.3025 Y125.5 Z-2.0 I0.0063 J-0.0108
G2 X7.2838 Y125.4892 Z-2.0333 I-0.0125 J0.0
G2 Y125.5108 Z-2.0667 I0.0062 J0.0108
G2 X7.3025 Y125.5 Z-2.1 I0.0063 J-0.0108
G2 X7.2838 Y125.4892 Z-2.1333 I-0.0125 J0.0
G2 Y125.5108 Z-2.1667 I0.0062 J0.0108
G2 X7.3025 Y125.5 Z-2.2 I0.0063 J-0.0108
G2 X7.2838 Y125.4892 Z-2.2333 I-0.0125 J0.0
G2 Y125.5108 Z-2.2667 I0.0062 J0.0108
G2 X7.3025 Y125.5 Z-2.3 I0.0063 J-0.0108
G2 X7.2838 Y125.4892 Z-2.3333 I-0.0125 J0.0
G2 Y125.5108 Z-2.3667 I0.0062 J0.0108
G2 X7.3025 Y125.5 Z-2.4 I0.0063 J-0.0108
G2 X7.2838 Y125.4892 Z-2.4333 I-0.0125 J0.0
G2 Y125.5108 Z-2.4667 I0.0062 J0.0108
G2 X7.3025 Y125.5 Z-2.5 I0.0063 J-0.0108
G2 X7.2838 Y125.4892 Z-2.5333 I-0.0125 J0.0
G2 Y125.5108 Z-2.5667 I0.0062 J0.0108
G2 X7.3025 Y125.5 Z-2.6 I0.0063 J-0.0108
G2 X7.2838 Y125.4892 Z-2.6333 I-0.0125 J0.0
G2 Y125.5108 Z-2.6667 I0.0062 J0.0108
G2 X7.3025 Y125.5 Z-2.7 I0.0063 J-0.0108
G2 X7.2838 Y125.4892 Z-2.7333 I-0.0125 J0.0
G2 Y125.5108 Z-2.7667 I0.0062 J0.0108
G2 X7.3025 Y125.5 Z-2.8 I0.0063 J-0.0108
G2 X7.2838 Y125.4892 Z-2.8333 I-0.0125 J0.0
G2 Y125.5108 Z-2.8667 I0.0062 J0.0108
G2 X7.3025 Y125.5 Z-2.9 I0.0063 J-0.0108
G2 X7.2838 Y125.4892 Z-2.9333 I-0.0125 J0.0
G2 Y125.5108 Z-2.9667 I0.0062 J0.0108
G2 X7.3025 Y125.5 Z-3.0 I0.0063 J-0.0108
G2 X7.2838 Y125.4892 Z-3.0333 I-0.0125 J0.0
G2 Y125.5108 Z-3.0667 I0.0062 J0.0108
G2 X7.3025 Y125.5 Z-3.1 I0.0062 J-0.0108
G2 X7.2838 Y125.4892 Z-3.1333 I-0.0125 J0.0
G2 Y125.5108 Z-3.1667 I0.0063 J0.0108
G2 X7.3025 Y125.5 Z-3.2 I0.0062 J-0.0108
G2 X7.2838 Y125.4892 I-0.0125 J0.0
G2 Y125.5108 I0.0063 J0.0108
G2 X7.3025 Y125.5 I0.0062 J-0.0108
G0 Z3.0
G0 X17.8125 Y101.86
G0 Z0.01
G1 F1000.0 Z0.0
G2 F2000.0 X17.7937 Y101.8492 Z-0.0333 I-0.0125 J0.0
G2 Y101.8708 Z-0.0667 I0.0062 J0.0108
G2 X17.8125 Y101.86 Z-0.1 I0.0063 J-0.0108
G2 X17.7937 Y101.8492 Z-0.1333 I-0.0125 J0.0
G2 Y101.8708 Z-0.1667 I0.0062 J0.0108
G2 X17.8125 Y101.86 Z-0.2 I0.0063 J-0.0108
G2 X17.7937 Y101.8492 Z-0.2333 I-0.0125 J0.0
G2 Y101.8708 Z-0.2667 I0.0062 J0.0108
G2 X17.8125 Y101.86 Z-0.3 I0.0063 J-0.0108
G2 X17.7937 Y101.8492 Z-0.3333 I-0.0125 J0.0
G2 Y101.8708 Z-0.3667 I0.0062 J0.0108
G2 X17.8125 Y101.86 Z-0.4 I0.0063 J-0.0108
G2 X17.7937 Y101.8492 Z-0.4333 I-0.0125 J0.0
G2 Y101.8708 Z-0.4667 I0.0062 J0.0108
G2 X17.8125 Y101.86 Z-0.5 I0.0063 J-0.0108
G2 X17.7937 Y101.8492 Z-0.5333 I-0.0125 J0.0
G2 Y101.8708 Z-0.5667 I0.0062 J0.0108
G2 X17.8125 Y101.86 Z-0.6 I0.0063 J-0.0108
G2 X17.7937 Y101.8492 Z-0.6333 I-0.0125 J0.0
G2 Y101.8708 Z-0.6667 I0.0062 J0.0108
G2 X17.8125 Y101.86 Z-0.7 I0.0063 J-0.0108
G2 X17.7937 Y101.8492 Z-0.7333 I-0.0125 J0.0
G2 Y101.8708 Z-0.7667 I0.0062 J0.0108
G2 X17.8125 Y101.86 Z-0.8 I0.0063 J-0.0108
G2 X17.7937 Y101.8492 Z-0.8333 I-0.0125 J0.0
G2 Y101.8708 Z-0.8667 I0.0062 J0.0108
G2 X17.8125 Y101.86 Z-0.9 I0.0063 J-0.0108
G2 X17.7937 Y101.8492 Z-0.9333 I-0.0125 J0.0
G2 Y101.8708 Z-0.9667 I0.0062 J0.0108
G2 X17.8125 Y101.86 Z-1.0 I0.0063 J-0.0108
G2 X17.7937 Y101.8492 Z-1.0333 I-0.0125 J0.0
G2 Y101.8708 Z-1.0667 I0.0062 J0.0108
G2 X17.8125 Y101.86 Z-1.1 I0.0063 J-0.0108
G2 X17.7937 Y101.8492 Z-1.1333 I-0.0125 J0.0
G2 Y101.8708 Z-1.1667 I0.0062 J0.0108
G2 X17.8125 Y101.86 Z-1.2 I0.0063 J-0.0108
G2 X17.7937 Y101.8492 Z-1.2333 I-0.0125 J0.0
G2 Y101.8708 Z-1.2667 I0.0062 J0.0108
G2 X17.8125 Y101.86 Z-1.3 I0.0063 J-0.0108
G2 X17.7937 Y101.8492 Z-1.3333 I-0.0125 J0.0
G2 Y101.8708 Z-1.3667 I0.0062 J0.0108
G2 X17.8125 Y101.86 Z-1.4 I0.0063 J-0.0108
G2 X17.7937 Y101.8492 Z-1.4333 I-0.0125 J0.0
G2 Y101.8708 Z-1.4667 I0.0062 J0.0108
G2 X17.8125 Y101.86 Z-1.5 I0.0063 J-0.0108
G2 X17.7937 Y101.8492 Z-1.5333 I-0.0125 J0.0
G2 Y101.8708 Z-1.5667 I0.0062 J0.0108
G2 X17.8125 Y101.86 Z-1.6 I0.0063 J-0.0108
G2 X17.7937 Y101.8492 Z-1.6333 I-0.0125 J0.0
G2 Y101.8708 Z-1.6667 I0.0062 J0.0108
G2 X17.8125 Y101.86 Z-1.7 I0.0063 J-0.0108
G2 X17.7937 Y101.8492 Z-1.7333 I-0.0125 J0.0
G2 Y101.8708 Z-1.7667 I0.0062 J0.0108
G2 X17.8125 Y101.86 Z-1.8 I0.0063 J-0.0108
G2 X17.7937 Y101.8492 Z-1.8333 I-0.0125 J0.0
G2 Y101.8708 Z-1.8667 I0.0062 J0.0108
G2 X17.8125 Y101.86 Z-1.9 I0.0063 J-0.0108
G2 X17.7937 Y101.8492 Z-1.9333 I-0.0125 J0.0
G2 Y101.8708 Z-1.9667 I0.0062 J0.0108
G2 X17.8125 Y101.86 Z-2.0 I0.0063 J-0.0108
G2 X17.7937 Y101.8492 Z-2.0333 I-0.0125 J0.0
G2 Y101.8708 Z-2.0667 I0.0062 J0.0108
G2 X17.8125 Y101.86 Z-2.1 I0.0063 J-0.0108
G2 X17.7937 Y101.8492 Z-2.1333 I-0.0125 J0.0
G2 Y101.8708 Z-2.1667 I0.0062 J0.0108
G2 X17.8125 Y101.86 Z-2.2 I0.0063 J-0.0108
G2 X17.7937 Y101.8492 Z-2.2333 I-0.0125 J0.0
G2 Y101.8708 Z-2.2667 I0.0062 J0.0108
G2 X17.8125 Y101.86 Z-2.3 I0.0063 J-0.0108
G2 X17.7937 Y101.8492 Z-2.3333 I-0.0125 J0.0
G2 Y101.8708 Z-2.3667 I0.0062 J0.0108
G2 X17.8125 Y101.86 Z-2.4 I0.0063 J-0.0108
G2 X17.7937 Y101.8492 Z-2.4333 I-0.0125 J0.0
G2 Y101.8708 Z-2.4667 I0.0062 J0.0108
G2 X17.8125 Y101.86 Z-2.5 I0.0063 J-0.0108
G2 X17.7937 Y101.8492 Z-2.5333 I-0.0125 J0.0
G2 Y101.8708 Z-2.5667 I0.0062 J0.0108
G2 X17.8125 Y101.86 Z-2.6 I0.0063 J-0.0108
G2 X17.7937 Y101.8492 Z-2.6333 I-0.0125 J0.0
G2 Y101.8708 Z-2.6667 I0.0062 J0.0108
G2 X17.8125 Y101.86 Z-2.7 I0.0063 J-0.0108
G2 X17.7937 Y101.8492 Z-2.7333 I-0.0125 J0.0
G2 Y101.8708 Z-2.7667 I0.0062 J0.0108
G2 X17.8125 Y101.86 Z-2.8 I0.0063 J-0.0108
G2 X17.7937 Y101.8492 Z-2.8333 I-0.0125 J0.0
G2 Y101.8708 Z-2.8667 I0.0062 J0.0108
G2 X17.8125 Y101.86 Z-2.9 I0.0063 J-0.0108
G2 X17.7937 Y101.8492 Z-2.9333 I-0.0125 J0.0
G2 Y101.8708 Z-2.9667 I0.0062 J0.0108
G2 X17.8125 Y101.86 Z-3.0 I0.0063 J-0.0108
G2 X17.7937 Y101.8492 Z-3.0333 I-0.0125 J0.0
G2 Y101.8708 Z-3.0667 I0.0062 J0.0108
G2 X17.8125 Y101.86 Z-3.1 I0.0063 J-0.0108
G2 X17.7937 Y101.8492 Z-3.1333 I-0.0125 J0.0
G2 Y101.8708 Z-3.1667 I0.0062 J0.0108
G2 X17.8125 Y101.86 Z-3.2 I0.0063 J-0.0108
G2 X17.7937 Y101.8492 I-0.0125 J0.0
G2 Y101.8708 I0.0063 J0.0108
G2 X17.8125 Y101.86 I0.0062 J-0.0108
G0 Z3.0
G0 X34.7025
G0 Z0.01
G1 F1000.0 Z0.0
G2 F2000.0 X34.6837 Y101.8492 Z-0.0333 I-0.0125 J0.0
G2 Y101.8708 Z-0.0667 I0.0062 J0.0108
G2 X34.7025 Y101.86 Z-0.1 I0.0063 J-0.0108
G2 X34.6837 Y101.8492 Z-0.1333 I-0.0125 J0.0
G2 Y101.8708 Z-0.1667 I0.0062 J0.0108
G2 X34.7025 Y101.86 Z-0.2 I0.0063 J-0.0108
G2 X34.6837 Y101.8492 Z-0.2333 I-0.0125 J0.0
G2 Y101.8708 Z-0.2667 I0.0062 J0.0108
G2 X34.7025 Y101.86 Z-0.3 I0.0063 J-0.0108
G2 X34.6837 Y101.8492 Z-0.3333 I-0.0125 J0.0
G2 Y101.8708 Z-0.3667 I0.0062 J0.0108
G2 X34.7025 Y101.86 Z-0.4 I0.0063 J-0.0108
G2 X34.6837 Y101.8492 Z-0.4333 I-0.0125 J0.0
G2 Y101.8708 Z-0.4667 I0.0062 J0.0108
G2 X34.7025 Y101.86 Z-0.5 I0.0063 J-0.0108
G2 X34.6837 Y101.8492 Z-0.5333 I-0.0125 J0.0
G2 Y101.8708 Z-0.5667 I0.0062 J0.0108
G2 X34.7025 Y101.86 Z-0.6 I0.0063 J-0.0108
G2 X34.6837 Y101.8492 Z-0.6333 I-0.0125 J0.0
G2 Y101.8708 Z-0.6667 I0.0062 J0.0108
G2 X34.7025 Y101.86 Z-0.7 I0.0063 J-0.0108
G2 X34.6837 Y101.8492 Z-0.7333 I-0.0125 J0.0
G2 Y101.8708 Z-0.7667 I0.0062 J0.0108
G2 X34.7025 Y101.86 Z-0.8 I0.0063 J-0.0108
G2 X34.6837 Y101.8492 Z-0.8333 I-0.0125 J0.0
G2 Y101.8708 Z-0.8667 I0.0062 J0.0108
G2 X34.7025 Y101.86 Z-0.9 I0.0063 J-0.0108
G2 X34.6837 Y101.8492 Z-0.9333 I-0.0125 J0.0
G2 Y101.8708 Z-0.9667 I0.0062 J0.0108
G2 X34.7025 Y101.86 Z-1.0 I0.0063 J-0.0108
G2 X34.6837 Y101.8492 Z-1.0333 I-0.0125 J0.0
G2 Y101.8708 Z-1.0667 I0.0062 J0.0108
G2 X34.7025 Y101.86 Z-1.1 I0.0063 J-0.0108
G2 X34.6837 Y101.8492 Z-1.1333 I-0.0125 J0.0
G2 Y101.8708 Z-1.1667 I0.0062 J0.0108
G2 X34.7025 Y101.86 Z-1.2 I0.0063 J-0.0108
G2 X34.6837 Y101.8492 Z-1.2333 I-0.0125 J0.0
G2 Y101.8708 Z-1.2667 I0.0062 J0.0108
G2 X34.7025 Y101.86 Z-1.3 I0.0063 J-0.0108
G2 X34.6837 Y101.8492 Z-1.3333 I-0.0125 J0.0
G2 Y101.8708 Z-1.3667 I0.0062 J0.0108
G2 X34.7025 Y101.86 Z-1.4 I0.0063 J-0.0108
G2 X34.6837 Y101.8492 Z-1.4333 I-0.0125 J0.0
G2 Y101.8708 Z-1.4667 I0.0062 J0.0108
G2 X34.7025 Y101.86 Z-1.5 I0.0063 J-0.0108
G2 X34.6837 Y101.8492 Z-1.5333 I-0.0125 J0.0
G2 Y101.8708 Z-1.5667 I0.0062 J0.0108
G2 X34.7025 Y101.86 Z-1.6 I0.0063 J-0.0108
G2 X34.6837 Y101.8492 Z-1.6333 I-0.0125 J0.0
G2 Y101.8708 Z-1.6667 I0.0062 J0.0108
G2 X34.7025 Y101.86 Z-1.7 I0.0063 J-0.0108
G2 X34.6837 Y101.8492 Z-1.7333 I-0.0125 J0.0
G2 Y101.8708 Z-1.7667 I0.0062 J0.0108
G2 X34.7025 Y101.86 Z-1.8 I0.0063 J-0.0108
G2 X34.6837 Y101.8492 Z-1.8333 I-0.0125 J0.0
G2 Y101.8708 Z-1.8667 I0.0062 J0.0108
G2 X34.7025 Y101.86 Z-1.9 I0.0063 J-0.0108
G2 X34.6837 Y101.8492 Z-1.9333 I-0.0125 J0.0
G2 Y101.8708 Z-1.9667 I0.0062 J0.0108
G2 X34.7025 Y101.86 Z-2.0 I0.0063 J-0.0108
G2 X34.6837 Y101.8492 Z-2.0333 I-0.0125 J0.0
G2 Y101.8708 Z-2.0667 I0.0062 J0.0108
G2 X34.7025 Y101.86 Z-2.1 I0.0063 J-0.0108
G2 X34.6837 Y101.8492 Z-2.1333 I-0.0125 J0.0
G2 Y101.8708 Z-2.1667 I0.0062 J0.0108
G2 X34.7025 Y101.86 Z-2.2 I0.0063 J-0.0108
G2 X34.6837 Y101.8492 Z-2.2333 I-0.0125 J0.0
G2 Y101.8708 Z-2.2667 I0.0062 J0.0108
G2 X34.7025 Y101.86 Z-2.3 I0.0063 J-0.0108
G2 X34.6837 Y101.8492 Z-2.3333 I-0.0125 J0.0
G2 Y101.8708 Z-2.3667 I0.0062 J0.0108
G2 X34.7025 Y101.86 Z-2.4 I0.0063 J-0.0108
G2 X34.6837 Y101.8492 Z-2.4333 I-0.0125 J0.0
G2 Y101.8708 Z-2.4667 I0.0062 J0.0108
G2 X34.7025 Y101.86 Z-2.5 I0.0063 J-0.0108
G2 X34.6837 Y101.8492 Z-2.5333 I-0.0125 J0.0
G2 Y101.8708 Z-2.5667 I0.0062 J0.0108
G2 X34.7025 Y101.86 Z-2.6 I0.0063 J-0.0108
G2 X34.6837 Y101.8492 Z-2.6333 I-0.0125 J0.0
G2 Y101.8708 Z-2.6667 I0.0062 J0.0108
G2 X34.7025 Y101.86 Z-2.7 I0.0063 J-0.0108
G2 X34.6837 Y101.8492 Z-2.7333 I-0.0125 J0.0
G2 Y101.8708 Z-2.7667 I0.0062 J0.0108
G2 X34.7025 Y101.86 Z-2.8 I0.0063 J-0.0108
G2 X34.6837 Y101.8492 Z-2.8333 I-0.0125 J0.0
G2 Y101.8708 Z-2.8667 I0.0062 J0.0108
G2 X34.7025 Y101.86 Z-2.9 I0.0063 J-0.0108
G2 X34.6837 Y101.8492 Z-2.9333 I-0.0125 J0.0
G2 Y101.8708 Z-2.9667 I0.0063 J0.0108
G2 X34.7025 Y101.86 Z-3.0 I0.0063 J-0.0108
G2 X34.6837 Y101.8492 Z-3.0333 I-0.0125 J0.0
G2 Y101.8708 Z-3.0667 I0.0063 J0.0108
G2 X34.7025 Y101.86 Z-3.1 I0.0063 J-0.0108
G2 X34.6837 Y101.8492 Z-3.1333 I-0.0125 J0.0
G2 Y101.8708 Z-3.1667 I0.0063 J0.0108
G2 X34.7025 Y101.86 Z-3.2 I0.0063 J-0.0108
G2 X34.6837 Y101.8492 I-0.0125 J0.0
G2 Y101.8708 I0.0063 J0.0108
G2 X34.7025 Y101.86 I0.0062 J-0.0108
G0 Z3.0
G0 X53.7225
G0 Z0.01
G1 F1000.0 Z0.0
G2 F2000.0 X53.7037 Y101.8492 Z-0.0333 I-0.0125 J0.0
G2 Y101.8708 Z-0.0667 I0.0062 J0.0108
G2 X53.7225 Y101.86 Z-0.1 I0.0063 J-0.0108
G2 X53.7037 Y101.8492 Z-0.1333 I-0.0125 J0.0
G2 Y101.8708 Z-0.1667 I0.0062 J0.0108
G2 X53.7225 Y101.86 Z-0.2 I0.0063 J-0.0108
G2 X53.7037 Y101.8492 Z-0.2333 I-0.0125 J0.0
G2 Y101.8708 Z-0.2667 I0.0062 J0.0108
G2 X53.7225 Y101.86 Z-0.3 I0.0063 J-0.0108
G2 X53.7037 Y101.8492 Z-0.3333 I-0.0125 J0.0
G2 Y101.8708 Z-0.3667 I0.0062 J0.0108
G2 X53.7225 Y101.86 Z-0.4 I0.0063 J-0.0108
G2 X53.7037 Y101.8492 Z-0.4333 I-0.0125 J0.0
G2 Y101.8708 Z-0.4667 I0.0062 J0.0108
G2 X53.7225 Y101.86 Z-0.5 I0.0063 J-0.0108
G2 X53.7037 Y101.8492 Z-0.5333 I-0.0125 J0.0
G2 Y101.8708 Z-0.5667 I0.0062 J0.0108
G2 X53.7225 Y101.86 Z-0.6 I0.0063 J-0.0108
G2 X53.7037 Y101.8492 Z-0.6333 I-0.0125 J0.0
G2 Y101.8708 Z-0.6667 I0.0062 J0.0108
G2 X53.7225 Y101.86 Z-0.7 I0.0063 J-0.0108
G2 X53.7037 Y101.8492 Z-0.7333 I-0.0125 J0.0
G2 Y101.8708 Z-0.7667 I0.0062 J0.0108
G2 X53.7225 Y101.86 Z-0.8 I0.0063 J-0.0108
G2 X53.7037 Y101.8492 Z-0.8333 I-0.0125 J0.0
G2 Y101.8708 Z-0.8667 I0.0062 J0.0108
G2 X53.7225 Y101.86 Z-0.9 I0.0063 J-0.0108
G2 X53.7037 Y101.8492 Z-0.9333 I-0.0125 J0.0
G2 Y101.8708 Z-0.9667 I0.0062 J0.0108
G2 X53.7225 Y101.86 Z-1.0 I0.0063 J-0.0108
G2 X53.7037 Y101.8492 Z-1.0333 I-0.0125 J0.0
G2 Y101.8708 Z-1.0667 I0.0062 J0.0108
G2 X53.7225 Y101.86 Z-1.1 I0.0063 J-0.0108
G2 X53.7037 Y101.8492 Z-1.1333 I-0.0125 J0.0
G2 Y101.8708 Z-1.1667 I0.0062 J0.0108
G2 X53.7225 Y101.86 Z-1.2 I0.0063 J-0.0108
G2 X53.7037 Y101.8492 Z-1.2333 I-0.0125 J0.0
G2 Y101.8708 Z-1.2667 I0.0062 J0.0108
G2 X53.7225 Y101.86 Z-1.3 I0.0063 J-0.0108
G2 X53.7037 Y101.8492 Z-1.3333 I-0.0125 J0.0
G2 Y101.8708 Z-1.3667 I0.0062 J0.0108
G2 X53.7225 Y101.86 Z-1.4 I0.0063 J-0.0108
G2 X53.7037 Y101.8492 Z-1.4333 I-0.0125 J0.0
G2 Y101.8708 Z-1.4667 I0.0062 J0.0108
G2 X53.7225 Y101.86 Z-1.5 I0.0063 J-0.0108
G2 X53.7037 Y101.8492 Z-1.5333 I-0.0125 J0.0
G2 Y101.8708 Z-1.5667 I0.0062 J0.0108
G2 X53.7225 Y101.86 Z-1.6 I0.0063 J-0.0108
G2 X53.7037 Y101.8492 Z-1.6333 I-0.0125 J0.0
G2 Y101.8708 Z-1.6667 I0.0062 J0.0108
G2 X53.7225 Y101.86 Z-1.7 I0.0063 J-0.0108
G2 X53.7037 Y101.8492 Z-1.7333 I-0.0125 J0.0
G2 Y101.8708 Z-1.7667 I0.0062 J0.0108
G2 X53.7225 Y101.86 Z-1.8 I0.0063 J-0.0108
G2 X53.7037 Y101.8492 Z-1.8333 I-0.0125 J0.0
G2 Y101.8708 Z-1.8667 I0.0062 J0.0108
G2 X53.7225 Y101.86 Z-1.9 I0.0063 J-0.0108
G2 X53.7037 Y101.8492 Z-1.9333 I-0.0125 J0.0
G2 Y101.8708 Z-1.9667 I0.0062 J0.0108
G2 X53.7225 Y101.86 Z-2.0 I0.0063 J-0.0108
G2 X53.7037 Y101.8492 Z-2.0333 I-0.0125 J0.0
G2 Y101.8708 Z-2.0667 I0.0062 J0.0108
G2 X53.7225 Y101.86 Z-2.1 I0.0063 J-0.0108
G2 X53.7037 Y101.8492 Z-2.1333 I-0.0125 J0.0
G2 Y101.8708 Z-2.1667 I0.0062 J0.0108
G2 X53.7225 Y101.86 Z-2.2 I0.0063 J-0.0108
G2 X53.7037 Y101.8492 Z-2.2333 I-0.0125 J0.0
G2 Y101.8708 Z-2.2667 I0.0062 J0.0108
G2 X53.7225 Y101.86 Z-2.3 I0.0063 J-0.0108
G2 X53.7037 Y101.8492 Z-2.3333 I-0.0125 J0.0
G2 Y101.8708 Z-2.3667 I0.0062 J0.0108
G2 X53.7225 Y101.86 Z-2.4 I0.0063 J-0.0108
G2 X53.7037 Y101.8492 Z-2.4333 I-0.0125 J0.0
G2 Y101.8708 Z-2.4667 I0.0062 J0.0108
G2 X53.7225 Y101.86 Z-2.5 I0.0063 J-0.0108
G2 X53.7037 Y101.8492 Z-2.5333 I-0.0125 J0.0
G2 Y101.8708 Z-2.5667 I0.0062 J0.0108
G2 X53.7225 Y101.86 Z-2.6 I0.0063 J-0.0108
G2 X53.7037 Y101.8492 Z-2.6333 I-0.0125 J0.0
G2 Y101.8708 Z-2.6667 I0.0062 J0.0108
G2 X53.7225 Y101.86 Z-2.7 I0.0063 J-0.0108
G2 X53.7037 Y101.8492 Z-2.7333 I-0.0125 J0.0
G2 Y101.8708 Z-2.7667 I0.0062 J0.0108
G2 X53.7225 Y101.86 Z-2.8 I0.0063 J-0.0108
G2 X53.7037 Y101.8492 Z-2.8333 I-0.0125 J0.0
G2 Y101.8708 Z-2.8667 I0.0062 J0.0108
G2 X53.7225 Y101.86 Z-2.9 I0.0063 J-0.0108
G2 X53.7037 Y101.8492 Z-2.9333 I-0.0125 J0.0
G2 Y101.8708 Z-2.9667 I0.0063 J0.0108
G2 X53.7225 Y101.86 Z-3.0 I0.0063 J-0.0108
G2 X53.7037 Y101.8492 Z-3.0333 I-0.0125 J0.0
G2 Y101.8708 Z-3.0667 I0.0063 J0.0108
G2 X53.7225 Y101.86 Z-3.1 I0.0063 J-0.0108
G2 X53.7037 Y101.8492 Z-3.1333 I-0.0125 J0.0
G2 Y101.8708 Z-3.1667 I0.0063 J0.0108
G2 X53.7225 Y101.86 Z-3.2 I0.0063 J-0.0108
G2 X53.7037 Y101.8492 I-0.0125 J0.0
G2 Y101.8708 I0.0063 J0.0108
G2 X53.7225 Y101.86 I0.0062 J-0.0108
G0 Z3.0
G0 Y81.54
G0 Z0.01
G1 F1000.0 Z0.0
G2 F2000.0 X53.7037 Y81.5292 Z-0.0333 I-0.0125 J0.0
G2 Y81.5508 Z-0.0667 I0.0062 J0.0108
G2 X53.7225 Y81.54 Z-0.1 I0.0063 J-0.0108
G2 X53.7037 Y81.5292 Z-0.1333 I-0.0125 J0.0
G2 Y81.5508 Z-0.1667 I0.0062 J0.0108
G2 X53.7225 Y81.54 Z-0.2 I0.0063 J-0.0108
G2 X53.7037 Y81.5292 Z-0.2333 I-0.0125 J0.0
G2 Y81.5508 Z-0.2667 I0.0062 J0.0108
G2 X53.7225 Y81.54 Z-0.3 I0.0063 J-0.0108
G2 X53.7037 Y81.5292 Z-0.3333 I-0.0125 J0.0
G2 Y81.5508 Z-0.3667 I0.0062 J0.0108
G2 X53.7225 Y81.54 Z-0.4 I0.0063 J-0.0108
G2 X53.7037 Y81.5292 Z-0.4333 I-0.0125 J0.0
G2 Y81.5508 Z-0.4667 I0.0062 J0.0108
G2 X53.7225 Y81.54 Z-0.5 I0.0063 J-0.0108
G2 X53.7037 Y81.5292 Z-0.5333 I-0.0125 J0.0
G2 Y81.5508 Z-0.5667 I0.0062 J0.0108
G2 X53.7225 Y81.54 Z-0.6 I0.0063 J-0.0108
G2 X53.7037 Y81.5292 Z-0.6333 I-0.0125 J0.0
G2 Y81.5508 Z-0.6667 I0.0062 J0.0108
G2 X53.7225 Y81.54 Z-0.7 I0.0063 J-0.0108
G2 X53.7037 Y81.5292 Z-0.7333 I-0.0125 J0.0
G2 Y81.5508 Z-0.7667 I0.0062 J0.0108
G2 X53.7225 Y81.54 Z-0.8 I0.0063 J-0.0108
G2 X53.7037 Y81.5292 Z-0.8333 I-0.0125 J0.0
G2 Y81.5508 Z-0.8667 I0.0062 J0.0108
G2 X53.7225 Y81.54 Z-0.9 I0.0063 J-0.0108
G2 X53.7037 Y81.5292 Z-0.9333 I-0.0125 J0.0
G2 Y81.5508 Z-0.9667 I0.0062 J0.0108
G2 X53.7225 Y81.54 Z-1.0 I0.0063 J-0.0108
G2 X53.7037 Y81.5292 Z-1.0333 I-0.0125 J0.0
G2 Y81.5508 Z-1.0667 I0.0062 J0.0108
G2 X53.7225 Y81.54 Z-1.1 I0.0063 J-0.0108
G2 X53.7037 Y81.5292 Z-1.1333 I-0.0125 J0.0
G2 Y81.5508 Z-1.1667 I0.0062 J0.0108
G2 X53.7225 Y81.54 Z-1.2 I0.0063 J-0.0108
G2 X53.7037 Y81.5292 Z-1.2333 I-0.0125 J0.0
G2 Y81.5508 Z-1.2667 I0.0062 J0.0108
G2 X53.7225 Y81.54 Z-1.3 I0.0063 J-0.0108
G2 X53.7037 Y81.5292 Z-1.3333 I-0.0125 J0.0
G2 Y81.5508 Z-1.3667 I0.0062 J0.0108
G2 X53.7225 Y81.54 Z-1.4 I0.0063 J-0.0108
G2 X53.7037 Y81.5292 Z-1.4333 I-0.0125 J0.0
G2 Y81.5508 Z-1.4667 I0.0062 J0.0108
G2 X53.7225 Y81.54 Z-1.5 I0.0063 J-0.0108
G2 X53.7037 Y81.5292 Z-1.5333 I-0.0125 J0.0
G2 Y81.5508 Z-1.5667 I0.0062 J0.0108
G2 X53.7225 Y81.54 Z-1.6 I0.0063 J-0.0108
G2 X53.7037 Y81.5292 Z-1.6333 I-0.0125 J0.0
G2 Y81.5508 Z-1.6667 I0.0062 J0.0108
G2 X53.7225 Y81.54 Z-1.7 I0.0063 J-0.0108
G2 X53.7037 Y81.5292 Z-1.7333 I-0.0125 J0.0
G2 Y81.5508 Z-1.7667 I0.0062 J0.0108
G2 X53.7225 Y81.54 Z-1.8 I0.0063 J-0.0108
G2 X53.7037 Y81.5292 Z-1.8333 I-0.0125 J0.0
G2 Y81.5508 Z-1.8667 I0.0062 J0.0108
G2 X53.7225 Y81.54 Z-1.9 I0.0063 J-0.0108
G2 X53.7037 Y81.5292 Z-1.9333 I-0.0125 J0.0
G2 Y81.5508 Z-1.9667 I0.0062 J0.0108
G2 X53.7225 Y81.54 Z-2.0 I0.0063 J-0.0108
G2 X53.7037 Y81.5292 Z-2.0333 I-0.0125 J0.0
G2 Y81.5508 Z-2.0667 I0.0062 J0.0108
G2 X53.7225 Y81.54 Z-2.1 I0.0063 J-0.0108
G2 X53.7037 Y81.5292 Z-2.1333 I-0.0125 J0.0
G2 Y81.5508 Z-2.1667 I0.0062 J0.0108
G2 X53.7225 Y81.54 Z-2.2 I0.0063 J-0.0108
G2 X53.7037 Y81.5292 Z-2.2333 I-0.0125 J0.0
G2 Y81.5508 Z-2.2667 I0.0062 J0.0108
G2 X53.7225 Y81.54 Z-2.3 I0.0063 J-0.0108
G2 X53.7037 Y81.5292 Z-2.3333 I-0.0125 J0.0
G2 Y81.5508 Z-2.3667 I0.0062 J0.0108
G2 X53.7225 Y81.54 Z-2.4 I0.0063 J-0.0108
G2 X53.7037 Y81.5292 Z-2.4333 I-0.0125 J0.0
G2 Y81.5508 Z-2.4667 I0.0062 J0.0108
G2 X53.7225 Y81.54 Z-2.5 I0.0063 J-0.0108
G2 X53.7037 Y81.5292 Z-2.5333 I-0.0125 J0.0
G2 Y81.5508 Z-2.5667 I0.0062 J0.0108
G2 X53.7225 Y81.54 Z-2.6 I0.0063 J-0.0108
G2 X53.7037 Y81.5292 Z-2.6333 I-0.0125 J0.0
G2 Y81.5508 Z-2.6667 I0.0062 J0.0108
G2 X53.7225 Y81.54 Z-2.7 I0.0063 J-0.0108
G2 X53.7037 Y81.5292 Z-2.7333 I-0.0125 J0.0
G2 Y81.5508 Z-2.7667 I0.0062 J0.0108
G2 X53.7225 Y81.54 Z-2.8 I0.0063 J-0.0108
G2 X53.7037 Y81.5292 Z-2.8333 I-0.0125 J0.0
G2 Y81.5508 Z-2.8667 I0.0062 J0.0108
G2 X53.7225 Y81.54 Z-2.9 I0.0063 J-0.0108
G2 X53.7037 Y81.5292 Z-2.9333 I-0.0125 J0.0
G2 Y81.5508 Z-2.9667 I0.0063 J0.0108
G2 X53.7225 Y81.54 Z-3.0 I0.0063 J-0.0108
G2 X53.7037 Y81.5292 Z-3.0333 I-0.0125 J0.0
G2 Y81.5508 Z-3.0667 I0.0063 J0.0108
G2 X53.7225 Y81.54 Z-3.1 I0.0063 J-0.0108
G2 X53.7037 Y81.5292 Z-3.1333 I-0.0125 J0.0
G2 Y81.5508 Z-3.1667 I0.0063 J0.0108
G2 X53.7225 Y81.54 Z-3.2 I0.0063 J-0.0108
G2 X53.7037 Y81.5292 I-0.0125 J0.0
G2 Y81.5508 I0.0063 J0.0108
G2 X53.7225 Y81.54 I0.0062 J-0.0108
G0 Z3.0
G0 X34.7025
G0 Z0.01
G1 F1000.0 Z0.0
G2 F2000.0 X34.6837 Y81.5292 Z-0.0333 I-0.0125 J0.0
G2 Y81.5508 Z-0.0667 I0.0062 J0.0108
G2 X34.7025 Y81.54 Z-0.1 I0.0063 J-0.0108
G2 X34.6837 Y81.5292 Z-0.1333 I-0.0125 J0.0
G2 Y81.5508 Z-0.1667 I0.0062 J0.0108
G2 X34.7025 Y81.54 Z-0.2 I0.0063 J-0.0108
G2 X34.6837 Y81.5292 Z-0.2333 I-0.0125 J0.0
G2 Y81.5508 Z-0.2667 I0.0062 J0.0108
G2 X34.7025 Y81.54 Z-0.3 I0.0063 J-0.0108
G2 X34.6837 Y81.5292 Z-0.3333 I-0.0125 J0.0
G2 Y81.5508 Z-0.3667 I0.0062 J0.0108
G2 X34.7025 Y81.54 Z-0.4 I0.0063 J-0.0108
G2 X34.6837 Y81.5292 Z-0.4333 I-0.0125 J0.0
G2 Y81.5508 Z-0.4667 I0.0062 J0.0108
G2 X34.7025 Y81.54 Z-0.5 I0.0063 J-0.0108
G2 X34.6837 Y81.5292 Z-0.5333 I-0.0125 J0.0
G2 Y81.5508 Z-0.5667 I0.0062 J0.0108
G2 X34.7025 Y81.54 Z-0.6 I0.0063 J-0.0108
G2 X34.6837 Y81.5292 Z-0.6333 I-0.0125 J0.0
G2 Y81.5508 Z-0.6667 I0.0062 J0.0108
G2 X34.7025 Y81.54 Z-0.7 I0.0063 J-0.0108
G2 X34.6837 Y81.5292 Z-0.7333 I-0.0125 J0.0
G2 Y81.5508 Z-0.7667 I0.0062 J0.0108
G2 X34.7025 Y81.54 Z-0.8 I0.0063 J-0.0108
G2 X34.6837 Y81.5292 Z-0.8333 I-0.0125 J0.0
G2 Y81.5508 Z-0.8667 I0.0062 J0.0108
G2 X34.7025 Y81.54 Z-0.9 I0.0063 J-0.0108
G2 X34.6837 Y81.5292 Z-0.9333 I-0.0125 J0.0
G2 Y81.5508 Z-0.9667 I0.0062 J0.0108
G2 X34.7025 Y81.54 Z-1.0 I0.0063 J-0.0108
G2 X34.6837 Y81.5292 Z-1.0333 I-0.0125 J0.0
G2 Y81.5508 Z-1.0667 I0.0062 J0.0108
G2 X34.7025 Y81.54 Z-1.1 I0.0063 J-0.0108
G2 X34.6837 Y81.5292 Z-1.1333 I-0.0125 J0.0
G2 Y81.5508 Z-1.1667 I0.0062 J0.0108
G2 X34.7025 Y81.54 Z-1.2 I0.0063 J-0.0108
G2 X34.6837 Y81.5292 Z-1.2333 I-0.0125 J0.0
G2 Y81.5508 Z-1.2667 I0.0062 J0.0108
G2 X34.7025 Y81.54 Z-1.3 I0.0063 J-0.0108
G2 X34.6837 Y81.5292 Z-1.3333 I-0.0125 J0.0
G2 Y81.5508 Z-1.3667 I0.0062 J0.0108
G2 X34.7025 Y81.54 Z-1.4 I0.0063 J-0.0108
G2 X34.6837 Y81.5292 Z-1.4333 I-0.0125 J0.0
G2 Y81.5508 Z-1.4667 I0.0062 J0.0108
G2 X34.7025 Y81.54 Z-1.5 I0.0063 J-0.0108
G2 X34.6837 Y81.5292 Z-1.5333 I-0.0125 J0.0
G2 Y81.5508 Z-1.5667 I0.0062 J0.0108
G2 X34.7025 Y81.54 Z-1.6 I0.0063 J-0.0108
G2 X34.6837 Y81.5292 Z-1.6333 I-0.0125 J0.0
G2 Y81.5508 Z-1.6667 I0.0062 J0.0108
G2 X34.7025 Y81.54 Z-1.7 I0.0063 J-0.0108
G2 X34.6837 Y81.5292 Z-1.7333 I-0.0125 J0.0
G2 Y81.5508 Z-1.7667 I0.0062 J0.0108
G2 X34.7025 Y81.54 Z-1.8 I0.0063 J-0.0108
G2 X34.6837 Y81.5292 Z-1.8333 I-0.0125 J0.0
G2 Y81.5508 Z-1.8667 I0.0062 J0.0108
G2 X34.7025 Y81.54 Z-1.9 I0.0063 J-0.0108
G2 X34.6837 Y81.5292 Z-1.9333 I-0.0125 J0.0
G2 Y81.5508 Z-1.9667 I0.0062 J0.0108
G2 X34.7025 Y81.54 Z-2.0 I0.0063 J-0.0108
G2 X34.6837 Y81.5292 Z-2.0333 I-0.0125 J0.0
G2 Y81.5508 Z-2.0667 I0.0062 J0.0108
G2 X34.7025 Y81.54 Z-2.1 I0.0063 J-0.0108
G2 X34.6837 Y81.5292 Z-2.1333 I-0.0125 J0.0
G2 Y81.5508 Z-2.1667 I0.0062 J0.0108
G2 X34.7025 Y81.54 Z-2.2 I0.0063 J-0.0108
G2 X34.6837 Y81.5292 Z-2.2333 I-0.0125 J0.0
G2 Y81.5508 Z-2.2667 I0.0062 J0.0108
G2 X34.7025 Y81.54 Z-2.3 I0.0063 J-0.0108
G2 X34.6837 Y81.5292 Z-2.3333 I-0.0125 J0.0
G2 Y81.5508 Z-2.3667 I0.0062 J0.0108
G2 X34.7025 Y81.54 Z-2.4 I0.0063 J-0.0108
G2 X34.6837 Y81.5292 Z-2.4333 I-0.0125 J0.0
G2 Y81.5508 Z-2.4667 I0.0062 J0.0108
G2 X34.7025 Y81.54 Z-2.5 I0.0063 J-0.0108
G2 X34.6837 Y81.5292 Z-2.5333 I-0.0125 J0.0
G2 Y81.5508 Z-2.5667 I0.0062 J0.0108
G2 X34.7025 Y81.54 Z-2.6 I0.0063 J-0.0108
G2 X34.6837 Y81.5292 Z-2.6333 I-0.0125 J0.0
G2 Y81.5508 Z-2.6667 I0.0062 J0.0108
G2 X34.7025 Y81.54 Z-2.7 I0.0063 J-0.0108
G2 X34.6837 Y81.5292 Z-2.7333 I-0.0125 J0.0
G2 Y81.5508 Z-2.7667 I0.0062 J0.0108
G2 X34.7025 Y81.54 Z-2.8 I0.0063 J-0.0108
G2 X34.6837 Y81.5292 Z-2.8333 I-0.0125 J0.0
G2 Y81.5508 Z-2.8667 I0.0062 J0.0108
G2 X34.7025 Y81.54 Z-2.9 I0.0063 J-0.0108
G2 X34.6837 Y81.5292 Z-2.9333 I-0.0125 J0.0
G2 Y81.5508 Z-2.9667 I0.0063 J0.0108
G2 X34.7025 Y81.54 Z-3.0 I0.0063 J-0.0108
G2 X34.6837 Y81.5292 Z-3.0333 I-0.0125 J0.0
G2 Y81.5508 Z-3.0667 I0.0063 J0.0108
G2 X34.7025 Y81.54 Z-3.1 I0.0063 J-0.0108
G2 X34.6837 Y81.5292 Z-3.1333 I-0.0125 J0.0
G2 Y81.5508 Z-3.1667 I0.0063 J0.0108
G2 X34.7025 Y81.54 Z-3.2 I0.0063 J-0.0108
G2 X34.6837 Y81.5292 I-0.0125 J0.0
G2 Y81.5508 I0.0063 J0.0108
G2 X34.7025 Y81.54 I0.0062 J-0.0108
G0 Z3.0
G0 X17.8125
G0 Z0.01
G1 F1000.0 Z0.0
G2 F2000.0 X17.7937 Y81.5292 Z-0.0333 I-0.0125 J0.0
G2 Y81.5508 Z-0.0667 I0.0062 J0.0108
G2 X17.8125 Y81.54 Z-0.1 I0.0063 J-0.0108
G2 X17.7937 Y81.5292 Z-0.1333 I-0.0125 J0.0
G2 Y81.5508 Z-0.1667 I0.0062 J0.0108
G2 X17.8125 Y81.54 Z-0.2 I0.0063 J-0.0108
G2 X17.7937 Y81.5292 Z-0.2333 I-0.0125 J0.0
G2 Y81.5508 Z-0.2667 I0.0062 J0.0108
G2 X17.8125 Y81.54 Z-0.3 I0.0063 J-0.0108
G2 X17.7937 Y81.5292 Z-0.3333 I-0.0125 J0.0
G2 Y81.5508 Z-0.3667 I0.0062 J0.0108
G2 X17.8125 Y81.54 Z-0.4 I0.0063 J-0.0108
G2 X17.7937 Y81.5292 Z-0.4333 I-0.0125 J0.0
G2 Y81.5508 Z-0.4667 I0.0062 J0.0108
G2 X17.8125 Y81.54 Z-0.5 I0.0063 J-0.0108
G2 X17.7937 Y81.5292 Z-0.5333 I-0.0125 J0.0
G2 Y81.5508 Z-0.5667 I0.0062 J0.0108
G2 X17.8125 Y81.54 Z-0.6 I0.0063 J-0.0108
G2 X17.7937 Y81.5292 Z-0.6333 I-0.0125 J0.0
G2 Y81.5508 Z-0.6667 I0.0062 J0.0108
G2 X17.8125 Y81.54 Z-0.7 I0.0063 J-0.0108
G2 X17.7937 Y81.5292 Z-0.7333 I-0.0125 J0.0
G2 Y81.5508 Z-0.7667 I0.0062 J0.0108
G2 X17.8125 Y81.54 Z-0.8 I0.0063 J-0.0108
G2 X17.7937 Y81.5292 Z-0.8333 I-0.0125 J0.0
G2 Y81.5508 Z-0.8667 I0.0062 J0.0108
G2 X17.8125 Y81.54 Z-0.9 I0.0063 J-0.0108
G2 X17.7937 Y81.5292 Z-0.9333 I-0.0125 J0.0
G2 Y81.5508 Z-0.9667 I0.0062 J0.0108
G2 X17.8125 Y81.54 Z-1.0 I0.0063 J-0.0108
G2 X17.7937 Y81.5292 Z-1.0333 I-0.0125 J0.0
G2 Y81.5508 Z-1.0667 I0.0062 J0.0108
G2 X17.8125 Y81.54 Z-1.1 I0.0063 J-0.0108
G2 X17.7937 Y81.5292 Z-1.1333 I-0.0125 J0.0
G2 Y81.5508 Z-1.1667 I0.0062 J0.0108
G2 X17.8125 Y81.54 Z-1.2 I0.0063 J-0.0108
G2 X17.7937 Y81.5292 Z-1.2333 I-0.0125 J0.0
G2 Y81.5508 Z-1.2667 I0.0062 J0.0108
G2 X17.8125 Y81.54 Z-1.3 I0.0063 J-0.0108
G2 X17.7937 Y81.5292 Z-1.3333 I-0.0125 J0.0
G2 Y81.5508 Z-1.3667 I0.0062 J0.0108
G2 X17.8125 Y81.54 Z-1.4 I0.0063 J-0.0108
G2 X17.7937 Y81.5292 Z-1.4333 I-0.0125 J0.0
G2 Y81.5508 Z-1.4667 I0.0062 J0.0108
G2 X17.8125 Y81.54 Z-1.5 I0.0063 J-0.0108
G2 X17.7937 Y81.5292 Z-1.5333 I-0.0125 J0.0
G2 Y81.5508 Z-1.5667 I0.0062 J0.0108
G2 X17.8125 Y81.54 Z-1.6 I0.0063 J-0.0108
G2 X17.7937 Y81.5292 Z-1.6333 I-0.0125 J0.0
G2 Y81.5508 Z-1.6667 I0.0062 J0.0108
G2 X17.8125 Y81.54 Z-1.7 I0.0063 J-0.0108
G2 X17.7937 Y81.5292 Z-1.7333 I-0.0125 J0.0
G2 Y81.5508 Z-1.7667 I0.0062 J0.0108
G2 X17.8125 Y81.54 Z-1.8 I0.0063 J-0.0108
G2 X17.7937 Y81.5292 Z-1.8333 I-0.0125 J0.0
G2 Y81.5508 Z-1.8667 I0.0062 J0.0108
G2 X17.8125 Y81.54 Z-1.9 I0.0063 J-0.0108
G2 X17.7937 Y81.5292 Z-1.9333 I-0.0125 J0.0
G2 Y81.5508 Z-1.9667 I0.0062 J0.0108
G2 X17.8125 Y81.54 Z-2.0 I0.0063 J-0.0108
G2 X17.7937 Y81.5292 Z-2.0333 I-0.0125 J0.0
G2 Y81.5508 Z-2.0667 I0.0062 J0.0108
G2 X17.8125 Y81.54 Z-2.1 I0.0063 J-0.0108
G2 X17.7937 Y81.5292 Z-2.1333 I-0.0125 J0.0
G2 Y81.5508 Z-2.1667 I0.0062 J0.0108
G2 X17.8125 Y81.54 Z-2.2 I0.0063 J-0.0108
G2 X17.7937 Y81.5292 Z-2.2333 I-0.0125 J0.0
G2 Y81.5508 Z-2.2667 I0.0062 J0.0108
G2 X17.8125 Y81.54 Z-2.3 I0.0063 J-0.0108
G2 X17.7937 Y81.5292 Z-2.3333 I-0.0125 J0.0
G2 Y81.5508 Z-2.3667 I0.0062 J0.0108
G2 X17.8125 Y81.54 Z-2.4 I0.0063 J-0.0108
G2 X17.7937 Y81.5292 Z-2.4333 I-0.0125 J0.0
G2 Y81.5508 Z-2.4667 I0.0062 J0.0108
G2 X17.8125 Y81.54 Z-2.5 I0.0063 J-0.0108
G2 X17.7937 Y81.5292 Z-2.5333 I-0.0125 J0.0
G2 Y81.5508 Z-2.5667 I0.0062 J0.0108
G2 X17.8125 Y81.54 Z-2.6 I0.0063 J-0.0108
G2 X17.7937 Y81.5292 Z-2.6333 I-0.0125 J0.0
G2 Y81.5508 Z-2.6667 I0.0062 J0.0108
G2 X17.8125 Y81.54 Z-2.7 I0.0063 J-0.0108
G2 X17.7937 Y81.5292 Z-2.7333 I-0.0125 J0.0
G2 Y81.5508 Z-2.7667 I0.0062 J0.0108
G2 X17.8125 Y81.54 Z-2.8 I0.0063 J-0.0108
G2 X17.7937 Y81.5292 Z-2.8333 I-0.0125 J0.0
G2 Y81.5508 Z-2.8667 I0.0062 J0.0108
G2 X17.8125 Y81.54 Z-2.9 I0.0063 J-0.0108
G2 X17.7937 Y81.5292 Z-2.9333 I-0.0125 J0.0
G2 Y81.5508 Z-2.9667 I0.0062 J0.0108
G2 X17.8125 Y81.54 Z-3.0 I0.0063 J-0.0108
G2 X17.7937 Y81.5292 Z-3.0333 I-0.0125 J0.0
G2 Y81.5508 Z-3.0667 I0.0062 J0.0108
G2 X17.8125 Y81.54 Z-3.1 I0.0063 J-0.0108
G2 X17.7937 Y81.5292 Z-3.1333 I-0.0125 J0.0
G2 Y81.5508 Z-3.1667 I0.0062 J0.0108
G2 X17.8125 Y81.54 Z-3.2 I0.0063 J-0.0108
G2 X17.7937 Y81.5292 I-0.0125 J0.0
G2 Y81.5508 I0.0063 J0.0108
G2 X17.8125 Y81.54 I0.0062 J-0.0108
G0 Z3.0
G0 Y61.22
G0 Z0.01
G1 F1000.0 Z0.0
G2 F2000.0 X17.7937 Y61.2092 Z-0.0333 I-0.0125 J0.0
G2 Y61.2308 Z-0.0667 I0.0063 J0.0108
G2 X17.8125 Y61.22 Z-0.1 I0.0062 J-0.0108
G2 X17.7937 Y61.2092 Z-0.1333 I-0.0125 J0.0
G2 Y61.2308 Z-0.1667 I0.0063 J0.0108
G2 X17.8125 Y61.22 Z-0.2 I0.0062 J-0.0108
G2 X17.7937 Y61.2092 Z-0.2333 I-0.0125 J0.0
G2 Y61.2308 Z-0.2667 I0.0063 J0.0108
G2 X17.8125 Y61.22 Z-0.3 I0.0062 J-0.0108
G2 X17.7937 Y61.2092 Z-0.3333 I-0.0125 J0.0
G2 Y61.2308 Z-0.3667 I0.0063 J0.0108
G2 X17.8125 Y61.22 Z-0.4 I0.0062 J-0.0108
G2 X17.7937 Y61.2092 Z-0.4333 I-0.0125 J0.0
G2 Y61.2308 Z-0.4667 I0.0063 J0.0108
G2 X17.8125 Y61.22 Z-0.5 I0.0062 J-0.0108
G2 X17.7937 Y61.2092 Z-0.5333 I-0.0125 J0.0
G2 Y61.2308 Z-0.5667 I0.0063 J0.0108
G2 X17.8125 Y61.22 Z-0.6 I0.0062 J-0.0108
G2 X17.7937 Y61.2092 Z-0.6333 I-0.0125 J0.0
G2 Y61.2308 Z-0.6667 I0.0063 J0.0108
G2 X17.8125 Y61.22 Z-0.7 I0.0062 J-0.0108
G2 X17.7937 Y61.2092 Z-0.7333 I-0.0125 J0.0
G2 Y61.2308 Z-0.7667 I0.0063 J0.0108
G2 X17.8125 Y61.22 Z-0.8 I0.0062 J-0.0108
G2 X17.7937 Y61.2092 Z-0.8333 I-0.0125 J0.0
G2 Y61.2308 Z-0.8667 I0.0063 J0.0108
G2 X17.8125 Y61.22 Z-0.9 I0.0062 J-0.0108
G2 X17.7937 Y61.2092 Z-0.9333 I-0.0125 J0.0
G2 Y61.2308 Z-0.9667 I0.0063 J0.0108
G2 X17.8125 Y61.22 Z-1.0 I0.0062 J-0.0108
G2 X17.7937 Y61.2092 Z-1.0333 I-0.0125 J0.0
G2 Y61.2308 Z-1.0667 I0.0063 J0.0108
G2 X17.8125 Y61.22 Z-1.1 I0.0062 J-0.0108
G2 X17.7937 Y61.2092 Z-1.1333 I-0.0125 J0.0
G2 Y61.2308 Z-1.1667 I0.0063 J0.0108
G2 X17.8125 Y61.22 Z-1.2 I0.0062 J-0.0108
G2 X17.7937 Y61.2092 Z-1.2333 I-0.0125 J0.0
G2 Y61.2308 Z-1.2667 I0.0063 J0.0108
G2 X17.8125 Y61.22 Z-1.3 I0.0062 J-0.0108
G2 X17.7937 Y61.2092 Z-1.3333 I-0.0125 J0.0
G2 Y61.2308 Z-1.3667 I0.0063 J0.0108
G2 X17.8125 Y61.22 Z-1.4 I0.0062 J-0.0108
G2 X17.7937 Y61.2092 Z-1.4333 I-0.0125 J0.0
G2 Y61.2308 Z-1.4667 I0.0063 J0.0108
G2 X17.8125 Y61.22 Z-1.5 I0.0062 J-0.0108
G2 X17.7937 Y61.2092 Z-1.5333 I-0.0125 J0.0
G2 Y61.2308 Z-1.5667 I0.0063 J0.0108
G2 X17.8125 Y61.22 Z-1.6 I0.0062 J-0.0108
G2 X17.7937 Y61.2092 Z-1.6333 I-0.0125 J0.0
G2 Y61.2308 Z-1.6667 I0.0063 J0.0108
G2 X17.8125 Y61.22 Z-1.7 I0.0062 J-0.0108
G2 X17.7937 Y61.2092 Z-1.7333 I-0.0125 J0.0
G2 Y61.2308 Z-1.7667 I0.0063 J0.0108
G2 X17.8125 Y61.22 Z-1.8 I0.0062 J-0.0108
G2 X17.7937 Y61.2092 Z-1.8333 I-0.0125 J0.0
G2 Y61.2308 Z-1.8667 I0.0063 J0.0108
G2 X17.8125 Y61.22 Z-1.9 I0.0062 J-0.0108
G2 X17.7937 Y61.2092 Z-1.9333 I-0.0125 J0.0
G2 Y61.2308 Z-1.9667 I0.0063 J0.0108
G2 X17.8125 Y61.22 Z-2.0 I0.0062 J-0.0108
G2 X17.7937 Y61.2092 Z-2.0333 I-0.0125 J0.0
G2 Y61.2308 Z-2.0667 I0.0063 J0.0108
G2 X17.8125 Y61.22 Z-2.1 I0.0062 J-0.0108
G2 X17.7937 Y61.2092 Z-2.1333 I-0.0125 J0.0
G2 Y61.2308 Z-2.1667 I0.0063 J0.0108
G2 X17.8125 Y61.22 Z-2.2 I0.0062 J-0.0108
G2 X17.7937 Y61.2092 Z-2.2333 I-0.0125 J0.0
G2 Y61.2308 Z-2.2667 I0.0063 J0.0108
G2 X17.8125 Y61.22 Z-2.3 I0.0062 J-0.0108
G2 X17.7937 Y61.2092 Z-2.3333 I-0.0125 J0.0
G2 Y61.2308 Z-2.3667 I0.0063 J0.0108
G2 X17.8125 Y61.22 Z-2.4 I0.0062 J-0.0108
G2 X17.7937 Y61.2092 Z-2.4333 I-0.0125 J0.0
G2 Y61.2308 Z-2.4667 I0.0063 J0.0108
G2 X17.8125 Y61.22 Z-2.5 I0.0062 J-0.0108
G2 X17.7937 Y61.2092 Z-2.5333 I-0.0125 J0.0
G2 Y61.2308 Z-2.5667 I0.0063 J0.0108
G2 X17.8125 Y61.22 Z-2.6 I0.0062 J-0.0108
G2 X17.7937 Y61.2092 Z-2.6333 I-0.0125 J0.0
G2 Y61.2308 Z-2.6667 I0.0063 J0.0108
G2 X17.8125 Y61.22 Z-2.7 I0.0062 J-0.0108
G2 X17.7937 Y61.2092 Z-2.7333 I-0.0125 J0.0
G2 Y61.2308 Z-2.7667 I0.0063 J0.0108
G2 X17.8125 Y61.22 Z-2.8 I0.0062 J-0.0108
G2 X17.7937 Y61.2092 Z-2.8333 I-0.0125 J0.0
G2 Y61.2308 Z-2.8667 I0.0063 J0.0108
G2 X17.8125 Y61.22 Z-2.9 I0.0062 J-0.0108
G2 X17.7937 Y61.2092 Z-2.9333 I-0.0125 J0.0
G2 Y61.2308 Z-2.9667 I0.0063 J0.0108
G2 X17.8125 Y61.22 Z-3.0 I0.0062 J-0.0108
G2 X17.7937 Y61.2092 Z-3.0333 I-0.0125 J0.0
G2 Y61.2308 Z-3.0667 I0.0063 J0.0108
G2 X17.8125 Y61.22 Z-3.1 I0.0062 J-0.0108
G2 X17.7937 Y61.2092 Z-3.1333 I-0.0125 J0.0
G2 Y61.2308 Z-3.1667 I0.0063 J0.0108
G2 X17.8125 Y61.22 Z-3.2 I0.0062 J-0.0108
G2 X17.7937 Y61.2092 I-0.0125 J0.0
G2 Y61.2308 I0.0063 J0.0108
G2 X17.8125 Y61.22 I0.0062 J-0.0108
G0 Z3.0
G0 X34.7025
G0 Z0.01
G1 F1000.0 Z0.0
G2 F2000.0 X34.6837 Y61.2092 Z-0.0333 I-0.0125 J0.0
G2 Y61.2308 Z-0.0667 I0.0063 J0.0108
G2 X34.7025 Y61.22 Z-0.1 I0.0063 J-0.0108
G2 X34.6837 Y61.2092 Z-0.1333 I-0.0125 J0.0
G2 Y61.2308 Z-0.1667 I0.0063 J0.0108
G2 X34.7025 Y61.22 Z-0.2 I0.0063 J-0.0108
G2 X34.6837 Y61.2092 Z-0.2333 I-0.0125 J0.0
G2 Y61.2308 Z-0.2667 I0.0063 J0.0108
G2 X34.7025 Y61.22 Z-0.3 I0.0063 J-0.0108
G2 X34.6837 Y61.2092 Z-0.3333 I-0.0125 J0.0
G2 Y61.2308 Z-0.3667 I0.0063 J0.0108
G2 X34.7025 Y61.22 Z-0.4 I0.0063 J-0.0108
G2 X34.6837 Y61.2092 Z-0.4333 I-0.0125 J0.0
G2 Y61.2308 Z-0.4667 I0.0063 J0.0108
G2 X34.7025 Y61.22 Z-0.5 I0.0063 J-0.0108
G2 X34.6837 Y61.2092 Z-0.5333 I-0.0125 J0.0
G2 Y61.2308 Z-0.5667 I0.0063 J0.0108
G2 X34.7025 Y61.22 Z-0.6 I0.0063 J-0.0108
G2 X34.6837 Y61.2092 Z-0.6333 I-0.0125 J0.0
G2 Y61.2308 Z-0.6667 I0.0063 J0.0108
G2 X34.7025 Y61.22 Z-0.7 I0.0063 J-0.0108
G2 X34.6837 Y61.2092 Z-0.7333 I-0.0125 J0.0
G2 Y61.2308 Z-0.7667 I0.0063 J0.0108
G2 X34.7025 Y61.22 Z-0.8 I0.0063 J-0.0108
G2 X34.6837 Y61.2092 Z-0.8333 I-0.0125 J0.0
G2 Y61.2308 Z-0.8667 I0.0063 J0.0108
G2 X34.7025 Y61.22 Z-0.9 I0.0063 J-0.0108
G2 X34.6837 Y61.2092 Z-0.9333 I-0.0125 J0.0
G2 Y61.2308 Z-0.9667 I0.0063 J0.0108
G2 X34.7025 Y61.22 Z-1.0 I0.0063 J-0.0108
G2 X34.6837 Y61.2092 Z-1.0333 I-0.0125 J0.0
G2 Y61.2308 Z-1.0667 I0.0063 J0.0108
G2 X34.7025 Y61.22 Z-1.1 I0.0063 J-0.0108
G2 X34.6837 Y61.2092 Z-1.1333 I-0.0125 J0.0
G2 Y61.2308 Z-1.1667 I0.0063 J0.0108
G2 X34.7025 Y61.22 Z-1.2 I0.0063 J-0.0108
G2 X34.6837 Y61.2092 Z-1.2333 I-0.0125 J0.0
G2 Y61.2308 Z-1.2667 I0.0063 J0.0108
G2 X34.7025 Y61.22 Z-1.3 I0.0063 J-0.0108
G2 X34.6837 Y61.2092 Z-1.3333 I-0.0125 J0.0
G2 Y61.2308 Z-1.3667 I0.0063 J0.0108
G2 X34.7025 Y61.22 Z-1.4 I0.0063 J-0.0108
G2 X34.6837 Y61.2092 Z-1.4333 I-0.0125 J0.0
G2 Y61.2308 Z-1.4667 I0.0063 J0.0108
G2 X34.7025 Y61.22 Z-1.5 I0.0063 J-0.0108
G2 X34.6837 Y61.2092 Z-1.5333 I-0.0125 J0.0
G2 Y61.2308 Z-1.5667 I0.0063 J0.0108
G2 X34.7025 Y61.22 Z-1.6 I0.0063 J-0.0108
G2 X34.6837 Y61.2092 Z-1.6333 I-0.0125 J0.0
G2 Y61.2308 Z-1.6667 I0.0063 J0.0108
G2 X34.7025 Y61.22 Z-1.7 I0.0063 J-0.0108
G2 X34.6837 Y61.2092 Z-1.7333 I-0.0125 J0.0
G2 Y61.2308 Z-1.7667 I0.0063 J0.0108
G2 X34.7025 Y61.22 Z-1.8 I0.0063 J-0.0108
G2 X34.6837 Y61.2092 Z-1.8333 I-0.0125 J0.0
G2 Y61.2308 Z-1.8667 I0.0063 J0.0108
G2 X34.7025 Y61.22 Z-1.9 I0.0063 J-0.0108
G2 X34.6837 Y61.2092 Z-1.9333 I-0.0125 J0.0
G2 Y61.2308 Z-1.9667 I0.0063 J0.0108
G2 X34.7025 Y61.22 Z-2.0 I0.0063 J-0.0108
G2 X34.6837 Y61.2092 Z-2.0333 I-0.0125 J0.0
G2 Y61.2308 Z-2.0667 I0.0063 J0.0108
G2 X34.7025 Y61.22 Z-2.1 I0.0063 J-0.0108
G2 X34.6837 Y61.2092 Z-2.1333 I-0.0125 J0.0
G2 Y61.2308 Z-2.1667 I0.0063 J0.0108
G2 X34.7025 Y61.22 Z-2.2 I0.0063 J-0.0108
G2 X34.6837 Y61.2092 Z-2.2333 I-0.0125 J0.0
G2 Y61.2308 Z-2.2667 I0.0063 J0.0108
G2 X34.7025 Y61.22 Z-2.3 I0.0063 J-0.0108
G2 X34.6837 Y61.2092 Z-2.3333 I-0.0125 J0.0
G2 Y61.2308 Z-2.3667 I0.0063 J0.0108
G2 X34.7025 Y61.22 Z-2.4 I0.0063 J-0.0108
G2 X34.6837 Y61.2092 Z-2.4333 I-0.0125 J0.0
G2 Y61.2308 Z-2.4667 I0.0063 J0.0108
G2 X34.7025 Y61.22 Z-2.5 I0.0063 J-0.0108
G2 X34.6837 Y61.2092 Z-2.5333 I-0.0125 J0.0
G2 Y61.2308 Z-2.5667 I0.0063 J0.0108
G2 X34.7025 Y61.22 Z-2.6 I0.0063 J-0.0108
G2 X34.6837 Y61.2092 Z-2.6333 I-0.0125 J0.0
G2 Y61.2308 Z-2.6667 I0.0063 J0.0108
G2 X34.7025 Y61.22 Z-2.7 I0.0063 J-0.0108
G2 X34.6837 Y61.2092 Z-2.7333 I-0.0125 J0.0
G2 Y61.2308 Z-2.7667 I0.0063 J0.0108
G2 X34.7025 Y61.22 Z-2.8 I0.0063 J-0.0108
G2 X34.6837 Y61.2092 Z-2.8333 I-0.0125 J0.0
G2 Y61.2308 Z-2.8667 I0.0063 J0.0108
G2 X34.7025 Y61.22 Z-2.9 I0.0063 J-0.0108
G2 X34.6837 Y61.2092 Z-2.9333 I-0.0125 J0.0
G2 Y61.2308 Z-2.9667 I0.0063 J0.0108
G2 X34.7025 Y61.22 Z-3.0 I0.0062 J-0.0108
G2 X34.6837 Y61.2092 Z-3.0333 I-0.0125 J0.0
G2 Y61.2308 Z-3.0667 I0.0063 J0.0108
G2 X34.7025 Y61.22 Z-3.1 I0.0062 J-0.0108
G2 X34.6837 Y61.2092 Z-3.1333 I-0.0125 J0.0
G2 Y61.2308 Z-3.1667 I0.0063 J0.0108
G2 X34.7025 Y61.22 Z-3.2 I0.0062 J-0.0108
G2 X34.6837 Y61.2092 I-0.0125 J0.0
G2 Y61.2308 I0.0063 J0.0108
G2 X34.7025 Y61.22 I0.0062 J-0.0108
G0 Z3.0
G0 X53.7225
G0 Z0.01
G1 F1000.0 Z0.0
G2 F2000.0 X53.7037 Y61.2092 Z-0.0333 I-0.0125 J0.0
G2 Y61.2308 Z-0.0667 I0.0063 J0.0108
G2 X53.7225 Y61.22 Z-0.1 I0.0063 J-0.0108
G2 X53.7037 Y61.2092 Z-0.1333 I-0.0125 J0.0
G2 Y61.2308 Z-0.1667 I0.0063 J0.0108
G2 X53.7225 Y61.22 Z-0.2 I0.0063 J-0.0108
G2 X53.7037 Y61.2092 Z-0.2333 I-0.0125 J0.0
G2 Y61.2308 Z-0.2667 I0.0063 J0.0108
G2 X53.7225 Y61.22 Z-0.3 I0.0063 J-0.0108
G2 X53.7037 Y61.2092 Z-0.3333 I-0.0125 J0.0
G2 Y61.2308 Z-0.3667 I0.0063 J0.0108
G2 X53.7225 Y61.22 Z-0.4 I0.0063 J-0.0108
G2 X53.7037 Y61.2092 Z-0.4333 I-0.0125 J0.0
G2 Y61.2308 Z-0.4667 I0.0063 J0.0108
G2 X53.7225 Y61.22 Z-0.5 I0.0063 J-0.0108
G2 X53.7037 Y61.2092 Z-0.5333 I-0.0125 J0.0
G2 Y61.2308 Z-0.5667 I0.0063 J0.0108
G2 X53.7225 Y61.22 Z-0.6 I0.0063 J-0.0108
G2 X53.7037 Y61.2092 Z-0.6333 I-0.0125 J0.0
G2 Y61.2308 Z-0.6667 I0.0063 J0.0108
G2 X53.7225 Y61.22 Z-0.7 I0.0063 J-0.0108
G2 X53.7037 Y61.2092 Z-0.7333 I-0.0125 J0.0
G2 Y61.2308 Z-0.7667 I0.0063 J0.0108
G2 X53.7225 Y61.22 Z-0.8 I0.0063 J-0.0108
G2 X53.7037 Y61.2092 Z-0.8333 I-0.0125 J0.0
G2 Y61.2308 Z-0.8667 I0.0063 J0.0108
G2 X53.7225 Y61.22 Z-0.9 I0.0063 J-0.0108
G2 X53.7037 Y61.2092 Z-0.9333 I-0.0125 J0.0
G2 Y61.2308 Z-0.9667 I0.0063 J0.0108
G2 X53.7225 Y61.22 Z-1.0 I0.0063 J-0.0108
G2 X53.7037 Y61.2092 Z-1.0333 I-0.0125 J0.0
G2 Y61.2308 Z-1.0667 I0.0063 J0.0108
G2 X53.7225 Y61.22 Z-1.1 I0.0063 J-0.0108
G2 X53.7037 Y61.2092 Z-1.1333 I-0.0125 J0.0
G2 Y61.2308 Z-1.1667 I0.0063 J0.0108
G2 X53.7225 Y61.22 Z-1.2 I0.0063 J-0.0108
G2 X53.7037 Y61.2092 Z-1.2333 I-0.0125 J0.0
G2 Y61.2308 Z-1.2667 I0.0063 J0.0108
G2 X53.7225 Y61.22 Z-1.3 I0.0063 J-0.0108
G2 X53.7037 Y61.2092 Z-1.3333 I-0.0125 J0.0
G2 Y61.2308 Z-1.3667 I0.0063 J0.0108
G2 X53.7225 Y61.22 Z-1.4 I0.0063 J-0.0108
G2 X53.7037 Y61.2092 Z-1.4333 I-0.0125 J0.0
G2 Y61.2308 Z-1.4667 I0.0063 J0.0108
G2 X53.7225 Y61.22 Z-1.5 I0.0063 J-0.0108
G2 X53.7037 Y61.2092 Z-1.5333 I-0.0125 J0.0
G2 Y61.2308 Z-1.5667 I0.0063 J0.0108
G2 X53.7225 Y61.22 Z-1.6 I0.0063 J-0.0108
G2 X53.7037 Y61.2092 Z-1.6333 I-0.0125 J0.0
G2 Y61.2308 Z-1.6667 I0.0063 J0.0108
G2 X53.7225 Y61.22 Z-1.7 I0.0063 J-0.0108
G2 X53.7037 Y61.2092 Z-1.7333 I-0.0125 J0.0
G2 Y61.2308 Z-1.7667 I0.0063 J0.0108
G2 X53.7225 Y61.22 Z-1.8 I0.0063 J-0.0108
G2 X53.7037 Y61.2092 Z-1.8333 I-0.0125 J0.0
G2 Y61.2308 Z-1.8667 I0.0063 J0.0108
G2 X53.7225 Y61.22 Z-1.9 I0.0063 J-0.0108
G2 X53.7037 Y61.2092 Z-1.9333 I-0.0125 J0.0
G2 Y61.2308 Z-1.9667 I0.0063 J0.0108
G2 X53.7225 Y61.22 Z-2.0 I0.0063 J-0.0108
G2 X53.7037 Y61.2092 Z-2.0333 I-0.0125 J0.0
G2 Y61.2308 Z-2.0667 I0.0063 J0.0108
G2 X53.7225 Y61.22 Z-2.1 I0.0063 J-0.0108
G2 X53.7037 Y61.2092 Z-2.1333 I-0.0125 J0.0
G2 Y61.2308 Z-2.1667 I0.0063 J0.0108
G2 X53.7225 Y61.22 Z-2.2 I0.0063 J-0.0108
G2 X53.7037 Y61.2092 Z-2.2333 I-0.0125 J0.0
G2 Y61.2308 Z-2.2667 I0.0063 J0.0108
G2 X53.7225 Y61.22 Z-2.3 I0.0063 J-0.0108
G2 X53.7037 Y61.2092 Z-2.3333 I-0.0125 J0.0
G2 Y61.2308 Z-2.3667 I0.0063 J0.0108
G2 X53.7225 Y61.22 Z-2.4 I0.0063 J-0.0108
G2 X53.7037 Y61.2092 Z-2.4333 I-0.0125 J0.0
G2 Y61.2308 Z-2.4667 I0.0063 J0.0108
G2 X53.7225 Y61.22 Z-2.5 I0.0063 J-0.0108
G2 X53.7037 Y61.2092 Z-2.5333 I-0.0125 J0.0
G2 Y61.2308 Z-2.5667 I0.0063 J0.0108
G2 X53.7225 Y61.22 Z-2.6 I0.0063 J-0.0108
G2 X53.7037 Y61.2092 Z-2.6333 I-0.0125 J0.0
G2 Y61.2308 Z-2.6667 I0.0063 J0.0108
G2 X53.7225 Y61.22 Z-2.7 I0.0063 J-0.0108
G2 X53.7037 Y61.2092 Z-2.7333 I-0.0125 J0.0
G2 Y61.2308 Z-2.7667 I0.0063 J0.0108
G2 X53.7225 Y61.22 Z-2.8 I0.0063 J-0.0108
G2 X53.7037 Y61.2092 Z-2.8333 I-0.0125 J0.0
G2 Y61.2308 Z-2.8667 I0.0063 J0.0108
G2 X53.7225 Y61.22 Z-2.9 I0.0063 J-0.0108
G2 X53.7037 Y61.2092 Z-2.9333 I-0.0125 J0.0
G2 Y61.2308 Z-2.9667 I0.0063 J0.0108
G2 X53.7225 Y61.22 Z-3.0 I0.0062 J-0.0108
G2 X53.7037 Y61.2092 Z-3.0333 I-0.0125 J0.0
G2 Y61.2308 Z-3.0667 I0.0063 J0.0108
G2 X53.7225 Y61.22 Z-3.1 I0.0062 J-0.0108
G2 X53.7037 Y61.2092 Z-3.1333 I-0.0125 J0.0
G2 Y61.2308 Z-3.1667 I0.0063 J0.0108
G2 X53.7225 Y61.22 Z-3.2 I0.0062 J-0.0108
G2 X53.7037 Y61.2092 I-0.0125 J0.0
G2 Y61.2308 I0.0063 J0.0108
G2 X53.7225 Y61.22 I0.0062 J-0.0108
G0 Z3.0
G0 Y40.9
G0 Z0.01
G1 F1000.0 Z0.0
G2 F2000.0 X53.7037 Y40.8892 Z-0.0333 I-0.0125 J0.0
G2 Y40.9108 Z-0.0667 I0.0063 J0.0108
G2 X53.7225 Y40.9 Z-0.1 I0.0063 J-0.0108
G2 X53.7037 Y40.8892 Z-0.1333 I-0.0125 J0.0
G2 Y40.9108 Z-0.1667 I0.0063 J0.0108
G2 X53.7225 Y40.9 Z-0.2 I0.0063 J-0.0108
G2 X53.7037 Y40.8892 Z-0.2333 I-0.0125 J0.0
G2 Y40.9108 Z-0.2667 I0.0063 J0.0108
G2 X53.7225 Y40.9 Z-0.3 I0.0063 J-0.0108
G2 X53.7037 Y40.8892 Z-0.3333 I-0.0125 J0.0
G2 Y40.9108 Z-0.3667 I0.0063 J0.0108
G2 X53.7225 Y40.9 Z-0.4 I0.0063 J-0.0108
G2 X53.7037 Y40.8892 Z-0.4333 I-0.0125 J0.0
G2 Y40.9108 Z-0.4667 I0.0063 J0.0108
G2 X53.7225 Y40.9 Z-0.5 I0.0063 J-0.0108
G2 X53.7037 Y40.8892 Z-0.5333 I-0.0125 J0.0
G2 Y40.9108 Z-0.5667 I0.0063 J0.0108
G2 X53.7225 Y40.9 Z-0.6 I0.0063 J-0.0108
G2 X53.7037 Y40.8892 Z-0.6333 I-0.0125 J0.0
G2 Y40.9108 Z-0.6667 I0.0063 J0.0108
G2 X53.7225 Y40.9 Z-0.7 I0.0063 J-0.0108
G2 X53.7037 Y40.8892 Z-0.7333 I-0.0125 J0.0
G2 Y40.9108 Z-0.7667 I0.0063 J0.0108
G2 X53.7225 Y40.9 Z-0.8 I0.0063 J-0.0108
G2 X53.7037 Y40.8892 Z-0.8333 I-0.0125 J0.0
G2 Y40.9108 Z-0.8667 I0.0063 J0.0108
G2 X53.7225 Y40.9 Z-0.9 I0.0063 J-0.0108
G2 X53.7037 Y40.8892 Z-0.9333 I-0.0125 J0.0
G2 Y40.9108 Z-0.9667 I0.0063 J0.0108
G2 X53.7225 Y40.9 Z-1.0 I0.0063 J-0.0108
G2 X53.7037 Y40.8892 Z-1.0333 I-0.0125 J0.0
G2 Y40.9108 Z-1.0667 I0.0063 J0.0108
G2 X53.7225 Y40.9 Z-1.1 I0.0063 J-0.0108
G2 X53.7037 Y40.8892 Z-1.1333 I-0.0125 J0.0
G2 Y40.9108 Z-1.1667 I0.0063 J0.0108
G2 X53.7225 Y40.9 Z-1.2 I0.0063 J-0.0108
G2 X53.7037 Y40.8892 Z-1.2333 I-0.0125 J0.0
G2 Y40.9108 Z-1.2667 I0.0063 J0.0108
G2 X53.7225 Y40.9 Z-1.3 I0.0063 J-0.0108
G2 X53.7037 Y40.8892 Z-1.3333 I-0.0125 J0.0
G2 Y40.9108 Z-1.3667 I0.0063 J0.0108
G2 X53.7225 Y40.9 Z-1.4 I0.0063 J-0.0108
G2 X53.7037 Y40.8892 Z-1.4333 I-0.0125 J0.0
G2 Y40.9108 Z-1.4667 I0.0063 J0.0108
G2 X53.7225 Y40.9 Z-1.5 I0.0063 J-0.0108
G2 X53.7037 Y40.8892 Z-1.5333 I-0.0125 J0.0
G2 Y40.9108 Z-1.5667 I0.0063 J0.0108
G2 X53.7225 Y40.9 Z-1.6 I0.0063 J-0.0108
G2 X53.7037 Y40.8892 Z-1.6333 I-0.0125 J0.0
G2 Y40.9108 Z-1.6667 I0.0063 J0.0108
G2 X53.7225 Y40.9 Z-1.7 I0.0063 J-0.0108
G2 X53.7037 Y40.8892 Z-1.7333 I-0.0125 J0.0
G2 Y40.9108 Z-1.7667 I0.0063 J0.0108
G2 X53.7225 Y40.9 Z-1.8 I0.0063 J-0.0108
G2 X53.7037 Y40.8892 Z-1.8333 I-0.0125 J0.0
G2 Y40.9108 Z-1.8667 I0.0063 J0.0108
G2 X53.7225 Y40.9 Z-1.9 I0.0063 J-0.0108
G2 X53.7037 Y40.8892 Z-1.9333 I-0.0125 J0.0
G2 Y40.9108 Z-1.9667 I0.0063 J0.0108
G2 X53.7225 Y40.9 Z-2.0 I0.0063 J-0.0108
G2 X53.7037 Y40.8892 Z-2.0333 I-0.0125 J0.0
G2 Y40.9108 Z-2.0667 I0.0063 J0.0108
G2 X53.7225 Y40.9 Z-2.1 I0.0063 J-0.0108
G2 X53.7037 Y40.8892 Z-2.1333 I-0.0125 J0.0
G2 Y40.9108 Z-2.1667 I0.0063 J0.0108
G2 X53.7225 Y40.9 Z-2.2 I0.0063 J-0.0108
G2 X53.7037 Y40.8892 Z-2.2333 I-0.0125 J0.0
G2 Y40.9108 Z-2.2667 I0.0063 J0.0108
G2 X53.7225 Y40.9 Z-2.3 I0.0063 J-0.0108
G2 X53.7037 Y40.8892 Z-2.3333 I-0.0125 J0.0
G2 Y40.9108 Z-2.3667 I0.0063 J0.0108
G2 X53.7225 Y40.9 Z-2.4 I0.0063 J-0.0108
G2 X53.7037 Y40.8892 Z-2.4333 I-0.0125 J0.0
G2 Y40.9108 Z-2.4667 I0.0063 J0.0108
G2 X53.7225 Y40.9 Z-2.5 I0.0063 J-0.0108
G2 X53.7037 Y40.8892 Z-2.5333 I-0.0125 J0.0
G2 Y40.9108 Z-2.5667 I0.0063 J0.0108
G2 X53.7225 Y40.9 Z-2.6 I0.0063 J-0.0108
G2 X53.7037 Y40.8892 Z-2.6333 I-0.0125 J0.0
G2 Y40.9108 Z-2.6667 I0.0063 J0.0108
G2 X53.7225 Y40.9 Z-2.7 I0.0063 J-0.0108
G2 X53.7037 Y40.8892 Z-2.7333 I-0.0125 J0.0
G2 Y40.9108 Z-2.7667 I0.0063 J0.0108
G2 X53.7225 Y40.9 Z-2.8 I0.0063 J-0.0108
G2 X53.7037 Y40.8892 Z-2.8333 I-0.0125 J0.0
G2 Y40.9108 Z-2.8667 I0.0063 J0.0108
G2 X53.7225 Y40.9 Z-2.9 I0.0063 J-0.0108
G2 X53.7037 Y40.8892 Z-2.9333 I-0.0125 J0.0
G2 Y40.9108 Z-2.9667 I0.0063 J0.0108
G2 X53.7225 Y40.9 Z-3.0 I0.0062 J-0.0108
G2 X53.7037 Y40.8892 Z-3.0333 I-0.0125 J0.0
G2 Y40.9108 Z-3.0667 I0.0063 J0.0108
G2 X53.7225 Y40.9 Z-3.1 I0.0062 J-0.0108
G2 X53.7037 Y40.8892 Z-3.1333 I-0.0125 J0.0
G2 Y40.9108 Z-3.1667 I0.0063 J0.0108
G2 X53.7225 Y40.9 Z-3.2 I0.0062 J-0.0108
G2 X53.7037 Y40.8892 I-0.0125 J0.0
G2 Y40.9108 I0.0063 J0.0108
G2 X53.7225 Y40.9 I0.0062 J-0.0108
G0 Z3.0
G0 X34.7025
G0 Z0.01
G1 F1000.0 Z0.0
G2 F2000.0 X34.6837 Y40.8892 Z-0.0333 I-0.0125 J0.0
G2 Y40.9108 Z-0.0667 I0.0063 J0.0108
G2 X34.7025 Y40.9 Z-0.1 I0.0063 J-0.0108
G2 X34.6837 Y40.8892 Z-0.1333 I-0.0125 J0.0
G2 Y40.9108 Z-0.1667 I0.0063 J0.0108
G2 X34.7025 Y40.9 Z-0.2 I0.0063 J-0.0108
G2 X34.6837 Y40.8892 Z-0.2333 I-0.0125 J0.0
G2 Y40.9108 Z-0.2667 I0.0063 J0.0108
G2 X34.7025 Y40.9 Z-0.3 I0.0063 J-0.0108
G2 X34.6837 Y40.8892 Z-0.3333 I-0.0125 J0.0
G2 Y40.9108 Z-0.3667 I0.0063 J0.0108
G2 X34.7025 Y40.9 Z-0.4 I0.0063 J-0.0108
G2 X34.6837 Y40.8892 Z-0.4333 I-0.0125 J0.0
G2 Y40.9108 Z-0.4667 I0.0063 J0.0108
G2 X34.7025 Y40.9 Z-0.5 I0.0063 J-0.0108
G2 X34.6837 Y40.8892 Z-0.5333 I-0.0125 J0.0
G2 Y40.9108 Z-0.5667 I0.0063 J0.0108
G2 X34.7025 Y40.9 Z-0.6 I0.0063 J-0.0108
G2 X34.6837 Y40.8892 Z-0.6333 I-0.0125 J0.0
G2 Y40.9108 Z-0.6667 I0.0063 J0.0108
G2 X34.7025 Y40.9 Z-0.7 I0.0063 J-0.0108
G2 X34.6837 Y40.8892 Z-0.7333 I-0.0125 J0.0
G2 Y40.9108 Z-0.7667 I0.0063 J0.0108
G2 X34.7025 Y40.9 Z-0.8 I0.0063 J-0.0108
G2 X34.6837 Y40.8892 Z-0.8333 I-0.0125 J0.0
G2 Y40.9108 Z-0.8667 I0.0063 J0.0108
G2 X34.7025 Y40.9 Z-0.9 I0.0063 J-0.0108
G2 X34.6837 Y40.8892 Z-0.9333 I-0.0125 J0.0
G2 Y40.9108 Z-0.9667 I0.0063 J0.0108
G2 X34.7025 Y40.9 Z-1.0 I0.0063 J-0.0108
G2 X34.6837 Y40.8892 Z-1.0333 I-0.0125 J0.0
G2 Y40.9108 Z-1.0667 I0.0063 J0.0108
G2 X34.7025 Y40.9 Z-1.1 I0.0063 J-0.0108
G2 X34.6837 Y40.8892 Z-1.1333 I-0.0125 J0.0
G2 Y40.9108 Z-1.1667 I0.0063 J0.0108
G2 X34.7025 Y40.9 Z-1.2 I0.0063 J-0.0108
G2 X34.6837 Y40.8892 Z-1.2333 I-0.0125 J0.0
G2 Y40.9108 Z-1.2667 I0.0063 J0.0108
G2 X34.7025 Y40.9 Z-1.3 I0.0063 J-0.0108
G2 X34.6837 Y40.8892 Z-1.3333 I-0.0125 J0.0
G2 Y40.9108 Z-1.3667 I0.0063 J0.0108
G2 X34.7025 Y40.9 Z-1.4 I0.0063 J-0.0108
G2 X34.6837 Y40.8892 Z-1.4333 I-0.0125 J0.0
G2 Y40.9108 Z-1.4667 I0.0063 J0.0108
G2 X34.7025 Y40.9 Z-1.5 I0.0063 J-0.0108
G2 X34.6837 Y40.8892 Z-1.5333 I-0.0125 J0.0
G2 Y40.9108 Z-1.5667 I0.0063 J0.0108
G2 X34.7025 Y40.9 Z-1.6 I0.0063 J-0.0108
G2 X34.6837 Y40.8892 Z-1.6333 I-0.0125 J0.0
G2 Y40.9108 Z-1.6667 I0.0063 J0.0108
G2 X34.7025 Y40.9 Z-1.7 I0.0063 J-0.0108
G2 X34.6837 Y40.8892 Z-1.7333 I-0.0125 J0.0
G2 Y40.9108 Z-1.7667 I0.0063 J0.0108
G2 X34.7025 Y40.9 Z-1.8 I0.0063 J-0.0108
G2 X34.6837 Y40.8892 Z-1.8333 I-0.0125 J0.0
G2 Y40.9108 Z-1.8667 I0.0063 J0.0108
G2 X34.7025 Y40.9 Z-1.9 I0.0063 J-0.0108
G2 X34.6837 Y40.8892 Z-1.9333 I-0.0125 J0.0
G2 Y40.9108 Z-1.9667 I0.0063 J0.0108
G2 X34.7025 Y40.9 Z-2.0 I0.0063 J-0.0108
G2 X34.6837 Y40.8892 Z-2.0333 I-0.0125 J0.0
G2 Y40.9108 Z-2.0667 I0.0063 J0.0108
G2 X34.7025 Y40.9 Z-2.1 I0.0063 J-0.0108
G2 X34.6837 Y40.8892 Z-2.1333 I-0.0125 J0.0
G2 Y40.9108 Z-2.1667 I0.0063 J0.0108
G2 X34.7025 Y40.9 Z-2.2 I0.0063 J-0.0108
G2 X34.6837 Y40.8892 Z-2.2333 I-0.0125 J0.0
G2 Y40.9108 Z-2.2667 I0.0063 J0.0108
G2 X34.7025 Y40.9 Z-2.3 I0.0063 J-0.0108
G2 X34.6837 Y40.8892 Z-2.3333 I-0.0125 J0.0
G2 Y40.9108 Z-2.3667 I0.0063 J0.0108
G2 X34.7025 Y40.9 Z-2.4 I0.0063 J-0.0108
G2 X34.6837 Y40.8892 Z-2.4333 I-0.0125 J0.0
G2 Y40.9108 Z-2.4667 I0.0063 J0.0108
G2 X34.7025 Y40.9 Z-2.5 I0.0063 J-0.0108
G2 X34.6837 Y40.8892 Z-2.5333 I-0.0125 J0.0
G2 Y40.9108 Z-2.5667 I0.0063 J0.0108
G2 X34.7025 Y40.9 Z-2.6 I0.0063 J-0.0108
G2 X34.6837 Y40.8892 Z-2.6333 I-0.0125 J0.0
G2 Y40.9108 Z-2.6667 I0.0063 J0.0108
G2 X34.7025 Y40.9 Z-2.7 I0.0063 J-0.0108
G2 X34.6837 Y40.8892 Z-2.7333 I-0.0125 J0.0
G2 Y40.9108 Z-2.7667 I0.0063 J0.0108
G2 X34.7025 Y40.9 Z-2.8 I0.0063 J-0.0108
G2 X34.6837 Y40.8892 Z-2.8333 I-0.0125 J0.0
G2 Y40.9108 Z-2.8667 I0.0063 J0.0108
G2 X34.7025 Y40.9 Z-2.9 I0.0063 J-0.0108
G2 X34.6837 Y40.8892 Z-2.9333 I-0.0125 J0.0
G2 Y40.9108 Z-2.9667 I0.0063 J0.0108
G2 X34.7025 Y40.9 Z-3.0 I0.0062 J-0.0108
G2 X34.6837 Y40.8892 Z-3.0333 I-0.0125 J0.0
G2 Y40.9108 Z-3.0667 I0.0063 J0.0108
G2 X34.7025 Y40.9 Z-3.1 I0.0062 J-0.0108
G2 X34.6837 Y40.8892 Z-3.1333 I-0.0125 J0.0
G2 Y40.9108 Z-3.1667 I0.0063 J0.0108
G2 X34.7025 Y40.9 Z-3.2 I0.0062 J-0.0108
G2 X34.6837 Y40.8892 I-0.0125 J0.0
G2 Y40.9108 I0.0063 J0.0108
G2 X34.7025 Y40.9 I0.0062 J-0.0108
G0 Z3.0
G0 X17.8125
G0 Z0.01
G1 F1000.0 Z0.0
G2 F2000.0 X17.7937 Y40.8892 Z-0.0333 I-0.0125 J0.0
G2 Y40.9108 Z-0.0667 I0.0063 J0.0108
G2 X17.8125 Y40.9 Z-0.1 I0.0062 J-0.0108
G2 X17.7937 Y40.8892 Z-0.1333 I-0.0125 J0.0
G2 Y40.9108 Z-0.1667 I0.0063 J0.0108
G2 X17.8125 Y40.9 Z-0.2 I0.0062 J-0.0108
G2 X17.7937 Y40.8892 Z-0.2333 I-0.0125 J0.0
G2 Y40.9108 Z-0.2667 I0.0063 J0.0108
G2 X17.8125 Y40.9 Z-0.3 I0.0062 J-0.0108
G2 X17.7937 Y40.8892 Z-0.3333 I-0.0125 J0.0
G2 Y40.9108 Z-0.3667 I0.0063 J0.0108
G2 X17.8125 Y40.9 Z-0.4 I0.0062 J-0.0108
G2 X17.7937 Y40.8892 Z-0.4333 I-0.0125 J0.0
G2 Y40.9108 Z-0.4667 I0.0063 J0.0108
G2 X17.8125 Y40.9 Z-0.5 I0.0062 J-0.0108
G2 X17.7937 Y40.8892 Z-0.5333 I-0.0125 J0.0
G2 Y40.9108 Z-0.5667 I0.0063 J0.0108
G2 X17.8125 Y40.9 Z-0.6 I0.0062 J-0.0108
G2 X17.7937 Y40.8892 Z-0.6333 I-0.0125 J0.0
G2 Y40.9108 Z-0.6667 I0.0063 J0.0108
G2 X17.8125 Y40.9 Z-0.7 I0.0062 J-0.0108
G2 X17.7937 Y40.8892 Z-0.7333 I-0.0125 J0.0
G2 Y40.9108 Z-0.7667 I0.0063 J0.0108
G2 X17.8125 Y40.9 Z-0.8 I0.0062 J-0.0108
G2 X17.7937 Y40.8892 Z-0.8333 I-0.0125 J0.0
G2 Y40.9108 Z-0.8667 I0.0063 J0.0108
G2 X17.8125 Y40.9 Z-0.9 I0.0062 J-0.0108
G2 X17.7937 Y40.8892 Z-0.9333 I-0.0125 J0.0
G2 Y40.9108 Z-0.9667 I0.0063 J0.0108
G2 X17.8125 Y40.9 Z-1.0 I0.0062 J-0.0108
G2 X17.7937 Y40.8892 Z-1.0333 I-0.0125 J0.0
G2 Y40.9108 Z-1.0667 I0.0063 J0.0108
G2 X17.8125 Y40.9 Z-1.1 I0.0062 J-0.0108
G2 X17.7937 Y40.8892 Z-1.1333 I-0.0125 J0.0
G2 Y40.9108 Z-1.1667 I0.0063 J0.0108
G2 X17.8125 Y40.9 Z-1.2 I0.0062 J-0.0108
G2 X17.7937 Y40.8892 Z-1.2333 I-0.0125 J0.0
G2 Y40.9108 Z-1.2667 I0.0063 J0.0108
G2 X17.8125 Y40.9 Z-1.3 I0.0062 J-0.0108
G2 X17.7937 Y40.8892 Z-1.3333 I-0.0125 J0.0
G2 Y40.9108 Z-1.3667 I0.0063 J0.0108
G2 X17.8125 Y40.9 Z-1.4 I0.0062 J-0.0108
G2 X17.7937 Y40.8892 Z-1.4333 I-0.0125 J0.0
G2 Y40.9108 Z-1.4667 I0.0063 J0.0108
G2 X17.8125 Y40.9 Z-1.5 I0.0062 J-0.0108
G2 X17.7937 Y40.8892 Z-1.5333 I-0.0125 J0.0
G2 Y40.9108 Z-1.5667 I0.0063 J0.0108
G2 X17.8125 Y40.9 Z-1.6 I0.0062 J-0.0108
G2 X17.7937 Y40.8892 Z-1.6333 I-0.0125 J0.0
G2 Y40.9108 Z-1.6667 I0.0063 J0.0108
G2 X17.8125 Y40.9 Z-1.7 I0.0062 J-0.0108
G2 X17.7937 Y40.8892 Z-1.7333 I-0.0125 J0.0
G2 Y40.9108 Z-1.7667 I0.0063 J0.0108
G2 X17.8125 Y40.9 Z-1.8 I0.0062 J-0.0108
G2 X17.7937 Y40.8892 Z-1.8333 I-0.0125 J0.0
G2 Y40.9108 Z-1.8667 I0.0063 J0.0108
G2 X17.8125 Y40.9 Z-1.9 I0.0062 J-0.0108
G2 X17.7937 Y40.8892 Z-1.9333 I-0.0125 J0.0
G2 Y40.9108 Z-1.9667 I0.0063 J0.0108
G2 X17.8125 Y40.9 Z-2.0 I0.0062 J-0.0108
G2 X17.7937 Y40.8892 Z-2.0333 I-0.0125 J0.0
G2 Y40.9108 Z-2.0667 I0.0063 J0.0108
G2 X17.8125 Y40.9 Z-2.1 I0.0062 J-0.0108
G2 X17.7937 Y40.8892 Z-2.1333 I-0.0125 J0.0
G2 Y40.9108 Z-2.1667 I0.0063 J0.0108
G2 X17.8125 Y40.9 Z-2.2 I0.0062 J-0.0108
G2 X17.7937 Y40.8892 Z-2.2333 I-0.0125 J0.0
G2 Y40.9108 Z-2.2667 I0.0063 J0.0108
G2 X17.8125 Y40.9 Z-2.3 I0.0062 J-0.0108
G2 X17.7937 Y40.8892 Z-2.3333 I-0.0125 J0.0
G2 Y40.9108 Z-2.3667 I0.0063 J0.0108
G2 X17.8125 Y40.9 Z-2.4 I0.0062 J-0.0108
G2 X17.7937 Y40.8892 Z-2.4333 I-0.0125 J0.0
G2 Y40.9108 Z-2.4667 I0.0063 J0.0108
G2 X17.8125 Y40.9 Z-2.5 I0.0062 J-0.0108
G2 X17.7937 Y40.8892 Z-2.5333 I-0.0125 J0.0
G2 Y40.9108 Z-2.5667 I0.0063 J0.0108
G2 X17.8125 Y40.9 Z-2.6 I0.0062 J-0.0108
G2 X17.7937 Y40.8892 Z-2.6333 I-0.0125 J0.0
G2 Y40.9108 Z-2.6667 I0.0063 J0.0108
G2 X17.8125 Y40.9 Z-2.7 I0.0062 J-0.0108
G2 X17.7937 Y40.8892 Z-2.7333 I-0.0125 J0.0
G2 Y40.9108 Z-2.7667 I0.0063 J0.0108
G2 X17.8125 Y40.9 Z-2.8 I0.0062 J-0.0108
G2 X17.7937 Y40.8892 Z-2.8333 I-0.0125 J0.0
G2 Y40.9108 Z-2.8667 I0.0063 J0.0108
G2 X17.8125 Y40.9 Z-2.9 I0.0062 J-0.0108
G2 X17.7937 Y40.8892 Z-2.9333 I-0.0125 J0.0
G2 Y40.9108 Z-2.9667 I0.0063 J0.0108
G2 X17.8125 Y40.9 Z-3.0 I0.0062 J-0.0108
G2 X17.7937 Y40.8892 Z-3.0333 I-0.0125 J0.0
G2 Y40.9108 Z-3.0667 I0.0063 J0.0108
G2 X17.8125 Y40.9 Z-3.1 I0.0062 J-0.0108
G2 X17.7937 Y40.8892 Z-3.1333 I-0.0125 J0.0
G2 Y40.9108 Z-3.1667 I0.0063 J0.0108
G2 X17.8125 Y40.9 Z-3.2 I0.0062 J-0.0108
G2 X17.7937 Y40.8892 I-0.0125 J0.0
G2 Y40.9108 I0.0063 J0.0108
G2 X17.8125 Y40.9 I0.0062 J-0.0108
G0 Z3.0
G0 Y20.58
G0 Z0.01
G1 F1000.0 Z0.0
G2 F2000.0 X17.7937 Y20.5692 Z-0.0333 I-0.0125 J0.0
G2 Y20.5908 Z-0.0667 I0.0062 J0.0108
G2 X17.8125 Y20.58 Z-0.1 I0.0063 J-0.0108
G2 X17.7937 Y20.5692 Z-0.1333 I-0.0125 J0.0
G2 Y20.5908 Z-0.1667 I0.0062 J0.0108
G2 X17.8125 Y20.58 Z-0.2 I0.0063 J-0.0108
G2 X17.7937 Y20.5692 Z-0.2333 I-0.0125 J0.0
G2 Y20.5908 Z-0.2667 I0.0062 J0.0108
G2 X17.8125 Y20.58 Z-0.3 I0.0063 J-0.0108
G2 X17.7937 Y20.5692 Z-0.3333 I-0.0125 J0.0
G2 Y20.5908 Z-0.3667 I0.0062 J0.0108
G2 X17.8125 Y20.58 Z-0.4 I0.0063 J-0.0108
G2 X17.7937 Y20.5692 Z-0.4333 I-0.0125 J0.0
G2 Y20.5908 Z-0.4667 I0.0062 J0.0108
G2 X17.8125 Y20.58 Z-0.5 I0.0063 J-0.0108
G2 X17.7937 Y20.5692 Z-0.5333 I-0.0125 J0.0
G2 Y20.5908 Z-0.5667 I0.0062 J0.0108
G2 X17.8125 Y20.58 Z-0.6 I0.0063 J-0.0108
G2 X17.7937 Y20.5692 Z-0.6333 I-0.0125 J0.0
G2 Y20.5908 Z-0.6667 I0.0062 J0.0108
G2 X17.8125 Y20.58 Z-0.7 I0.0063 J-0.0108
G2 X17.7937 Y20.5692 Z-0.7333 I-0.0125 J0.0
G2 Y20.5908 Z-0.7667 I0.0062 J0.0108
G2 X17.8125 Y20.58 Z-0.8 I0.0063 J-0.0108
G2 X17.7937 Y20.5692 Z-0.8333 I-0.0125 J0.0
G2 Y20.5908 Z-0.8667 I0.0062 J0.0108
G2 X17.8125 Y20.58 Z-0.9 I0.0063 J-0.0108
G2 X17.7937 Y20.5692 Z-0.9333 I-0.0125 J0.0
G2 Y20.5908 Z-0.9667 I0.0062 J0.0108
G2 X17.8125 Y20.58 Z-1.0 I0.0063 J-0.0108
G2 X17.7937 Y20.5692 Z-1.0333 I-0.0125 J0.0
G2 Y20.5908 Z-1.0667 I0.0062 J0.0108
G2 X17.8125 Y20.58 Z-1.1 I0.0063 J-0.0108
G2 X17.7937 Y20.5692 Z-1.1333 I-0.0125 J0.0
G2 Y20.5908 Z-1.1667 I0.0062 J0.0108
G2 X17.8125 Y20.58 Z-1.2 I0.0063 J-0.0108
G2 X17.7937 Y20.5692 Z-1.2333 I-0.0125 J0.0
G2 Y20.5908 Z-1.2667 I0.0062 J0.0108
G2 X17.8125 Y20.58 Z-1.3 I0.0063 J-0.0108
G2 X17.7937 Y20.5692 Z-1.3333 I-0.0125 J0.0
G2 Y20.5908 Z-1.3667 I0.0062 J0.0108
G2 X17.8125 Y20.58 Z-1.4 I0.0063 J-0.0108
G2 X17.7937 Y20.5692 Z-1.4333 I-0.0125 J0.0
G2 Y20.5908 Z-1.4667 I0.0062 J0.0108
G2 X17.8125 Y20.58 Z-1.5 I0.0063 J-0.0108
G2 X17.7937 Y20.5692 Z-1.5333 I-0.0125 J0.0
G2 Y20.5908 Z-1.5667 I0.0062 J0.0108
G2 X17.8125 Y20.58 Z-1.6 I0.0063 J-0.0108
G2 X17.7937 Y20.5692 Z-1.6333 I-0.0125 J0.0
G2 Y20.5908 Z-1.6667 I0.0062 J0.0108
G2 X17.8125 Y20.58 Z-1.7 I0.0063 J-0.0108
G2 X17.7937 Y20.5692 Z-1.7333 I-0.0125 J0.0
G2 Y20.5908 Z-1.7667 I0.0062 J0.0108
G2 X17.8125 Y20.58 Z-1.8 I0.0063 J-0.0108
G2 X17.7937 Y20.5692 Z-1.8333 I-0.0125 J0.0
G2 Y20.5908 Z-1.8667 I0.0062 J0.0108
G2 X17.8125 Y20.58 Z-1.9 I0.0063 J-0.0108
G2 X17.7937 Y20.5692 Z-1.9333 I-0.0125 J0.0
G2 Y20.5908 Z-1.9667 I0.0062 J0.0108
G2 X17.8125 Y20.58 Z-2.0 I0.0063 J-0.0108
G2 X17.7937 Y20.5692 Z-2.0333 I-0.0125 J0.0
G2 Y20.5908 Z-2.0667 I0.0062 J0.0108
G2 X17.8125 Y20.58 Z-2.1 I0.0063 J-0.0108
G2 X17.7937 Y20.5692 Z-2.1333 I-0.0125 J0.0
G2 Y20.5908 Z-2.1667 I0.0062 J0.0108
G2 X17.8125 Y20.58 Z-2.2 I0.0063 J-0.0108
G2 X17.7937 Y20.5692 Z-2.2333 I-0.0125 J0.0
G2 Y20.5908 Z-2.2667 I0.0062 J0.0108
G2 X17.8125 Y20.58 Z-2.3 I0.0063 J-0.0108
G2 X17.7937 Y20.5692 Z-2.3333 I-0.0125 J0.0
G2 Y20.5908 Z-2.3667 I0.0062 J0.0108
G2 X17.8125 Y20.58 Z-2.4 I0.0063 J-0.0108
G2 X17.7937 Y20.5692 Z-2.4333 I-0.0125 J0.0
G2 Y20.5908 Z-2.4667 I0.0063 J0.0108
G2 X17.8125 Y20.58 Z-2.5 I0.0062 J-0.0108
G2 X17.7937 Y20.5692 Z-2.5333 I-0.0125 J0.0
G2 Y20.5908 Z-2.5667 I0.0063 J0.0108
G2 X17.8125 Y20.58 Z-2.6 I0.0062 J-0.0108
G2 X17.7937 Y20.5692 Z-2.6333 I-0.0125 J0.0
G2 Y20.5908 Z-2.6667 I0.0063 J0.0108
G2 X17.8125 Y20.58 Z-2.7 I0.0062 J-0.0108
G2 X17.7937 Y20.5692 Z-2.7333 I-0.0125 J0.0
G2 Y20.5908 Z-2.7667 I0.0063 J0.0108
G2 X17.8125 Y20.58 Z-2.8 I0.0062 J-0.0108
G2 X17.7937 Y20.5692 Z-2.8333 I-0.0125 J0.0
G2 Y20.5908 Z-2.8667 I0.0063 J0.0108
G2 X17.8125 Y20.58 Z-2.9 I0.0062 J-0.0108
G2 X17.7937 Y20.5692 Z-2.9333 I-0.0125 J0.0
G2 Y20.5908 Z-2.9667 I0.0063 J0.0108
G2 X17.8125 Y20.58 Z-3.0 I0.0062 J-0.0108
G2 X17.7937 Y20.5692 Z-3.0333 I-0.0125 J0.0
G2 Y20.5908 Z-3.0667 I0.0063 J0.0108
G2 X17.8125 Y20.58 Z-3.1 I0.0062 J-0.0108
G2 X17.7937 Y20.5692 Z-3.1333 I-0.0125 J0.0
G2 Y20.5908 Z-3.1667 I0.0063 J0.0108
G2 X17.8125 Y20.58 Z-3.2 I0.0062 J-0.0108
G2 X17.7937 Y20.5692 I-0.0125 J0.0
G2 Y20.5908 I0.0063 J0.0108
G2 X17.8125 Y20.58 I0.0062 J-0.0108
G0 Z3.0
G0 X34.7025
G0 Z0.01
G1 F1000.0 Z0.0
G2 F2000.0 X34.6837 Y20.5692 Z-0.0333 I-0.0125 J0.0
G2 Y20.5908 Z-0.0667 I0.0063 J0.0108
G2 X34.7025 Y20.58 Z-0.1 I0.0063 J-0.0108
G2 X34.6837 Y20.5692 Z-0.1333 I-0.0125 J0.0
G2 Y20.5908 Z-0.1667 I0.0063 J0.0108
G2 X34.7025 Y20.58 Z-0.2 I0.0063 J-0.0108
G2 X34.6837 Y20.5692 Z-0.2333 I-0.0125 J0.0
G2 Y20.5908 Z-0.2667 I0.0063 J0.0108
G2 X34.7025 Y20.58 Z-0.3 I0.0063 J-0.0108
G2 X34.6837 Y20.5692 Z-0.3333 I-0.0125 J0.0
G2 Y20.5908 Z-0.3667 I0.0063 J0.0108
G2 X34.7025 Y20.58 Z-0.4 I0.0063 J-0.0108
G2 X34.6837 Y20.5692 Z-0.4333 I-0.0125 J0.0
G2 Y20.5908 Z-0.4667 I0.0063 J0.0108
G2 X34.7025 Y20.58 Z-0.5 I0.0063 J-0.0108
G2 X34.6837 Y20.5692 Z-0.5333 I-0.0125 J0.0
G2 Y20.5908 Z-0.5667 I0.0063 J0.0108
G2 X34.7025 Y20.58 Z-0.6 I0.0063 J-0.0108
G2 X34.6837 Y20.5692 Z-0.6333 I-0.0125 J0.0
G2 Y20.5908 Z-0.6667 I0.0063 J0.0108
G2 X34.7025 Y20.58 Z-0.7 I0.0063 J-0.0108
G2 X34.6837 Y20.5692 Z-0.7333 I-0.0125 J0.0
G2 Y20.5908 Z-0.7667 I0.0063 J0.0108
G2 X34.7025 Y20.58 Z-0.8 I0.0063 J-0.0108
G2 X34.6837 Y20.5692 Z-0.8333 I-0.0125 J0.0
G2 Y20.5908 Z-0.8667 I0.0063 J0.0108
G2 X34.7025 Y20.58 Z-0.9 I0.0063 J-0.0108
G2 X34.6837 Y20.5692 Z-0.9333 I-0.0125 J0.0
G2 Y20.5908 Z-0.9667 I0.0063 J0.0108
G2 X34.7025 Y20.58 Z-1.0 I0.0063 J-0.0108
G2 X34.6837 Y20.5692 Z-1.0333 I-0.0125 J0.0
G2 Y20.5908 Z-1.0667 I0.0063 J0.0108
G2 X34.7025 Y20.58 Z-1.1 I0.0063 J-0.0108
G2 X34.6837 Y20.5692 Z-1.1333 I-0.0125 J0.0
G2 Y20.5908 Z-1.1667 I0.0063 J0.0108
G2 X34.7025 Y20.58 Z-1.2 I0.0063 J-0.0108
G2 X34.6837 Y20.5692 Z-1.2333 I-0.0125 J0.0
G2 Y20.5908 Z-1.2667 I0.0063 J0.0108
G2 X34.7025 Y20.58 Z-1.3 I0.0063 J-0.0108
G2 X34.6837 Y20.5692 Z-1.3333 I-0.0125 J0.0
G2 Y20.5908 Z-1.3667 I0.0063 J0.0108
G2 X34.7025 Y20.58 Z-1.4 I0.0063 J-0.0108
G2 X34.6837 Y20.5692 Z-1.4333 I-0.0125 J0.0
G2 Y20.5908 Z-1.4667 I0.0063 J0.0108
G2 X34.7025 Y20.58 Z-1.5 I0.0063 J-0.0108
G2 X34.6837 Y20.5692 Z-1.5333 I-0.0125 J0.0
G2 Y20.5908 Z-1.5667 I0.0063 J0.0108
G2 X34.7025 Y20.58 Z-1.6 I0.0063 J-0.0108
G2 X34.6837 Y20.5692 Z-1.6333 I-0.0125 J0.0
G2 Y20.5908 Z-1.6667 I0.0063 J0.0108
G2 X34.7025 Y20.58 Z-1.7 I0.0063 J-0.0108
G2 X34.6837 Y20.5692 Z-1.7333 I-0.0125 J0.0
G2 Y20.5908 Z-1.7667 I0.0063 J0.0108
G2 X34.7025 Y20.58 Z-1.8 I0.0063 J-0.0108
G2 X34.6837 Y20.5692 Z-1.8333 I-0.0125 J0.0
G2 Y20.5908 Z-1.8667 I0.0063 J0.0108
G2 X34.7025 Y20.58 Z-1.9 I0.0063 J-0.0108
G2 X34.6837 Y20.5692 Z-1.9333 I-0.0125 J0.0
G2 Y20.5908 Z-1.9667 I0.0063 J0.0108
G2 X34.7025 Y20.58 Z-2.0 I0.0063 J-0.0108
G2 X34.6837 Y20.5692 Z-2.0333 I-0.0125 J0.0
G2 Y20.5908 Z-2.0667 I0.0063 J0.0108
G2 X34.7025 Y20.58 Z-2.1 I0.0063 J-0.0108
G2 X34.6837 Y20.5692 Z-2.1333 I-0.0125 J0.0
G2 Y20.5908 Z-2.1667 I0.0063 J0.0108
G2 X34.7025 Y20.58 Z-2.2 I0.0063 J-0.0108
G2 X34.6837 Y20.5692 Z-2.2333 I-0.0125 J0.0
G2 Y20.5908 Z-2.2667 I0.0063 J0.0108
G2 X34.7025 Y20.58 Z-2.3 I0.0063 J-0.0108
G2 X34.6837 Y20.5692 Z-2.3333 I-0.0125 J0.0
G2 Y20.5908 Z-2.3667 I0.0063 J0.0108
G2 X34.7025 Y20.58 Z-2.4 I0.0063 J-0.0108
G2 X34.6837 Y20.5692 Z-2.4333 I-0.0125 J0.0
G2 Y20.5908 Z-2.4667 I0.0063 J0.0108
G2 X34.7025 Y20.58 Z-2.5 I0.0063 J-0.0108
G2 X34.6837 Y20.5692 Z-2.5333 I-0.0125 J0.0
G2 Y20.5908 Z-2.5667 I0.0063 J0.0108
G2 X34.7025 Y20.58 Z-2.6 I0.0063 J-0.0108
G2 X34.6837 Y20.5692 Z-2.6333 I-0.0125 J0.0
G2 Y20.5908 Z-2.6667 I0.0063 J0.0108
G2 X34.7025 Y20.58 Z-2.7 I0.0063 J-0.0108
G2 X34.6837 Y20.5692 Z-2.7333 I-0.0125 J0.0
G2 Y20.5908 Z-2.7667 I0.0063 J0.0108
G2 X34.7025 Y20.58 Z-2.8 I0.0063 J-0.0108
G2 X34.6837 Y20.5692 Z-2.8333 I-0.0125 J0.0
G2 Y20.5908 Z-2.8667 I0.0063 J0.0108
G2 X34.7025 Y20.58 Z-2.9 I0.0063 J-0.0108
G2 X34.6837 Y20.5692 Z-2.9333 I-0.0125 J0.0
G2 Y20.5908 Z-2.9667 I0.0063 J0.0108
G2 X34.7025 Y20.58 Z-3.0 I0.0062 J-0.0108
G2 X34.6837 Y20.5692 Z-3.0333 I-0.0125 J0.0
G2 Y20.5908 Z-3.0667 I0.0063 J0.0108
G2 X34.7025 Y20.58 Z-3.1 I0.0062 J-0.0108
G2 X34.6837 Y20.5692 Z-3.1333 I-0.0125 J0.0
G2 Y20.5908 Z-3.1667 I0.0063 J0.0108
G2 X34.7025 Y20.58 Z-3.2 I0.0062 J-0.0108
G2 X34.6837 Y20.5692 I-0.0125 J0.0
G2 Y20.5908 I0.0063 J0.0108
G2 X34.7025 Y20.58 I0.0062 J-0.0108
G0 Z3.0
G0 X53.7225
G0 Z0.01
G1 F1000.0 Z0.0
G2 F2000.0 X53.7037 Y20.5692 Z-0.0333 I-0.0125 J0.0
G2 Y20.5908 Z-0.0667 I0.0063 J0.0108
G2 X53.7225 Y20.58 Z-0.1 I0.0063 J-0.0108
G2 X53.7037 Y20.5692 Z-0.1333 I-0.0125 J0.0
G2 Y20.5908 Z-0.1667 I0.0063 J0.0108
G2 X53.7225 Y20.58 Z-0.2 I0.0063 J-0.0108
G2 X53.7037 Y20.5692 Z-0.2333 I-0.0125 J0.0
G2 Y20.5908 Z-0.2667 I0.0063 J0.0108
G2 X53.7225 Y20.58 Z-0.3 I0.0063 J-0.0108
G2 X53.7037 Y20.5692 Z-0.3333 I-0.0125 J0.0
G2 Y20.5908 Z-0.3667 I0.0063 J0.0108
G2 X53.7225 Y20.58 Z-0.4 I0.0063 J-0.0108
G2 X53.7037 Y20.5692 Z-0.4333 I-0.0125 J0.0
G2 Y20.5908 Z-0.4667 I0.0063 J0.0108
G2 X53.7225 Y20.58 Z-0.5 I0.0063 J-0.0108
G2 X53.7037 Y20.5692 Z-0.5333 I-0.0125 J0.0
G2 Y20.5908 Z-0.5667 I0.0063 J0.0108
G2 X53.7225 Y20.58 Z-0.6 I0.0063 J-0.0108
G2 X53.7037 Y20.5692 Z-0.6333 I-0.0125 J0.0
G2 Y20.5908 Z-0.6667 I0.0063 J0.0108
G2 X53.7225 Y20.58 Z-0.7 I0.0063 J-0.0108
G2 X53.7037 Y20.5692 Z-0.7333 I-0.0125 J0.0
G2 Y20.5908 Z-0.7667 I0.0063 J0.0108
G2 X53.7225 Y20.58 Z-0.8 I0.0063 J-0.0108
G2 X53.7037 Y20.5692 Z-0.8333 I-0.0125 J0.0
G2 Y20.5908 Z-0.8667 I0.0063 J0.0108
G2 X53.7225 Y20.58 Z-0.9 I0.0063 J-0.0108
G2 X53.7037 Y20.5692 Z-0.9333 I-0.0125 J0.0
G2 Y20.5908 Z-0.9667 I0.0063 J0.0108
G2 X53.7225 Y20.58 Z-1.0 I0.0063 J-0.0108
G2 X53.7037 Y20.5692 Z-1.0333 I-0.0125 J0.0
G2 Y20.5908 Z-1.0667 I0.0063 J0.0108
G2 X53.7225 Y20.58 Z-1.1 I0.0063 J-0.0108
G2 X53.7037 Y20.5692 Z-1.1333 I-0.0125 J0.0
G2 Y20.5908 Z-1.1667 I0.0063 J0.0108
G2 X53.7225 Y20.58 Z-1.2 I0.0063 J-0.0108
G2 X53.7037 Y20.5692 Z-1.2333 I-0.0125 J0.0
G2 Y20.5908 Z-1.2667 I0.0063 J0.0108
G2 X53.7225 Y20.58 Z-1.3 I0.0063 J-0.0108
G2 X53.7037 Y20.5692 Z-1.3333 I-0.0125 J0.0
G2 Y20.5908 Z-1.3667 I0.0063 J0.0108
G2 X53.7225 Y20.58 Z-1.4 I0.0063 J-0.0108
G2 X53.7037 Y20.5692 Z-1.4333 I-0.0125 J0.0
G2 Y20.5908 Z-1.4667 I0.0063 J0.0108
G2 X53.7225 Y20.58 Z-1.5 I0.0063 J-0.0108
G2 X53.7037 Y20.5692 Z-1.5333 I-0.0125 J0.0
G2 Y20.5908 Z-1.5667 I0.0063 J0.0108
G2 X53.7225 Y20.58 Z-1.6 I0.0063 J-0.0108
G2 X53.7037 Y20.5692 Z-1.6333 I-0.0125 J0.0
G2 Y20.5908 Z-1.6667 I0.0063 J0.0108
G2 X53.7225 Y20.58 Z-1.7 I0.0063 J-0.0108
G2 X53.7037 Y20.5692 Z-1.7333 I-0.0125 J0.0
G2 Y20.5908 Z-1.7667 I0.0063 J0.0108
G2 X53.7225 Y20.58 Z-1.8 I0.0063 J-0.0108
G2 X53.7037 Y20.5692 Z-1.8333 I-0.0125 J0.0
G2 Y20.5908 Z-1.8667 I0.0063 J0.0108
G2 X53.7225 Y20.58 Z-1.9 I0.0063 J-0.0108
G2 X53.7037 Y20.5692 Z-1.9333 I-0.0125 J0.0
G2 Y20.5908 Z-1.9667 I0.0063 J0.0108
G2 X53.7225 Y20.58 Z-2.0 I0.0063 J-0.0108
G2 X53.7037 Y20.5692 Z-2.0333 I-0.0125 J0.0
G2 Y20.5908 Z-2.0667 I0.0063 J0.0108
G2 X53.7225 Y20.58 Z-2.1 I0.0063 J-0.0108
G2 X53.7037 Y20.5692 Z-2.1333 I-0.0125 J0.0
G2 Y20.5908 Z-2.1667 I0.0063 J0.0108
G2 X53.7225 Y20.58 Z-2.2 I0.0063 J-0.0108
G2 X53.7037 Y20.5692 Z-2.2333 I-0.0125 J0.0
G2 Y20.5908 Z-2.2667 I0.0063 J0.0108
G2 X53.7225 Y20.58 Z-2.3 I0.0063 J-0.0108
G2 X53.7037 Y20.5692 Z-2.3333 I-0.0125 J0.0
G2 Y20.5908 Z-2.3667 I0.0063 J0.0108
G2 X53.7225 Y20.58 Z-2.4 I0.0063 J-0.0108
G2 X53.7037 Y20.5692 Z-2.4333 I-0.0125 J0.0
G2 Y20.5908 Z-2.4667 I0.0063 J0.0108
G2 X53.7225 Y20.58 Z-2.5 I0.0063 J-0.0108
G2 X53.7037 Y20.5692 Z-2.5333 I-0.0125 J0.0
G2 Y20.5908 Z-2.5667 I0.0063 J0.0108
G2 X53.7225 Y20.58 Z-2.6 I0.0063 J-0.0108
G2 X53.7037 Y20.5692 Z-2.6333 I-0.0125 J0.0
G2 Y20.5908 Z-2.6667 I0.0063 J0.0108
G2 X53.7225 Y20.58 Z-2.7 I0.0063 J-0.0108
G2 X53.7037 Y20.5692 Z-2.7333 I-0.0125 J0.0
G2 Y20.5908 Z-2.7667 I0.0063 J0.0108
G2 X53.7225 Y20.58 Z-2.8 I0.0063 J-0.0108
G2 X53.7037 Y20.5692 Z-2.8333 I-0.0125 J0.0
G2 Y20.5908 Z-2.8667 I0.0063 J0.0108
G2 X53.7225 Y20.58 Z-2.9 I0.0063 J-0.0108
G2 X53.7037 Y20.5692 Z-2.9333 I-0.0125 J0.0
G2 Y20.5908 Z-2.9667 I0.0063 J0.0108
G2 X53.7225 Y20.58 Z-3.0 I0.0062 J-0.0108
G2 X53.7037 Y20.5692 Z-3.0333 I-0.0125 J0.0
G2 Y20.5908 Z-3.0667 I0.0063 J0.0108
G2 X53.7225 Y20.58 Z-3.1 I0.0062 J-0.0108
G2 X53.7037 Y20.5692 Z-3.1333 I-0.0125 J0.0
G2 Y20.5908 Z-3.1667 I0.0063 J0.0108
G2 X53.7225 Y20.58 Z-3.2 I0.0062 J-0.0108
G2 X53.7037 Y20.5692 I-0.0125 J0.0
G2 Y20.5908 I0.0063 J0.0108
G2 X53.7225 Y20.58 I0.0062 J-0.0108
G0 Z3.0
G0 X58.3125 Y3.0
G0 Z0.01
G1 F1000.0 Z0.0
G2 F2000.0 X58.2937 Y2.9892 Z-0.0333 I-0.0125 J0.0
G2 Y3.0108 Z-0.0667 I0.0063 J0.0108
G2 X58.3125 Y3.0 Z-0.1 I0.0063 J-0.0108
G2 X58.2937 Y2.9892 Z-0.1333 I-0.0125 J0.0
G2 Y3.0108 Z-0.1667 I0.0063 J0.0108
G2 X58.3125 Y3.0 Z-0.2 I0.0063 J-0.0108
G2 X58.2937 Y2.9892 Z-0.2333 I-0.0125 J0.0
G2 Y3.0108 Z-0.2667 I0.0063 J0.0108
G2 X58.3125 Y3.0 Z-0.3 I0.0063 J-0.0108
G2 X58.2937 Y2.9892 Z-0.3333 I-0.0125 J0.0
G2 Y3.0108 Z-0.3667 I0.0063 J0.0108
G2 X58.3125 Y3.0 Z-0.4 I0.0063 J-0.0108
G2 X58.2937 Y2.9892 Z-0.4333 I-0.0125 J0.0
G2 Y3.0108 Z-0.4667 I0.0063 J0.0108
G2 X58.3125 Y3.0 Z-0.5 I0.0063 J-0.0108
G2 X58.2937 Y2.9892 Z-0.5333 I-0.0125 J0.0
G2 Y3.0108 Z-0.5667 I0.0063 J0.0108
G2 X58.3125 Y3.0 Z-0.6 I0.0063 J-0.0108
G2 X58.2937 Y2.9892 Z-0.6333 I-0.0125 J0.0
G2 Y3.0108 Z-0.6667 I0.0063 J0.0108
G2 X58.3125 Y3.0 Z-0.7 I0.0063 J-0.0108
G2 X58.2937 Y2.9892 Z-0.7333 I-0.0125 J0.0
G2 Y3.0108 Z-0.7667 I0.0063 J0.0108
G2 X58.3125 Y3.0 Z-0.8 I0.0063 J-0.0108
G2 X58.2937 Y2.9892 Z-0.8333 I-0.0125 J0.0
G2 Y3.0108 Z-0.8667 I0.0063 J0.0108
G2 X58.3125 Y3.0 Z-0.9 I0.0063 J-0.0108
G2 X58.2937 Y2.9892 Z-0.9333 I-0.0125 J0.0
G2 Y3.0108 Z-0.9667 I0.0063 J0.0108
G2 X58.3125 Y3.0 Z-1.0 I0.0063 J-0.0108
G2 X58.2937 Y2.9892 Z-1.0333 I-0.0125 J0.0
G2 Y3.0108 Z-1.0667 I0.0063 J0.0108
G2 X58.3125 Y3.0 Z-1.1 I0.0063 J-0.0108
G2 X58.2937 Y2.9892 Z-1.1333 I-0.0125 J0.0
G2 Y3.0108 Z-1.1667 I0.0063 J0.0108
G2 X58.3125 Y3.0 Z-1.2 I0.0063 J-0.0108
G2 X58.2937 Y2.9892 Z-1.2333 I-0.0125 J0.0
G2 Y3.0108 Z-1.2667 I0.0063 J0.0108
G2 X58.3125 Y3.0 Z-1.3 I0.0063 J-0.0108
G2 X58.2937 Y2.9892 Z-1.3333 I-0.0125 J0.0
G2 Y3.0108 Z-1.3667 I0.0063 J0.0108
G2 X58.3125 Y3.0 Z-1.4 I0.0063 J-0.0108
G2 X58.2937 Y2.9892 Z-1.4333 I-0.0125 J0.0
G2 Y3.0108 Z-1.4667 I0.0063 J0.0108
G2 X58.3125 Y3.0 Z-1.5 I0.0063 J-0.0108
G2 X58.2937 Y2.9892 Z-1.5333 I-0.0125 J0.0
G2 Y3.0108 Z-1.5667 I0.0063 J0.0108
G2 X58.3125 Y3.0 Z-1.6 I0.0063 J-0.0108
G2 X58.2937 Y2.9892 Z-1.6333 I-0.0125 J0.0
G2 Y3.0108 Z-1.6667 I0.0063 J0.0108
G2 X58.3125 Y3.0 Z-1.7 I0.0063 J-0.0108
G2 X58.2937 Y2.9892 Z-1.7333 I-0.0125 J0.0
G2 Y3.0108 Z-1.7667 I0.0063 J0.0108
G2 X58.3125 Y3.0 Z-1.8 I0.0063 J-0.0108
G2 X58.2937 Y2.9892 Z-1.8333 I-0.0125 J0.0
G2 Y3.0108 Z-1.8667 I0.0063 J0.0108
G2 X58.3125 Y3.0 Z-1.9 I0.0063 J-0.0108
G2 X58.2937 Y2.9892 Z-1.9333 I-0.0125 J0.0
G2 Y3.0108 Z-1.9667 I0.0063 J0.0108
G2 X58.3125 Y3.0 Z-2.0 I0.0063 J-0.0108
G2 X58.2937 Y2.9892 Z-2.0333 I-0.0125 J0.0
G2 Y3.0108 Z-2.0667 I0.0063 J0.0108
G2 X58.3125 Y3.0 Z-2.1 I0.0063 J-0.0108
G2 X58.2937 Y2.9892 Z-2.1333 I-0.0125 J0.0
G2 Y3.0108 Z-2.1667 I0.0063 J0.0108
G2 X58.3125 Y3.0 Z-2.2 I0.0063 J-0.0108
G2 X58.2937 Y2.9892 Z-2.2333 I-0.0125 J0.0
G2 Y3.0108 Z-2.2667 I0.0063 J0.0108
G2 X58.3125 Y3.0 Z-2.3 I0.0063 J-0.0108
G2 X58.2937 Y2.9892 Z-2.3333 I-0.0125 J0.0
G2 Y3.0108 Z-2.3667 I0.0063 J0.0108
G2 X58.3125 Y3.0 Z-2.4 I0.0063 J-0.0108
G2 X58.2937 Y2.9892 Z-2.4333 I-0.0125 J0.0
G2 Y3.0108 Z-2.4667 I0.0063 J0.0108
G2 X58.3125 Y3.0 Z-2.5 I0.0063 J-0.0108
G2 X58.2937 Y2.9892 Z-2.5333 I-0.0125 J0.0
G2 Y3.0108 Z-2.5667 I0.0063 J0.0108
G2 X58.3125 Y3.0 Z-2.6 I0.0063 J-0.0108
G2 X58.2937 Y2.9892 Z-2.6333 I-0.0125 J0.0
G2 Y3.0108 Z-2.6667 I0.0063 J0.0108
G2 X58.3125 Y3.0 Z-2.7 I0.0063 J-0.0108
G2 X58.2937 Y2.9892 Z-2.7333 I-0.0125 J0.0
G2 Y3.0108 Z-2.7667 I0.0063 J0.0108
G2 X58.3125 Y3.0 Z-2.8 I0.0063 J-0.0108
G2 X58.2937 Y2.9892 Z-2.8333 I-0.0125 J0.0
G2 Y3.0108 Z-2.8667 I0.0063 J0.0108
G2 X58.3125 Y3.0 Z-2.9 I0.0063 J-0.0108
G2 X58.2937 Y2.9892 Z-2.9333 I-0.0125 J0.0
G2 Y3.0108 Z-2.9667 I0.0063 J0.0108
G2 X58.3125 Y3.0 Z-3.0 I0.0062 J-0.0108
G2 X58.2937 Y2.9892 Z-3.0333 I-0.0125 J0.0
G2 Y3.0108 Z-3.0667 I0.0063 J0.0108
G2 X58.3125 Y3.0 Z-3.1 I0.0062 J-0.0108
G2 X58.2937 Y2.9892 Z-3.1333 I-0.0125 J0.0
G2 Y3.0108 Z-3.1667 I0.0063 J0.0108
G2 X58.3125 Y3.0 Z-3.2 I0.0062 J-0.0108
G2 X58.2937 Y2.9892 I-0.0125 J0.0
G2 Y3.0108 I0.0063 J0.0108
G2 X58.3125 Y3.0 I0.0062 J-0.0108
G0 Z3.0
G0 X7.3025
G0 Z0.01
G1 F1000.0 Z0.0
G2 F2000.0 X7.2838 Y2.9892 Z-0.0333 I-0.0125 J0.0
G2 Y3.0108 Z-0.0667 I0.0062 J0.0108
G2 X7.3025 Y3.0 Z-0.1 I0.0063 J-0.0108
G2 X7.2838 Y2.9892 Z-0.1333 I-0.0125 J0.0
G2 Y3.0108 Z-0.1667 I0.0062 J0.0108
G2 X7.3025 Y3.0 Z-0.2 I0.0063 J-0.0108
G2 X7.2838 Y2.9892 Z-0.2333 I-0.0125 J0.0
G2 Y3.0108 Z-0.2667 I0.0062 J0.0108
G2 X7.3025 Y3.0 Z-0.3 I0.0063 J-0.0108
G2 X7.2838 Y2.9892 Z-0.3333 I-0.0125 J0.0
G2 Y3.0108 Z-0.3667 I0.0063 J0.0108
