(/Applications/pcbgcode.repo/pcb-gcode.ulp)
(Copyright 2005 - 2012 by John Johnson)
(See readme.txt for licensing terms.)
(This file generated from the board:)
(.../CAM/eurorack/VCEG/eagle/vceg.brd)
(Current profile is .../pcbgcode.repo/profiles/mach.pp  )
(This file generated 3/20/15 8:30 PM)
(Settings from pcb-machine.h)
(spindle on time = 0.0000)
(spindle speed = 20000.0000)
(tool change at 0.0000  0.0000  3.0000  )
(feed rate xy = F0     )
(feed rate z  = F20    )
(Z Axis Settings)
(  High     Up        Down     Drill)
(1.0000  	0.0500  	-0.0040 	-0.0730 )
(Settings from pcb-defaults.h)
(isolate min = 0.0010)
(isolate max = 0.0050)
(isolate step = 0.0010)
(Generated bottom outlines, bottom drill, )
(Unit of measure: inch)
( Tool|       Size       |  Min Sub |  Max Sub |   Count )
( T01 | 0.813mm 0.0320in | 0.0000in | 0.0000in |       0 )
( T02 | 0.900mm 0.0354in | 0.0000in | 0.0000in |       0 )
( T03 | 1.016mm 0.0400in | 0.0000in | 0.0000in |       0 )
( T04 | 1.200mm 0.0472in | 0.0000in | 0.0000in |       0 )
(Inch Mode)
G20
(Absolute Coordinates)
G90
S20000
G00 Z1.0000  
G00 X0.0000  Y0.0000  
M03
G04 P0.000000
M05
G00 Z3.0000  
M06 T01  ; 0.0320  
G01 Z0.0000  F20    
M06 
G00 Z0.0500  
M03
G04 P0.000000
G82 X-0.5200 Y1.1800  Z-0.0730 F20    R0.0500  P0.010000
G82 X-0.5200 Y1.2800  
G82 X-0.7400 Y1.3500  
G82 X-0.8400 Y1.3500  
G82 X-0.9400 Y1.3500  
G82 X-1.0400 Y1.3500  
G82 X-1.1400 Y1.3500  
G82 X-1.2400 Y1.3500  
G82 X-1.3400 Y1.3500  
G82 X-1.4400 Y1.3500  
G82 X-1.4400 Y1.0500  
G82 X-1.3400 Y1.0500  
G82 X-1.2400 Y1.0500  
G82 X-1.1400 Y1.0500  
G82 X-1.0400 Y1.0500  
G82 X-0.9400 Y1.0500  
G82 X-0.8400 Y1.0500  
G82 X-0.7400 Y1.0500  
G82 X-0.9100 Y2.1000  
G82 X-1.0100 Y2.1000  
G82 X-1.1100 Y2.1000  
G82 X-1.0500 Y2.4100  
G82 X-0.9500 Y2.4100  
G82 X-0.8500 Y2.4100  
G82 X-1.7000 Y1.8100  
G82 X-1.8000 Y1.8100  
G82 X-1.9200 Y2.0600  
G82 X-1.9200 Y2.1600  
G82 X-2.1600 Y2.2900  
G82 X-2.2600 Y2.2900  
G82 X-2.3600 Y2.2900  
G82 X-2.4600 Y2.2900  
G82 X-2.6400 Y2.2100  
G82 X-2.6400 Y2.1100  
G82 X-2.4600 Y1.9900  
G82 X-2.3600 Y1.9900  
G82 X-2.2600 Y1.9900  
G82 X-2.1600 Y1.9900  
G82 X-2.1700 Y1.4100  
G82 X-2.0700 Y1.4100  
G82 X-2.0500 Y1.1700  
G82 X-2.1500 Y1.1700  
G82 X-2.6500 Y1.1400  
G82 X-2.6500 Y1.2400  
G82 X-2.7900 Y1.3600  
G82 X-2.8900 Y1.3600  
G82 X-2.9900 Y1.3600  
G82 X-3.0900 Y1.3600  
G82 X-3.1900 Y1.3600  
G82 X-3.2900 Y1.3600  
G82 X-3.3900 Y1.3600  
G82 X-3.3900 Y1.0600  
G82 X-3.2900 Y1.0600  
G82 X-3.1900 Y1.0600  
G82 X-3.0900 Y1.0600  
G82 X-2.9900 Y1.0600  
G82 X-2.8900 Y1.0600  
G82 X-2.7900 Y1.0600  
G82 X-2.9400 Y2.2300  
G82 X-3.0400 Y2.2300  
G82 X-3.1400 Y2.2300  
G82 X-3.2400 Y2.2300  
G82 X-3.3400 Y2.2300  
G82 X-3.4400 Y2.2300  
G82 X-3.5400 Y2.2300  
G82 X-3.6700 Y2.2000  
G82 X-3.6700 Y2.3000  
G82 X-3.5400 Y2.5300  
G82 X-3.4400 Y2.5300  
G82 X-3.3400 Y2.5300  
G82 X-3.2400 Y2.5300  
G82 X-3.1400 Y2.5300  
G82 X-3.0400 Y2.5300  
G82 X-2.9400 Y2.5300  
G82 X-2.8000 Y2.3800  
G82 X-2.8000 Y2.2800  
M05
G00 Z3.0000  
G00 X0.0000  Y0.0000  
M06 T02  ; 0.0354  
G01 Z0.0000  F20    
M06 
G00 Z0.0500  
M03
G04 P0.000000
G82 X-0.3100 Y0.6500  Z-0.0730 F20    R0.0500  P0.010000
G82 X-0.3600 Y0.8200  
G82 X-0.5800 Y0.5200  
G82 X-0.7100 Y0.6500  
G82 X-0.7600 Y0.8200  
G82 X-0.9800 Y0.5200  
G82 X-0.8700 Y0.3500  
G82 X-1.2700 Y0.3500  
G82 X-1.6200 Y0.4200  
G82 X-1.5800 Y0.6600  
G82 X-1.8300 Y0.9100  
G82 X-1.9800 Y0.6600  
G82 X-2.0200 Y0.4200  
G82 X-2.3500 Y0.8700  
G82 X-2.5800 Y0.7300  
G82 X-2.8000 Y0.7200  
G82 X-2.9100 Y0.8300  
G82 X-3.3100 Y0.8300  
G82 X-3.4000 Y0.6300  
G82 X-3.5400 Y0.6200  
G82 X-3.6400 Y1.0000  
G82 X-3.6400 Y1.4000  
G82 X-3.2900 Y1.6400  
G82 X-3.4600 Y1.8000  
G82 X-3.4600 Y1.9900  
G82 X-3.1700 Y2.1200  
G82 X-3.0600 Y1.9900  
G82 X-3.0600 Y1.8000  
G82 X-2.8900 Y1.6400  
G82 X-2.7100 Y1.7400  
G82 X-2.3100 Y1.7400  
G82 X-2.2600 Y1.8600  
G82 X-1.8400 Y1.9300  
G82 X-1.7000 Y2.0500  
G82 X-1.6000 Y1.9300  
G82 X-1.3900 Y2.1000  
G82 X-1.1800 Y1.8100  
G82 X-1.1000 Y1.6500  
G82 X-1.1000 Y1.5100  
G82 X-1.3900 Y1.6200  
G82 X-1.4400 Y1.4500  
G82 X-1.6100 Y1.6200  
G82 X-1.8300 Y1.3100  
G82 X-2.3500 Y1.2700  
G82 X-3.0900 Y1.5000  
G82 X-2.8000 Y0.3200  
G82 X-2.5800 Y0.3300  
G82 X-3.4000 Y0.2300  
G82 X-3.5400 Y0.2200  
G82 X-2.4300 Y2.5700  
G82 X-2.0300 Y2.5700  
G82 X-1.9400 Y2.6500  
G82 X-1.9000 Y2.4300  
G82 X-1.7000 Y2.4500  
G82 X-1.5400 Y2.6500  
G82 X-1.3900 Y2.5000  
G82 X-0.7700 Y2.2600  
G82 X-0.7700 Y2.0500  
G82 X-0.7800 Y1.8100  
G82 X-0.7000 Y1.6500  
G82 X-0.3700 Y2.0500  
G82 X-0.3700 Y2.2600  
G82 X-2.8200 Y2.9000  
G82 X-3.2200 Y2.9000  
M05
G00 Z3.0000  
G00 X0.0000  Y0.0000  
M06 T03  ; 0.0400  
G01 Z0.0000  F20    
M06 
G00 Z0.0500  
M03
G04 P0.000000
G82 X-0.3200 Y1.0000  Z-0.0730 F20    R0.0500  P0.010000
G82 X-1.0200 Y0.6700  
G82 X-1.4200 Y0.5600  
G82 X-2.1500 Y0.5600  
G82 X-2.3700 Y0.4900  
G82 X-3.1700 Y0.4300  
G82 X-2.6300 Y1.5100  
G82 X-2.0600 Y1.6200  
G82 X-1.7900 Y1.6200  
G82 X-1.7500 Y1.4000  
G82 X-0.5800 Y1.8100  
G82 X-0.5800 Y2.7300  
G82 X-0.5800 Y2.8300  
G82 X-0.6800 Y2.8300  
G82 X-0.7800 Y2.8300  
G82 X-0.8800 Y2.8300  
G82 X-0.9800 Y2.8300  
G82 X-1.0800 Y2.8300  
G82 X-1.1800 Y2.8300  
G82 X-1.2800 Y2.8300  
G82 X-1.2800 Y2.7300  
G82 X-1.1800 Y2.7300  
G82 X-1.0800 Y2.7300  
G82 X-0.9800 Y2.7300  
G82 X-0.8800 Y2.7300  
G82 X-0.7800 Y2.7300  
G82 X-0.6800 Y2.7300  
G82 X-1.6500 Y2.8300  
G82 X-2.4600 Y2.9600  
G82 X-2.5800 Y2.6300  
G82 X-3.4600 Y2.8500  
G82 X-3.5100 Y1.6600  
M05
G00 Z3.0000  
G00 X0.0000  Y0.0000  
M06 T04  ; 0.0472  
G01 Z0.0000  F20    
M06 
G00 Z0.0500  
M03
G04 P0.000000
G82 X-0.1531 Y0.1000  Z-0.0730 F20    R0.0500  P0.010000
G82 X-0.3500 Y0.1000  
G82 X-0.5469 Y0.1000  
G82 X-0.9531 Y0.1000  
G82 X-1.1500 Y0.1000  
G82 X-1.3469 Y0.1000  
G82 X-1.7531 Y0.1000  
G82 X-1.9500 Y0.1000  
G82 X-2.1469 Y0.1000  
G82 X-2.5531 Y0.1000  
G82 X-2.7500 Y0.1000  
G82 X-2.9469 Y0.1000  
G82 X-3.3531 Y0.1000  
G82 X-3.5500 Y0.1000  
G82 X-3.7469 Y0.1000  
T01 
G00 Z1.0000  
M05
M02
