(/Applications/pcbgcode.repo/pcb-gcode.ulp)
(Copyright 2005 - 2012 by John Johnson)
(See readme.txt for licensing terms.)
(This file generated from the board:)
(.../eurorack/EFM_VCRADSR/eagle/vceg.brd)
(Current profile is .../pcbgcode.repo/profiles/mach.pp  )
(This file generated 3/27/15 10:27 PM)
(Settings from pcb-machine.h)
(spindle on time = 0.0000)
(  Tool Size)
(0.0100  )
(spindle speed = 30000.0000)
(tool change at 0.0000  0.0000  3.0000  )
(feed rate xy = F20    )
(feed rate z  = F10    )
(Z Axis Settings)
(  High     Up        Down     Drill)
(1.0000  	0.0500  	-0.0040 	-0.0730 )
(Settings from pcb-defaults.h)
(isolate min = 0.0010)
(isolate max = 0.0050)
(isolate step = 0.0010)
(Generated bottom outlines, bottom drill, )
(Unit of measure: inch)
(Inch Mode)
G20
(Absolute Coordinates)
G90
S30000
G00 Z1.0000  
G00 X0.0000  Y0.0000  
M03
G04 P0.000000
G00 Z0.0500  
G00 X-0.1158 Y0.0681  
G01 Z-0.0040 F10    
G01 X-0.1212 Y0.0626  F20    
G01 X-0.1275 Y0.0581  
G01 X-0.1343 Y0.0546  
G01 X-0.1417 Y0.0522  
G01 X-0.1493 Y0.0510  
G01 X-0.1570 Y0.0510  
G01 X-0.1646 Y0.0522  
G01 X-0.1720 Y0.0546  
G01 X-0.1748 Y0.0560  
G01 X-0.2168 Y0.0139  
G01 X-0.2202 Y0.0106  
G01 X-0.2243 Y0.0082  
G01 X-0.2289 Y0.0070  
G01 X-0.4137 Y0.0070  
G01 X-0.4147 Y0.0068  
G01 X-0.4160 Y0.0070  
G01 X-0.4174 Y0.0070  
G01 X-0.4184 Y0.0073  
G01 X-0.4194 Y0.0074  
G01 X-0.4206 Y0.0079  
G01 X-0.4219 Y0.0082  
G01 X-0.4228 Y0.0087  
G01 X-0.4238 Y0.0091  
G01 X-0.4249 Y0.0099  
G01 X-0.4261 Y0.0106  
G01 X-0.4268 Y0.0113  
G01 X-0.4276 Y0.0119  
G01 X-0.4284 Y0.0130  
G01 X-0.4294 Y0.0139  
G01 X-0.4299 Y0.0148  
G01 X-0.4306 Y0.0156  
G01 X-0.4311 Y0.0169  
G01 X-0.4318 Y0.0181  
G01 X-0.4320 Y0.0190  
G01 X-0.4762 Y0.1205  
G01 X-0.5278 Y0.1667  
G01 X-0.7472 Y0.1571  
G01 X-0.7476 Y0.1570  
G01 X-0.7480 Y0.1570  
G01 X-0.7895 Y0.1478  
G01 X-0.9041 Y0.0997  
G01 X-0.9041 Y0.0961  
G01 X-0.9054 Y0.0885  
G01 X-0.9077 Y0.0812  
G01 X-0.9112 Y0.0743  
G01 X-0.9158 Y0.0681  
G01 X-0.9212 Y0.0626  
G01 X-0.9275 Y0.0581  
G01 X-0.9343 Y0.0546  
G01 X-0.9417 Y0.0522  
G01 X-0.9493 Y0.0510  
G01 X-0.9570 Y0.0510  
G01 X-0.9646 Y0.0522  
G01 X-0.9720 Y0.0546  
G01 X-0.9788 Y0.0581  
G01 X-0.9851 Y0.0626  
G01 X-0.9905 Y0.0681  
G01 X-0.9951 Y0.0743  
G01 X-0.9986 Y0.0812  
G01 X-1.0009 Y0.0885  
G01 X-1.0021 Y0.0961  
G01 X-1.0021 Y0.1039  
G01 X-1.0009 Y0.1115  
G01 X-0.9986 Y0.1188  
G01 X-0.9951 Y0.1257  
G01 X-0.9905 Y0.1319  
G01 X-0.9851 Y0.1374  
G01 X-0.9788 Y0.1419  
G01 X-0.9720 Y0.1454  
G01 X-0.9646 Y0.1478  
G01 X-0.9570 Y0.1490  
G01 X-0.9493 Y0.1490  
G01 X-0.9417 Y0.1478  
G01 X-0.9343 Y0.1454  
G01 X-0.9275 Y0.1419  
G01 X-0.9212 Y0.1374  
G01 X-0.9171 Y0.1333  
G01 X-0.8027 Y0.1813  
G01 X-0.8012 Y0.1821  
G01 X-0.8005 Y0.1822  
G01 X-0.7998 Y0.1825  
G01 X-0.7982 Y0.1827  
G01 X-0.7795 Y0.1869  
G01 X-0.8670 Y0.2825  
G01 X-1.3188 Y0.3897  
G01 X-1.5642 Y0.2603  
G01 X-1.7072 Y0.1173  
G01 X-1.7054 Y0.1115  
G01 X-1.7041 Y0.1039  
G01 X-1.7041 Y0.0961  
G01 X-1.7054 Y0.0885  
G01 X-1.7077 Y0.0812  
G01 X-1.7112 Y0.0743  
G01 X-1.7158 Y0.0681  
G01 X-1.7212 Y0.0626  
G01 X-1.7275 Y0.0581  
G01 X-1.7343 Y0.0546  
G01 X-1.7417 Y0.0522  
G01 X-1.7493 Y0.0510  
G01 X-1.7570 Y0.0510  
G01 X-1.7646 Y0.0522  
G01 X-1.7720 Y0.0546  
G01 X-1.7788 Y0.0581  
G01 X-1.7851 Y0.0626  
G01 X-1.7905 Y0.0681  
G01 X-1.7951 Y0.0743  
G01 X-1.7986 Y0.0812  
G01 X-1.8009 Y0.0885  
G01 X-1.8021 Y0.0961  
G01 X-1.8021 Y0.1039  
G01 X-1.8009 Y0.1115  
G01 X-1.7986 Y0.1188  
G01 X-1.7951 Y0.1257  
G01 X-1.7905 Y0.1319  
G01 X-1.7851 Y0.1374  
G01 X-1.7788 Y0.1419  
G01 X-1.7720 Y0.1454  
G01 X-1.7646 Y0.1478  
G01 X-1.7570 Y0.1490  
G01 X-1.7493 Y0.1490  
G01 X-1.7417 Y0.1478  
G01 X-1.7343 Y0.1454  
G01 X-1.7315 Y0.1440  
G01 X-1.5991 Y0.2763  
G01 X-1.7037 Y0.4070  
G01 X-1.9568 Y0.4070  
G01 X-2.3001 Y0.0932  
G01 X-2.3014 Y0.0918  
G01 X-2.3018 Y0.0916  
G01 X-2.3021 Y0.0914  
G01 X-2.3038 Y0.0905  
G01 X-2.3056 Y0.0895  
G01 X-2.3059 Y0.0894  
G01 X-2.3063 Y0.0892  
G01 X-2.3082 Y0.0888  
G01 X-2.3101 Y0.0882  
G01 X-2.3105 Y0.0882  
G01 X-2.3109 Y0.0882  
G01 X-2.3129 Y0.0882  
G01 X-2.5054 Y0.0882  
G01 X-2.5077 Y0.0812  
G01 X-2.5112 Y0.0743  
G01 X-2.5158 Y0.0681  
G01 X-2.5212 Y0.0626  
G01 X-2.5275 Y0.0581  
G01 X-2.5343 Y0.0546  
G01 X-2.5417 Y0.0522  
G01 X-2.5493 Y0.0510  
G01 X-2.5570 Y0.0510  
G01 X-2.5646 Y0.0522  
G01 X-2.5720 Y0.0546  
G01 X-2.5788 Y0.0581  
G01 X-2.5851 Y0.0626  
G01 X-2.5905 Y0.0681  
G01 X-2.5951 Y0.0743  
G01 X-2.5986 Y0.0812  
G01 X-2.6009 Y0.0885  
G01 X-2.6021 Y0.0961  
G01 X-2.6021 Y0.1039  
G01 X-2.6009 Y0.1115  
G01 X-2.5986 Y0.1188  
G01 X-2.5970 Y0.1219  
G01 X-2.7760 Y0.3443  
G01 X-2.7771 Y0.3454  
G01 X-2.7775 Y0.3462  
G01 X-2.7780 Y0.3468  
G01 X-2.7786 Y0.3482  
G01 X-2.8231 Y0.4283  
G01 X-2.9866 Y0.4283  
G01 X-3.1437 Y0.2808  
G01 X-3.3072 Y0.1173  
G01 X-3.3054 Y0.1115  
G01 X-3.3041 Y0.1039  
G01 X-3.3041 Y0.0961  
G01 X-3.3054 Y0.0885  
G01 X-3.3077 Y0.0812  
G01 X-3.3112 Y0.0743  
G01 X-3.3158 Y0.0681  
G01 X-3.3212 Y0.0626  
G01 X-3.3275 Y0.0581  
G01 X-3.3343 Y0.0546  
G01 X-3.3417 Y0.0522  
G01 X-3.3493 Y0.0510  
G01 X-3.3570 Y0.0510  
G01 X-3.3646 Y0.0522  
G01 X-3.3720 Y0.0546  
G01 X-3.3788 Y0.0581  
G01 X-3.3851 Y0.0626  
G01 X-3.3905 Y0.0681  
G01 X-3.3951 Y0.0743  
G01 X-3.3986 Y0.0812  
G01 X-3.4009 Y0.0885  
G01 X-3.4021 Y0.0961  
G01 X-3.4021 Y0.1039  
G01 X-3.4009 Y0.1115  
G01 X-3.3986 Y0.1188  
G01 X-3.3951 Y0.1257  
G01 X-3.3905 Y0.1319  
G01 X-3.3851 Y0.1374  
G01 X-3.3788 Y0.1419  
G01 X-3.3720 Y0.1454  
G01 X-3.3646 Y0.1478  
G01 X-3.3570 Y0.1490  
G01 X-3.3493 Y0.1490  
G01 X-3.3417 Y0.1478  
G01 X-3.3343 Y0.1454  
G01 X-3.3315 Y0.1440  
G01 X-3.1852 Y0.2902  
G01 X-3.2660 Y0.3391  
G01 X-3.2674 Y0.3398  
G01 X-3.2681 Y0.3404  
G01 X-3.2688 Y0.3408  
G01 X-3.2699 Y0.3419  
G01 X-3.2710 Y0.3428  
G01 X-3.2715 Y0.3436  
G01 X-3.2721 Y0.3442  
G01 X-3.2728 Y0.3455  
G01 X-3.2737 Y0.3467  
G01 X-3.2740 Y0.3476  
G01 X-3.2744 Y0.3484  
G01 X-3.2748 Y0.3498  
G01 X-3.2753 Y0.3512  
G01 X-3.2753 Y0.3521  
G01 X-3.2755 Y0.3530  
G01 X-3.2755 Y0.3545  
G01 X-3.2953 Y0.6019  
G01 X-3.2955 Y0.6026  
G01 X-3.2955 Y0.6043  
G01 X-3.2956 Y0.6059  
G01 X-3.2955 Y0.6066  
G01 X-3.2955 Y0.6074  
G01 X-3.2951 Y0.6090  
G01 X-3.2948 Y0.6106  
G01 X-3.2945 Y0.6112  
G01 X-3.2943 Y0.6119  
G01 X-3.2934 Y0.6134  
G01 X-3.2927 Y0.6149  
G01 X-3.2923 Y0.6154  
G01 X-3.2919 Y0.6161  
G01 X-3.2907 Y0.6172  
G01 X-3.2897 Y0.6185  
G01 X-3.2891 Y0.6189  
G01 X-3.2886 Y0.6194  
G01 X-3.2871 Y0.6202  
G01 X-3.2858 Y0.6212  
G01 X-3.2851 Y0.6214  
G01 X-3.2844 Y0.6218  
G01 X-3.2829 Y0.6222  
G01 X-3.2813 Y0.6228  
G01 X-3.2806 Y0.6228  
G01 X-3.2799 Y0.6230  
G01 X-3.2782 Y0.6230  
G01 X-3.2766 Y0.6231  
G01 X-3.2759 Y0.6230  
G01 X-3.0963 Y0.6230  
G01 X-3.0057 Y0.6947  
G01 X-3.0048 Y0.6957  
G01 X-3.0039 Y0.6962  
G01 X-3.0031 Y0.6968  
G01 X-3.0018 Y0.6974  
G01 X-3.0007 Y0.6980  
G01 X-2.9997 Y0.6983  
G01 X-2.9987 Y0.6987  
G01 X-2.9974 Y0.6989  
G01 X-2.9961 Y0.6992  
G01 X-2.9951 Y0.6992  
G01 X-2.9940 Y0.6994  
G01 X-2.9927 Y0.6992  
G01 X-2.7721 Y0.6992  
G01 X-2.7719 Y0.7001  
G01 X-2.7698 Y0.7065  
G01 X-2.7668 Y0.7125  
G01 X-2.7628 Y0.7180  
G01 X-2.7580 Y0.7228  
G01 X-2.7525 Y0.7268  
G01 X-2.7465 Y0.7298  
G01 X-2.7401 Y0.7319  
G01 X-2.7334 Y0.7330  
G01 X-2.7266 Y0.7330  
G01 X-2.7199 Y0.7319  
G01 X-2.7135 Y0.7298  
G01 X-2.7075 Y0.7268  
G01 X-2.7020 Y0.7228  
G01 X-2.6972 Y0.7180  
G01 X-2.6957 Y0.7159  
G01 X-2.5810 Y0.7409  
G01 X-2.4845 Y0.7885  
G01 X-2.4485 Y0.8077  
G01 X-2.4478 Y0.8082  
G01 X-2.4464 Y0.8088  
G01 X-2.4451 Y0.8095  
G01 X-2.4443 Y0.8097  
G01 X-2.4434 Y0.8100  
G01 X-2.4420 Y0.8102  
G01 X-2.4405 Y0.8106  
G01 X-2.4396 Y0.8105  
G01 X-2.4210 Y0.8130  
G01 X-2.4198 Y0.8165  
G01 X-2.4168 Y0.8225  
G01 X-2.4128 Y0.8280  
G01 X-2.4080 Y0.8328  
G01 X-2.4025 Y0.8368  
G01 X-2.3965 Y0.8398  
G01 X-2.3901 Y0.8419  
G01 X-2.3834 Y0.8430  
G01 X-2.3766 Y0.8430  
G01 X-2.3699 Y0.8419  
G01 X-2.3635 Y0.8398  
G01 X-2.3575 Y0.8368  
G01 X-2.3457 Y0.8486  
G01 X-2.3423 Y0.8519  
G01 X-2.3382 Y0.8543  
G01 X-2.3336 Y0.8555  
G01 X-1.9602 Y0.8555  
G01 X-1.9598 Y0.8565  
G01 X-1.9568 Y0.8625  
G01 X-1.9528 Y0.8680  
G01 X-1.9480 Y0.8728  
G01 X-1.9425 Y0.8768  
G01 X-1.9365 Y0.8798  
G01 X-1.9301 Y0.8819  
G01 X-1.9234 Y0.8830  
G01 X-1.9166 Y0.8830  
G01 X-1.9099 Y0.8819  
G01 X-1.9035 Y0.8798  
G01 X-1.8975 Y0.8768  
G01 X-1.8920 Y0.8728  
G01 X-1.8872 Y0.8680  
G01 X-1.8832 Y0.8625  
G01 X-1.8802 Y0.8565  
G01 X-1.8781 Y0.8501  
G01 X-1.8770 Y0.8434  
G01 X-1.8770 Y0.8366  
G01 X-1.8781 Y0.8299  
G01 X-1.8799 Y0.8242  
G01 X-1.5820 Y0.8242  
G01 X-1.5820 Y0.8292  
G01 X-1.5808 Y0.8353  
G01 X-1.5784 Y0.8412  
G01 X-1.5749 Y0.8464  
G01 X-1.5704 Y0.8509  
G01 X-1.5652 Y0.8544  
G01 X-1.5593 Y0.8568  
G01 X-1.5532 Y0.8580  
G01 X-1.5468 Y0.8580  
G01 X-1.5407 Y0.8568  
G01 X-1.5348 Y0.8544  
G01 X-1.5296 Y0.8509  
G01 X-1.5251 Y0.8464  
G01 X-1.5216 Y0.8412  
G01 X-1.5192 Y0.8353  
G01 X-1.5180 Y0.8292  
G01 X-1.5180 Y0.8180  
G01 X-1.4820 Y0.8180  
G01 X-1.4820 Y0.8292  
G01 X-1.4808 Y0.8353  
G01 X-1.4784 Y0.8412  
G01 X-1.4749 Y0.8464  
G01 X-1.4704 Y0.8509  
G01 X-1.4652 Y0.8544  
G01 X-1.4593 Y0.8568  
G01 X-1.4532 Y0.8580  
G01 X-1.4468 Y0.8580  
G01 X-1.4407 Y0.8568  
G01 X-1.4348 Y0.8544  
G01 X-1.4296 Y0.8509  
G01 X-1.4251 Y0.8464  
G01 X-1.4216 Y0.8412  
G01 X-1.4192 Y0.8353  
G01 X-1.4180 Y0.8292  
G01 X-1.4180 Y0.8180  
G01 X-1.3950 Y0.8180  
G01 X-1.3945 Y0.8184  
G01 X-1.3809 Y0.8345  
G01 X-1.3808 Y0.8353  
G01 X-1.3784 Y0.8412  
G01 X-1.3749 Y0.8464  
G01 X-1.3704 Y0.8509  
G01 X-1.3652 Y0.8544  
G01 X-1.3637 Y0.8550  
G01 X-1.2389 Y1.0028  
G01 X-1.2509 Y1.0420  
G01 X-1.2532 Y1.0420  
G01 X-1.2593 Y1.0432  
G01 X-1.2652 Y1.0456  
G01 X-1.2704 Y1.0491  
G01 X-1.2749 Y1.0536  
G01 X-1.2784 Y1.0588  
G01 X-1.2808 Y1.0647  
G01 X-1.2820 Y1.0708  
G01 X-1.2820 Y1.1292  
G01 X-1.2808 Y1.1353  
G01 X-1.2800 Y1.1373  
G01 X-1.3270 Y1.2939  
G01 X-1.3275 Y1.2951  
G01 X-1.3276 Y1.2961  
G01 X-1.3279 Y1.2971  
G01 X-1.3280 Y1.2985  
G01 X-1.3475 Y1.4354  
G01 X-1.3476 Y1.4356  
G01 X-1.3479 Y1.4377  
G01 X-1.3482 Y1.4398  
G01 X-1.3481 Y1.4400  
G01 X-1.3482 Y1.4403  
G01 X-1.3478 Y1.4424  
G01 X-1.3476 Y1.4445  
G01 X-1.3475 Y1.4447  
G01 X-1.3043 Y1.7374  
G01 X-1.3043 Y1.7382  
G01 X-1.3039 Y1.7397  
G01 X-1.3037 Y1.7412  
G01 X-1.3034 Y1.7420  
G01 X-1.2565 Y1.9343  
G01 X-1.2889 Y1.9599  
G01 X-1.3514 Y1.9517  
G01 X-1.5875 Y1.7065  
G01 X-1.5870 Y1.7034  
G01 X-1.5870 Y1.6966  
G01 X-1.5881 Y1.6899  
G01 X-1.5902 Y1.6835  
G01 X-1.5932 Y1.6775  
G01 X-1.5972 Y1.6720  
G01 X-1.6020 Y1.6672  
G01 X-1.6075 Y1.6632  
G01 X-1.6133 Y1.6603  
G01 X-1.6133 Y1.5617  
G01 X-1.5472 Y1.5617  
G01 X-1.5468 Y1.5625  
G01 X-1.5428 Y1.5680  
G01 X-1.5380 Y1.5728  
G01 X-1.5325 Y1.5768  
G01 X-1.5265 Y1.5798  
G01 X-1.5201 Y1.5819  
G01 X-1.5134 Y1.5830  
G01 X-1.5066 Y1.5830  
G01 X-1.4999 Y1.5819  
G01 X-1.4935 Y1.5798  
G01 X-1.4875 Y1.5768  
G01 X-1.4820 Y1.5728  
G01 X-1.4772 Y1.5680  
G01 X-1.4732 Y1.5625  
G01 X-1.4702 Y1.5565  
G01 X-1.4681 Y1.5501  
G01 X-1.4670 Y1.5434  
G01 X-1.4670 Y1.5366  
G01 X-1.4681 Y1.5299  
G01 X-1.4702 Y1.5235  
G01 X-1.4732 Y1.5175  
G01 X-1.4772 Y1.5120  
G01 X-1.4820 Y1.5072  
G01 X-1.4875 Y1.5032  
G01 X-1.4935 Y1.5002  
G01 X-1.4999 Y1.4981  
G01 X-1.5066 Y1.4970  
G01 X-1.5134 Y1.4970  
G01 X-1.5201 Y1.4981  
G01 X-1.5265 Y1.5002  
G01 X-1.5325 Y1.5032  
G01 X-1.5380 Y1.5072  
G01 X-1.5428 Y1.5120  
G01 X-1.5468 Y1.5175  
G01 X-1.5498 Y1.5235  
G01 X-1.5506 Y1.5257  
G01 X-1.7132 Y1.5257  
G01 X-1.7132 Y1.1697  
G01 X-1.7075 Y1.1668  
G01 X-1.7020 Y1.1628  
G01 X-1.6972 Y1.1580  
G01 X-1.6932 Y1.1525  
G01 X-1.6902 Y1.1465  
G01 X-1.6881 Y1.1401  
G01 X-1.6870 Y1.1334  
G01 X-1.6870 Y1.1266  
G01 X-1.6881 Y1.1199  
G01 X-1.6902 Y1.1135  
G01 X-1.6932 Y1.1075  
G01 X-1.6972 Y1.1020  
G01 X-1.7020 Y1.0972  
G01 X-1.7075 Y1.0932  
G01 X-1.7135 Y1.0902  
G01 X-1.7199 Y1.0881  
G01 X-1.7266 Y1.0870  
G01 X-1.7334 Y1.0870  
G01 X-1.7401 Y1.0881  
G01 X-1.7465 Y1.0902  
G01 X-1.7525 Y1.0932  
G01 X-1.7580 Y1.0972  
G01 X-1.7628 Y1.1020  
G01 X-1.7668 Y1.1075  
G01 X-1.7698 Y1.1135  
G01 X-1.7719 Y1.1199  
G01 X-1.7730 Y1.1266  
G01 X-1.7730 Y1.1334  
G01 X-1.7719 Y1.1401  
G01 X-1.7698 Y1.1465  
G01 X-1.7668 Y1.1525  
G01 X-1.7628 Y1.1580  
G01 X-1.7580 Y1.1628  
G01 X-1.7525 Y1.1668  
G01 X-1.7492 Y1.1685  
G01 X-1.7492 Y1.5320  
G01 X-1.7509 Y1.5320  
G01 X-1.7532 Y1.5275  
G01 X-1.7572 Y1.5220  
G01 X-1.7620 Y1.5172  
G01 X-1.7675 Y1.5132  
G01 X-1.7735 Y1.5102  
G01 X-1.7799 Y1.5081  
G01 X-1.7866 Y1.5070  
G01 X-1.7934 Y1.5070  
G01 X-1.8001 Y1.5081  
G01 X-1.8065 Y1.5102  
G01 X-1.8125 Y1.5132  
G01 X-1.8180 Y1.5172  
G01 X-1.8228 Y1.5220  
G01 X-1.8268 Y1.5275  
G01 X-1.8298 Y1.5335  
G01 X-1.8319 Y1.5399  
G01 X-1.8330 Y1.5466  
G01 X-1.8330 Y1.5534  
G01 X-1.8322 Y1.5585  
G01 X-1.8965 Y1.6085  
G01 X-2.4153 Y1.6279  
G01 X-2.4680 Y1.5614  
G01 X-2.4680 Y1.5367  
G01 X-2.4867 Y1.5180  
G01 X-2.5133 Y1.5180  
G01 X-2.5168 Y1.5215  
G01 X-2.5915 Y1.4841  
G01 X-2.5931 Y1.4832  
G01 X-2.5936 Y1.4831  
G01 X-2.5941 Y1.4828  
G01 X-2.5959 Y1.4825  
G01 X-2.5976 Y1.4820  
G01 X-2.5982 Y1.4820  
G01 X-2.5987 Y1.4819  
G01 X-2.6005 Y1.4820  
G01 X-2.6309 Y1.4820  
G01 X-2.6332 Y1.4775  
G01 X-2.6372 Y1.4720  
G01 X-2.6420 Y1.4672  
G01 X-2.6475 Y1.4632  
G01 X-2.6535 Y1.4602  
G01 X-2.6599 Y1.4581  
G01 X-2.6666 Y1.4570  
G01 X-2.6711 Y1.4570  
G01 X-2.7030 Y1.3820  
G01 X-2.7002 Y1.3765  
G01 X-2.6981 Y1.3701  
G01 X-2.6970 Y1.3634  
G01 X-2.6970 Y1.3566  
G01 X-2.6981 Y1.3499  
G01 X-2.7002 Y1.3435  
G01 X-2.7032 Y1.3375  
G01 X-2.7046 Y1.3356  
G01 X-2.6861 Y1.2379  
G01 X-2.6807 Y1.2368  
G01 X-2.6748 Y1.2344  
G01 X-2.6696 Y1.2309  
G01 X-2.6651 Y1.2264  
G01 X-2.6616 Y1.2212  
G01 X-2.6592 Y1.2153  
G01 X-2.6580 Y1.2092  
G01 X-2.6580 Y1.1508  
G01 X-2.6592 Y1.1447  
G01 X-2.6616 Y1.1388  
G01 X-2.6651 Y1.1336  
G01 X-2.6696 Y1.1291  
G01 X-2.6748 Y1.1256  
G01 X-2.6807 Y1.1232  
G01 X-2.6868 Y1.1220  
G01 X-2.6932 Y1.1220  
G01 X-2.6964 Y1.1226  
G01 X-2.7156 Y1.0836  
G01 X-2.7157 Y1.0831  
G01 X-2.7166 Y1.0815  
G01 X-2.7174 Y1.0799  
G01 X-2.7178 Y1.0795  
G01 X-2.7181 Y1.0789  
G01 X-2.7194 Y1.0777  
G01 X-2.7205 Y1.0764  
G01 X-2.7210 Y1.0760  
G01 X-2.7214 Y1.0756  
G01 X-2.7230 Y1.0747  
G01 X-2.7245 Y1.0737  
G01 X-2.7250 Y1.0735  
G01 X-2.7256 Y1.0732  
G01 X-2.7273 Y1.0728  
G01 X-2.7289 Y1.0722  
G01 X-2.7295 Y1.0722  
G01 X-2.7301 Y1.0720  
G01 X-2.7319 Y1.0720  
G01 X-2.7337 Y1.0719  
G01 X-2.7343 Y1.0720  
G01 X-3.4316 Y1.0720  
G01 X-3.4480 Y1.0600  
G01 X-3.4480 Y1.0467  
G01 X-3.4667 Y1.0280  
G01 X-3.4933 Y1.0280  
G01 X-3.5120 Y1.0467  
G01 X-3.5120 Y1.0733  
G01 X-3.4933 Y1.0920  
G01 X-3.4667 Y1.0920  
G01 X-3.4661 Y1.0914  
G01 X-3.4493 Y1.1037  
G01 X-3.4486 Y1.1044  
G01 X-3.4474 Y1.1051  
G01 X-3.4462 Y1.1059  
G01 X-3.4453 Y1.1063  
G01 X-3.4444 Y1.1068  
G01 X-3.4431 Y1.1071  
G01 X-3.4418 Y1.1076  
G01 X-3.4408 Y1.1077  
G01 X-3.4399 Y1.1080  
G01 X-3.4385 Y1.1080  
G01 X-3.4371 Y1.1082  
G01 X-3.4361 Y1.1080  
G01 X-2.7437 Y1.1080  
G01 X-2.7220 Y1.1521  
G01 X-2.7220 Y1.2092  
G01 X-2.7208 Y1.2153  
G01 X-2.7192 Y1.2191  
G01 X-2.7377 Y1.3170  
G01 X-2.7434 Y1.3170  
G01 X-2.7501 Y1.3181  
G01 X-2.7565 Y1.3202  
G01 X-2.7625 Y1.3232  
G01 X-2.7680 Y1.3272  
G01 X-2.7728 Y1.3320  
G01 X-2.7768 Y1.3375  
G01 X-2.7798 Y1.3435  
G01 X-2.7819 Y1.3499  
G01 X-2.7830 Y1.3566  
G01 X-2.7830 Y1.3634  
G01 X-2.7819 Y1.3701  
G01 X-2.7798 Y1.3765  
G01 X-2.7768 Y1.3825  
G01 X-2.7728 Y1.3880  
G01 X-2.7680 Y1.3928  
G01 X-2.7625 Y1.3968  
G01 X-2.7565 Y1.3998  
G01 X-2.7501 Y1.4019  
G01 X-2.7434 Y1.4030  
G01 X-2.7366 Y1.4030  
G01 X-2.7334 Y1.4025  
G01 X-2.7034 Y1.4729  
G01 X-2.7068 Y1.4775  
G01 X-2.7098 Y1.4835  
G01 X-2.7119 Y1.4899  
G01 X-2.7130 Y1.4966  
G01 X-2.7130 Y1.5034  
G01 X-2.7119 Y1.5101  
G01 X-2.7098 Y1.5165  
G01 X-2.7068 Y1.5225  
G01 X-2.7028 Y1.5280  
G01 X-2.6980 Y1.5328  
G01 X-2.6925 Y1.5368  
G01 X-2.6865 Y1.5398  
G01 X-2.6801 Y1.5419  
G01 X-2.6734 Y1.5430  
G01 X-2.6666 Y1.5430  
G01 X-2.6599 Y1.5419  
G01 X-2.6535 Y1.5398  
G01 X-2.6475 Y1.5368  
G01 X-2.6420 Y1.5328  
G01 X-2.6372 Y1.5280  
G01 X-2.6332 Y1.5225  
G01 X-2.6309 Y1.5180  
G01 X-2.6042 Y1.5180  
G01 X-2.5320 Y1.5541  
G01 X-2.5320 Y1.5633  
G01 X-2.5133 Y1.5820  
G01 X-2.4976 Y1.5820  
G01 X-2.4385 Y1.6567  
G01 X-2.4377 Y1.6578  
G01 X-2.4370 Y1.6585  
G01 X-2.4364 Y1.6593  
G01 X-2.4353 Y1.6601  
G01 X-2.4343 Y1.6611  
G01 X-2.4334 Y1.6615  
G01 X-2.4326 Y1.6621  
G01 X-2.4313 Y1.6626  
G01 X-2.4301 Y1.6633  
G01 X-2.4291 Y1.6635  
G01 X-2.4282 Y1.6639  
G01 X-2.4268 Y1.6640  
G01 X-2.4254 Y1.6643  
G01 X-2.4245 Y1.6643  
G01 X-2.4235 Y1.6644  
G01 X-2.4221 Y1.6642  
G01 X-1.8908 Y1.6443  
G01 X-1.8899 Y1.6444  
G01 X-1.8884 Y1.6442  
G01 X-1.8870 Y1.6441  
G01 X-1.8861 Y1.6439  
G01 X-1.8852 Y1.6438  
G01 X-1.8838 Y1.6432  
G01 X-1.8824 Y1.6428  
G01 X-1.8817 Y1.6423  
G01 X-1.8808 Y1.6419  
G01 X-1.8797 Y1.6410  
G01 X-1.8784 Y1.6402  
G01 X-1.8778 Y1.6396  
G01 X-1.8110 Y1.5876  
G01 X-1.8065 Y1.5898  
G01 X-1.8001 Y1.5919  
G01 X-1.7934 Y1.5930  
G01 X-1.7866 Y1.5930  
G01 X-1.7799 Y1.5919  
G01 X-1.7735 Y1.5898  
G01 X-1.7675 Y1.5868  
G01 X-1.7620 Y1.5828  
G01 X-1.7572 Y1.5780  
G01 X-1.7532 Y1.5725  
G01 X-1.7509 Y1.5680  
G01 X-1.7289 Y1.5680  
G01 X-1.7243 Y1.5668  
G01 X-1.7202 Y1.5644  
G01 X-1.7175 Y1.5617  
G01 X-1.6492 Y1.5617  
G01 X-1.6492 Y1.6615  
G01 X-1.6525 Y1.6632  
G01 X-1.6580 Y1.6672  
G01 X-1.6628 Y1.6720  
G01 X-1.6668 Y1.6775  
G01 X-1.6698 Y1.6835  
G01 X-1.6719 Y1.6899  
G01 X-1.6730 Y1.6966  
G01 X-1.6730 Y1.7034  
G01 X-1.6719 Y1.7101  
G01 X-1.6698 Y1.7165  
G01 X-1.6668 Y1.7225  
G01 X-1.6628 Y1.7280  
G01 X-1.6580 Y1.7328  
G01 X-1.6525 Y1.7368  
G01 X-1.6465 Y1.7398  
G01 X-1.6401 Y1.7419  
G01 X-1.6334 Y1.7430  
G01 X-1.6266 Y1.7430  
G01 X-1.6199 Y1.7419  
G01 X-1.6135 Y1.7398  
G01 X-1.6080 Y1.7371  
G01 X-1.3737 Y1.9805  
G01 X-1.3728 Y1.9816  
G01 X-1.3720 Y1.9822  
G01 X-1.3713 Y1.9829  
G01 X-1.3702 Y1.9836  
G01 X-1.3691 Y1.9845  
G01 X-1.3681 Y1.9849  
G01 X-1.3673 Y1.9854  
G01 X-1.3660 Y1.9858  
G01 X-1.3647 Y1.9863  
G01 X-1.3637 Y1.9864  
G01 X-1.3627 Y1.9867  
G01 X-1.3613 Y1.9867  
G01 X-1.2883 Y1.9963  
G01 X-1.2882 Y1.9963  
G01 X-1.2860 Y1.9966  
G01 X-1.2837 Y1.9969  
G01 X-1.2836 Y1.9969  
G01 X-1.2835 Y1.9969  
G01 X-1.2813 Y1.9966  
G01 X-1.2790 Y1.9963  
G01 X-1.2789 Y1.9962  
G01 X-1.2788 Y1.9962  
G01 X-1.2767 Y1.9953  
G01 X-1.2747 Y1.9945  
G01 X-1.2745 Y1.9943  
G01 X-1.2727 Y1.9930  
G01 X-1.2709 Y1.9916  
G01 X-1.2263 Y1.9563  
G01 X-1.2255 Y1.9559  
G01 X-1.2244 Y1.9549  
G01 X-1.2232 Y1.9539  
G01 X-1.2227 Y1.9532  
G01 X-1.2221 Y1.9526  
G01 X-1.2213 Y1.9513  
G01 X-1.2204 Y1.9501  
G01 X-1.2201 Y1.9493  
G01 X-1.2196 Y1.9486  
G01 X-1.2192 Y1.9471  
G01 X-1.2187 Y1.9457  
G01 X-1.2185 Y1.9449  
G01 X-1.2183 Y1.9440  
G01 X-1.2183 Y1.9425  
G01 X-1.2181 Y1.9410  
G01 X-1.2182 Y1.9401  
G01 X-1.2182 Y1.9393  
G01 X-1.2186 Y1.9378  
G01 X-1.2188 Y1.9363  
G01 X-1.2191 Y1.9355  
G01 X-1.2686 Y1.7328  
G01 X-1.3118 Y1.4400  
G01 X-1.2924 Y1.3039  
G01 X-1.2486 Y1.1580  
G01 X-1.2468 Y1.1580  
G01 X-1.2407 Y1.1568  
G01 X-1.2348 Y1.1544  
G01 X-1.2296 Y1.1509  
G01 X-1.2251 Y1.1464  
G01 X-1.2216 Y1.1412  
G01 X-1.2192 Y1.1353  
G01 X-1.2180 Y1.1292  
G01 X-1.2180 Y1.0708  
G01 X-1.2192 Y1.0647  
G01 X-1.2198 Y1.0632  
G01 X-1.2055 Y1.0167  
G01 X-1.0385 Y1.0167  
G01 X-1.0478 Y1.0420  
G01 X-1.0532 Y1.0420  
G01 X-1.0593 Y1.0432  
G01 X-1.0652 Y1.0456  
G01 X-1.0704 Y1.0491  
G01 X-1.0749 Y1.0536  
G01 X-1.0784 Y1.0588  
G01 X-1.0808 Y1.0647  
G01 X-1.0820 Y1.0708  
G01 X-1.0820 Y1.1292  
G01 X-1.0808 Y1.1353  
G01 X-1.0784 Y1.1412  
G01 X-1.0749 Y1.1464  
G01 X-1.0704 Y1.1509  
G01 X-1.0652 Y1.1544  
G01 X-1.0593 Y1.1568  
G01 X-1.0532 Y1.1580  
G01 X-1.0468 Y1.1580  
G01 X-1.0407 Y1.1568  
G01 X-1.0348 Y1.1544  
G01 X-1.0296 Y1.1509  
G01 X-1.0251 Y1.1464  
G01 X-1.0216 Y1.1412  
G01 X-1.0192 Y1.1353  
G01 X-1.0180 Y1.1292  
G01 X-1.0180 Y1.0708  
G01 X-1.0187 Y1.0672  
G01 X-1.0017 Y1.0210  
G01 X-0.9779 Y1.0169  
G01 X-0.9778 Y1.0169  
G01 X-0.9756 Y1.0165  
G01 X-0.9734 Y1.0161  
G01 X-0.9732 Y1.0160  
G01 X-0.8162 Y0.9866  
G01 X-0.8146 Y0.9864  
G01 X-0.8139 Y0.9861  
G01 X-0.8131 Y0.9860  
G01 X-0.8117 Y0.9853  
G01 X-0.8102 Y0.9847  
G01 X-0.8095 Y0.9843  
G01 X-0.8088 Y0.9840  
G01 X-0.8076 Y0.9829  
G01 X-0.6534 Y0.8718  
G01 X-0.6533 Y0.8720  
G01 X-0.6267 Y0.8720  
G01 X-0.6080 Y0.8533  
G01 X-0.6080 Y0.8267  
G01 X-0.6267 Y0.8080  
G01 X-0.6533 Y0.8080  
G01 X-0.6720 Y0.8267  
G01 X-0.6720 Y0.8409  
G01 X-0.8260 Y0.9518  
G01 X-0.9819 Y0.9810  
G01 X-1.0089 Y0.9857  
G01 X-1.0102 Y0.9843  
G01 X-1.0143 Y0.9820  
G01 X-1.0189 Y0.9808  
G01 X-1.2104 Y0.9808  
G01 X-1.3246 Y0.8455  
G01 X-1.3216 Y0.8412  
G01 X-1.3192 Y0.8353  
G01 X-1.3180 Y0.8292  
G01 X-1.3180 Y0.7708  
G01 X-1.3192 Y0.7647  
G01 X-1.3216 Y0.7588  
G01 X-1.3251 Y0.7536  
G01 X-1.3296 Y0.7491  
G01 X-1.3348 Y0.7456  
G01 X-1.3407 Y0.7432  
G01 X-1.3468 Y0.7420  
G01 X-1.3532 Y0.7420  
G01 X-1.3593 Y0.7432  
G01 X-1.3652 Y0.7456  
G01 X-1.3704 Y0.7491  
G01 X-1.3749 Y0.7536  
G01 X-1.3784 Y0.7588  
G01 X-1.3808 Y0.7647  
G01 X-1.3820 Y0.7708  
G01 X-1.3820 Y0.7820  
G01 X-1.4180 Y0.7820  
G01 X-1.4180 Y0.7708  
G01 X-1.4192 Y0.7647  
G01 X-1.4216 Y0.7588  
G01 X-1.4251 Y0.7536  
G01 X-1.4296 Y0.7491  
G01 X-1.4348 Y0.7456  
G01 X-1.4407 Y0.7432  
G01 X-1.4468 Y0.7420  
G01 X-1.4532 Y0.7420  
G01 X-1.4593 Y0.7432  
G01 X-1.4652 Y0.7456  
G01 X-1.4704 Y0.7491  
G01 X-1.4749 Y0.7536  
G01 X-1.4784 Y0.7588  
G01 X-1.4808 Y0.7647  
G01 X-1.4820 Y0.7708  
G01 X-1.4820 Y0.7820  
G01 X-1.5180 Y0.7820  
G01 X-1.5180 Y0.7708  
G01 X-1.5192 Y0.7647  
G01 X-1.5216 Y0.7588  
G01 X-1.5251 Y0.7536  
G01 X-1.5296 Y0.7491  
G01 X-1.5348 Y0.7456  
G01 X-1.5407 Y0.7432  
G01 X-1.5468 Y0.7420  
G01 X-1.5532 Y0.7420  
G01 X-1.5593 Y0.7432  
G01 X-1.5652 Y0.7456  
G01 X-1.5704 Y0.7491  
G01 X-1.5749 Y0.7536  
G01 X-1.5784 Y0.7588  
G01 X-1.5808 Y0.7647  
G01 X-1.5820 Y0.7708  
G01 X-1.5820 Y0.7883  
G01 X-1.8899 Y0.7883  
G01 X-1.8944 Y0.7895  
G01 X-1.8986 Y0.7918  
G01 X-1.9019 Y0.7952  
G01 X-1.9060 Y0.7993  
G01 X-1.9099 Y0.7981  
G01 X-1.9166 Y0.7970  
G01 X-1.9234 Y0.7970  
G01 X-1.9301 Y0.7981  
G01 X-1.9365 Y0.8002  
G01 X-1.9425 Y0.8032  
G01 X-1.9480 Y0.8072  
G01 X-1.9528 Y0.8120  
G01 X-1.9568 Y0.8175  
G01 X-1.9578 Y0.8195  
G01 X-2.3238 Y0.8195  
G01 X-2.3374 Y0.8059  
G01 X-2.3370 Y0.8034  
G01 X-2.3370 Y0.7966  
G01 X-2.3381 Y0.7899  
G01 X-2.3402 Y0.7835  
G01 X-2.3432 Y0.7775  
G01 X-2.3472 Y0.7720  
G01 X-2.3520 Y0.7672  
G01 X-2.3575 Y0.7632  
G01 X-2.3635 Y0.7602  
G01 X-2.3699 Y0.7581  
G01 X-2.3766 Y0.7570  
G01 X-2.3834 Y0.7570  
G01 X-2.3901 Y0.7581  
G01 X-2.3965 Y0.7602  
G01 X-2.4025 Y0.7632  
G01 X-2.4080 Y0.7672  
G01 X-2.4128 Y0.7720  
G01 X-2.4166 Y0.7772  
G01 X-2.4332 Y0.7751  
G01 X-2.4659 Y0.7576  
G01 X-2.4662 Y0.7574  
G01 X-2.4680 Y0.7565  
G01 X-2.4699 Y0.7555  
G01 X-2.4701 Y0.7554  
G01 X-2.5669 Y0.7077  
G01 X-2.5689 Y0.7067  
G01 X-2.5690 Y0.7066  
G01 X-2.5692 Y0.7066  
G01 X-2.5713 Y0.7061  
G01 X-2.6879 Y0.6807  
G01 X-2.6881 Y0.6799  
G01 X-2.6902 Y0.6735  
G01 X-2.6932 Y0.6675  
G01 X-2.6972 Y0.6620  
G01 X-2.7020 Y0.6572  
G01 X-2.7075 Y0.6532  
G01 X-2.7135 Y0.6502  
G01 X-2.7199 Y0.6481  
G01 X-2.7266 Y0.6470  
G01 X-2.7334 Y0.6470  
G01 X-2.7401 Y0.6481  
G01 X-2.7465 Y0.6502  
G01 X-2.7525 Y0.6532  
G01 X-2.7580 Y0.6572  
G01 X-2.7628 Y0.6620  
G01 X-2.7637 Y0.6633  
G01 X-2.9875 Y0.6633  
G01 X-3.0780 Y0.5915  
G01 X-3.0789 Y0.5906  
G01 X-3.0799 Y0.5901  
G01 X-3.0807 Y0.5894  
G01 X-3.0819 Y0.5889  
G01 X-3.0831 Y0.5882  
G01 X-3.0841 Y0.5880  
G01 X-3.0850 Y0.5875  
G01 X-3.0863 Y0.5873  
G01 X-3.0876 Y0.5870  
G01 X-3.0887 Y0.5870  
G01 X-3.0897 Y0.5868  
G01 X-3.0910 Y0.5870  
G01 X-3.2580 Y0.5870  
G01 X-3.2403 Y0.3656  
G01 X-3.1586 Y0.3162  
G01 X-3.0063 Y0.4592  
G01 X-3.0048 Y0.4607  
G01 X-3.0046 Y0.4608  
G01 X-3.0043 Y0.4610  
G01 X-3.0025 Y0.4620  
G01 X-3.0007 Y0.4630  
G01 X-3.0004 Y0.4631  
G01 X-3.0002 Y0.4632  
G01 X-2.9981 Y0.4637  
G01 X-2.9961 Y0.4642  
G01 X-2.9958 Y0.4642  
G01 X-2.9955 Y0.4643  
G01 X-2.9935 Y0.4642  
G01 X-2.8147 Y0.4642  
G01 X-2.8146 Y0.4643  
G01 X-2.8124 Y0.4642  
G01 X-2.8101 Y0.4642  
G01 X-2.8100 Y0.4642  
G01 X-2.8098 Y0.4642  
G01 X-2.8077 Y0.4636  
G01 X-2.8056 Y0.4630  
G01 X-2.8054 Y0.4629  
G01 X-2.8053 Y0.4629  
G01 X-2.8034 Y0.4618  
G01 X-2.8014 Y0.4607  
G01 X-2.8013 Y0.4605  
G01 X-2.8012 Y0.4605  
G01 X-2.7997 Y0.4589  
G01 X-2.7981 Y0.4573  
G01 X-2.7980 Y0.4572  
G01 X-2.7979 Y0.4571  
G01 X-2.7968 Y0.4551  
G01 X-2.7957 Y0.4532  
G01 X-2.7957 Y0.4531  
G01 X-2.7475 Y0.3663  
G01 X-2.5702 Y0.1460  
G01 X-2.5646 Y0.1478  
G01 X-2.5570 Y0.1490  
G01 X-2.5493 Y0.1490  
G01 X-2.5417 Y0.1478  
G01 X-2.5343 Y0.1454  
G01 X-2.5275 Y0.1419  
G01 X-2.5212 Y0.1374  
G01 X-2.5158 Y0.1319  
G01 X-2.5112 Y0.1257  
G01 X-2.5105 Y0.1242  
G01 X-2.3195 Y0.1242  
G01 X-1.9762 Y0.4380  
G01 X-1.9748 Y0.4394  
G01 X-1.9744 Y0.4396  
G01 X-1.9741 Y0.4399  
G01 X-1.9724 Y0.4408  
G01 X-1.9707 Y0.4418  
G01 X-1.9703 Y0.4419  
G01 X-1.9699 Y0.4421  
G01 X-1.9680 Y0.4425  
G01 X-1.9661 Y0.4430  
G01 X-1.9657 Y0.4430  
G01 X-1.9653 Y0.4431  
G01 X-1.9633 Y0.4430  
G01 X-1.6964 Y0.4430  
G01 X-1.6954 Y0.4432  
G01 X-1.6940 Y0.4430  
G01 X-1.6926 Y0.4430  
G01 X-1.6917 Y0.4427  
G01 X-1.6907 Y0.4426  
G01 X-1.6894 Y0.4421  
G01 X-1.6881 Y0.4418  
G01 X-1.6872 Y0.4413  
G01 X-1.6862 Y0.4409  
G01 X-1.6851 Y0.4401  
G01 X-1.6839 Y0.4394  
G01 X-1.6832 Y0.4387  
G01 X-1.6824 Y0.4381  
G01 X-1.6816 Y0.4370  
G01 X-1.6806 Y0.4361  
G01 X-1.6801 Y0.4352  
G01 X-1.5702 Y0.2979  
G01 X-1.3302 Y0.4244  
G01 X-1.3287 Y0.4253  
G01 X-1.3281 Y0.4255  
G01 X-1.3275 Y0.4258  
G01 X-1.3258 Y0.4262  
G01 X-1.3241 Y0.4267  
G01 X-1.3235 Y0.4267  
G01 X-1.3229 Y0.4268  
G01 X-1.3212 Y0.4268  
G01 X-1.3194 Y0.4268  
G01 X-1.3188 Y0.4267  
G01 X-1.3182 Y0.4266  
G01 X-1.3165 Y0.4261  
G01 X-0.8550 Y0.3167  
G01 X-0.8543 Y0.3166  
G01 X-0.8527 Y0.3161  
G01 X-0.8510 Y0.3157  
G01 X-0.8505 Y0.3154  
G01 X-0.8498 Y0.3152  
G01 X-0.8484 Y0.3143  
G01 X-0.8469 Y0.3135  
G01 X-0.8464 Y0.3130  
G01 X-0.8458 Y0.3126  
G01 X-0.8447 Y0.3114  
G01 X-0.8434 Y0.3102  
G01 X-0.8431 Y0.3096  
G01 X-0.7370 Y0.1937  
G01 X-0.7369 Y0.1936  
G01 X-0.5221 Y0.2030  
G01 X-0.5199 Y0.2031  
G01 X-0.5197 Y0.2031  
G01 X-0.5174 Y0.2026  
G01 X-0.5152 Y0.2021  
G01 X-0.5150 Y0.2021  
G01 X-0.5130 Y0.2010  
G01 X-0.5110 Y0.2000  
G01 X-0.5108 Y0.1999  
G01 X-0.5092 Y0.1983  
G01 X-0.4499 Y0.1452  
G01 X-0.4486 Y0.1443  
G01 X-0.4481 Y0.1436  
G01 X-0.4475 Y0.1431  
G01 X-0.4466 Y0.1418  
G01 X-0.4457 Y0.1406  
G01 X-0.4454 Y0.1398  
G01 X-0.4449 Y0.1391  
G01 X-0.4444 Y0.1377  
G01 X-0.4032 Y0.0430  
G01 X-0.2387 Y0.0430  
G01 X-0.1990 Y0.0827  
G01 X-0.2009 Y0.0885  
G01 X-0.2021 Y0.0961  
G01 X-0.2021 Y0.1039  
G01 X-0.2009 Y0.1115  
G01 X-0.1986 Y0.1188  
G01 X-0.1951 Y0.1257  
G01 X-0.1905 Y0.1319  
G01 X-0.1851 Y0.1374  
G01 X-0.1788 Y0.1419  
G01 X-0.1720 Y0.1454  
G01 X-0.1646 Y0.1478  
G01 X-0.1570 Y0.1490  
G01 X-0.1555 Y0.1490  
G01 X-0.1555 Y1.6293  
G01 X-0.2229 Y1.6875  
G01 X-0.2684 Y1.7251  
G01 X-0.3269 Y1.7306  
G01 X-0.3271 Y1.7306  
G01 X-0.3285 Y1.7308  
G01 X-0.6518 Y1.7308  
G01 X-0.6534 Y1.7306  
G01 X-0.6541 Y1.7308  
G01 X-0.6549 Y1.7308  
G01 X-0.6564 Y1.7312  
G01 X-0.6580 Y1.7315  
G01 X-0.6587 Y1.7318  
G01 X-0.6594 Y1.7320  
G01 X-0.6609 Y1.7328  
G01 X-0.6623 Y1.7335  
G01 X-0.6629 Y1.7340  
G01 X-0.6636 Y1.7343  
G01 X-0.6647 Y1.7355  
G01 X-0.8133 Y1.8612  
G01 X-0.8133 Y1.5985  
G01 X-0.8015 Y1.5867  
G01 X-0.7585 Y1.5867  
G01 X-0.7433 Y1.6020  
G01 X-0.7167 Y1.6020  
G01 X-0.6980 Y1.5833  
G01 X-0.6980 Y1.5567  
G01 X-0.7167 Y1.5380  
G01 X-0.7433 Y1.5380  
G01 X-0.7560 Y1.5508  
G01 X-0.8040 Y1.5508  
G01 X-0.8167 Y1.5380  
G01 X-0.8433 Y1.5380  
G01 X-0.8620 Y1.5567  
G01 X-0.8620 Y1.5833  
G01 X-0.8492 Y1.5960  
G01 X-0.8492 Y1.8820  
G01 X-0.8809 Y1.8820  
G01 X-0.8832 Y1.8775  
G01 X-0.8872 Y1.8720  
G01 X-0.8920 Y1.8672  
G01 X-0.8975 Y1.8632  
G01 X-0.9035 Y1.8602  
G01 X-0.9099 Y1.8581  
G01 X-0.9166 Y1.8570  
G01 X-0.9234 Y1.8570  
G01 X-0.9301 Y1.8581  
G01 X-0.9365 Y1.8602  
G01 X-0.9425 Y1.8632  
G01 X-0.9480 Y1.8672  
G01 X-0.9528 Y1.8720  
G01 X-0.9568 Y1.8775  
G01 X-0.9598 Y1.8835  
G01 X-0.9619 Y1.8899  
G01 X-0.9630 Y1.8966  
G01 X-0.9630 Y1.9034  
G01 X-0.9619 Y1.9101  
G01 X-0.9598 Y1.9165  
G01 X-0.9568 Y1.9225  
G01 X-0.9528 Y1.9280  
G01 X-0.9480 Y1.9328  
G01 X-0.9425 Y1.9368  
G01 X-0.9365 Y1.9398  
G01 X-0.9301 Y1.9419  
G01 X-0.9234 Y1.9430  
G01 X-0.9166 Y1.9430  
G01 X-0.9099 Y1.9419  
G01 X-0.9035 Y1.9398  
G01 X-0.8975 Y1.9368  
G01 X-0.8920 Y1.9328  
G01 X-0.8872 Y1.9280  
G01 X-0.8832 Y1.9225  
G01 X-0.8809 Y1.9180  
G01 X-0.8320 Y1.9180  
G01 X-0.8304 Y1.9181  
G01 X-0.8296 Y1.9180  
G01 X-0.8289 Y1.9180  
G01 X-0.8273 Y1.9176  
G01 X-0.8257 Y1.9173  
G01 X-0.8250 Y1.9170  
G01 X-0.8243 Y1.9168  
G01 X-0.8229 Y1.9160  
G01 X-0.8214 Y1.9153  
G01 X-0.8209 Y1.9148  
G01 X-0.8202 Y1.9144  
G01 X-0.8191 Y1.9133  
G01 X-0.6459 Y1.7667  
G01 X-0.3437 Y1.7667  
G01 X-0.3130 Y2.0522  
G01 X-0.3130 Y2.4882  
G01 X-0.3509 Y2.4882  
G01 X-0.3722 Y2.4670  
G01 X-0.4078 Y2.4670  
G01 X-0.4330 Y2.4922  
G01 X-0.4330 Y2.4945  
G01 X-0.4470 Y2.4945  
G01 X-0.4470 Y2.4922  
G01 X-0.4722 Y2.4670  
G01 X-0.5078 Y2.4670  
G01 X-0.5330 Y2.4922  
G01 X-0.5330 Y2.4945  
G01 X-1.1461 Y2.4945  
G01 X-1.1507 Y2.4957  
G01 X-1.1548 Y2.4981  
G01 X-1.1582 Y2.5014  
G01 X-1.1647 Y2.5080  
G01 X-1.1833 Y2.5080  
G01 X-1.2020 Y2.5267  
G01 X-1.2020 Y2.5533  
G01 X-1.1833 Y2.5720  
G01 X-1.1567 Y2.5720  
G01 X-1.1380 Y2.5533  
G01 X-1.1380 Y2.5322  
G01 X-1.1363 Y2.5305  
G01 X-0.5303 Y2.5305  
G01 X-0.5078 Y2.5530  
G01 X-0.4722 Y2.5530  
G01 X-0.4497 Y2.5305  
G01 X-0.4303 Y2.5305  
G01 X-0.4117 Y2.5491  
G01 X-0.4117 Y2.5709  
G01 X-0.4330 Y2.5922  
G01 X-0.4330 Y2.6008  
G01 X-0.4470 Y2.6008  
G01 X-0.4470 Y2.5922  
G01 X-0.4722 Y2.5670  
G01 X-0.5078 Y2.5670  
G01 X-0.5330 Y2.5922  
G01 X-0.5330 Y2.6278  
G01 X-0.5078 Y2.6530  
G01 X-0.5055 Y2.6530  
G01 X-0.5055 Y2.6670  
G01 X-0.5078 Y2.6670  
G01 X-0.5330 Y2.6922  
G01 X-0.5330 Y2.7278  
G01 X-0.5078 Y2.7530  
G01 X-0.4722 Y2.7530  
G01 X-0.4470 Y2.7278  
G01 X-0.4470 Y2.6922  
G01 X-0.4695 Y2.6697  
G01 X-0.4695 Y2.6503  
G01 X-0.4559 Y2.6367  
G01 X-0.4241 Y2.6367  
G01 X-0.4117 Y2.6491  
G01 X-0.4117 Y2.6709  
G01 X-0.4330 Y2.6922  
G01 X-0.4330 Y2.7278  
G01 X-0.4078 Y2.7530  
G01 X-0.3722 Y2.7530  
G01 X-0.3650 Y2.7458  
G01 X-0.2930 Y2.7715  
G01 X-0.2930 Y2.8627  
G01 X-0.3768 Y2.8795  
G01 X-2.1839 Y2.8795  
G01 X-2.2477 Y2.7793  
G01 X-2.2479 Y2.7786  
G01 X-2.2489 Y2.7773  
G01 X-2.2498 Y2.7758  
G01 X-2.2503 Y2.7754  
G01 X-2.3206 Y2.6811  
G01 X-2.3214 Y2.6800  
G01 X-2.3221 Y2.6789  
G01 X-2.3228 Y2.6781  
G01 X-2.4450 Y2.5142  
G01 X-2.3294 Y2.3986  
G01 X-2.1107 Y2.3797  
G01 X-2.0999 Y2.3865  
G01 X-2.0720 Y2.4384  
G01 X-2.0720 Y2.4892  
G01 X-2.0708 Y2.4953  
G01 X-2.0684 Y2.5012  
G01 X-2.0649 Y2.5064  
G01 X-2.0604 Y2.5109  
G01 X-2.0552 Y2.5144  
G01 X-2.0493 Y2.5168  
G01 X-2.0432 Y2.5180  
G01 X-2.0368 Y2.5180  
G01 X-2.0307 Y2.5168  
G01 X-2.0248 Y2.5144  
G01 X-2.0196 Y2.5109  
G01 X-2.0151 Y2.5064  
G01 X-2.0116 Y2.5012  
G01 X-2.0092 Y2.4953  
G01 X-2.0080 Y2.4892  
G01 X-2.0080 Y2.4308  
G01 X-2.0092 Y2.4247  
G01 X-2.0116 Y2.4188  
G01 X-2.0151 Y2.4136  
G01 X-2.0196 Y2.4091  
G01 X-2.0248 Y2.4056  
G01 X-2.0307 Y2.4032  
G01 X-2.0368 Y2.4020  
G01 X-2.0432 Y2.4020  
G01 X-2.0493 Y2.4032  
G01 X-2.0499 Y2.4035  
G01 X-2.0704 Y2.3653  
G01 X-2.0715 Y2.3632  
G01 X-2.0731 Y2.3614  
G01 X-2.0747 Y2.3597  
G01 X-2.0767 Y2.3585  
G01 X-2.0906 Y2.3498  
G01 X-2.1188 Y2.2406  
G01 X-2.1193 Y2.2384  
G01 X-2.1194 Y2.2382  
G01 X-2.1205 Y2.2362  
G01 X-2.1207 Y2.2359  
G01 X-2.1180 Y2.2333  
G01 X-2.1180 Y2.2308  
G01 X-2.1166 Y2.2305  
G01 X-2.1164 Y2.2305  
G01 X-2.1143 Y2.2299  
G01 X-2.1122 Y2.2294  
G01 X-2.1120 Y2.2293  
G01 X-2.1118 Y2.2293  
G01 X-2.1100 Y2.2282  
G01 X-2.1081 Y2.2272  
G01 X-2.1079 Y2.2270  
G01 X-2.1077 Y2.2269  
G01 X-2.1062 Y2.2254  
G01 X-2.1046 Y2.2239  
G01 X-2.1045 Y2.2237  
G01 X-2.1043 Y2.2236  
G01 X-2.1033 Y2.2217  
G01 X-2.1022 Y2.2199  
G01 X-2.1021 Y2.2197  
G01 X-2.1020 Y2.2194  
G01 X-2.1014 Y2.2174  
G01 X-2.1008 Y2.2153  
G01 X-2.1008 Y2.2151  
G01 X-2.1008 Y2.2149  
G01 X-2.1008 Y2.2127  
G01 X-2.1007 Y2.2106  
G01 X-2.1008 Y2.2104  
G01 X-2.1008 Y2.2101  
G01 X-2.1013 Y2.2081  
G01 X-2.1018 Y2.2060  
G01 X-2.1019 Y2.2058  
G01 X-2.1020 Y2.2056  
G01 X-2.1030 Y2.2037  
G01 X-2.1041 Y2.2018  
G01 X-2.1042 Y2.2017  
G01 X-2.1043 Y2.2014  
G01 X-2.1059 Y2.1999  
G01 X-2.1073 Y2.1984  
G01 X-2.1075 Y2.1983  
G01 X-2.1077 Y2.1981  
G01 X-2.1095 Y2.1970  
G01 X-2.1114 Y2.1959  
G01 X-2.1116 Y2.1958  
G01 X-2.1118 Y2.1957  
G01 X-2.1139 Y2.1952  
G01 X-2.1159 Y2.1946  
G01 X-2.1161 Y2.1946  
G01 X-2.1164 Y2.1945  
G01 X-2.1185 Y2.1945  
G01 X-2.1206 Y2.1944  
G01 X-2.1209 Y2.1945  
G01 X-2.1302 Y2.1945  
G01 X-2.1367 Y2.1880  
G01 X-2.1633 Y2.1880  
G01 X-2.1698 Y2.1945  
G01 X-2.3125 Y2.1945  
G01 X-2.3280 Y2.1902  
G01 X-2.3280 Y2.1867  
G01 X-2.3467 Y2.1680  
G01 X-2.3733 Y2.1680  
G01 X-2.3920 Y2.1867  
G01 X-2.3920 Y2.2133  
G01 X-2.3733 Y2.2320  
G01 X-2.3467 Y2.2320  
G01 X-2.3392 Y2.2245  
G01 X-2.3220 Y2.2292  
G01 X-2.3197 Y2.2299  
G01 X-2.3175 Y2.2305  
G01 X-2.3174 Y2.2305  
G01 X-2.3151 Y2.2305  
G01 X-2.3128 Y2.2305  
G01 X-2.1820 Y2.2305  
G01 X-2.1820 Y2.2333  
G01 X-2.1633 Y2.2520  
G01 X-2.1530 Y2.2520  
G01 X-2.1290 Y2.3451  
G01 X-2.3383 Y2.3632  
G01 X-2.3399 Y2.3632  
G01 X-2.3406 Y2.3635  
G01 X-2.3414 Y2.3635  
G01 X-2.3429 Y2.3641  
G01 X-2.3444 Y2.3645  
G01 X-2.3451 Y2.3649  
G01 X-2.3459 Y2.3651  
G01 X-2.3472 Y2.3660  
G01 X-2.3486 Y2.3668  
G01 X-2.3491 Y2.3674  
G01 X-2.3498 Y2.3679  
G01 X-2.3508 Y2.3691  
G01 X-2.4798 Y2.4981  
G01 X-2.4806 Y2.4988  
G01 X-2.4814 Y2.4995  
G01 X-2.4822 Y2.5005  
G01 X-2.5297 Y2.5480  
G01 X-2.5533 Y2.5480  
G01 X-2.5720 Y2.5667  
G01 X-2.5720 Y2.5835  
G01 X-2.7111 Y2.6094  
G01 X-2.7112 Y2.6094  
G01 X-2.7134 Y2.6098  
G01 X-2.7156 Y2.6102  
G01 X-2.9734 Y2.6614  
G01 X-2.9758 Y2.6581  
G01 X-2.9812 Y2.6526  
G01 X-2.9875 Y2.6481  
G01 X-2.9943 Y2.6446  
G01 X-3.0017 Y2.6422  
G01 X-3.0093 Y2.6410  
G01 X-3.0170 Y2.6410  
G01 X-3.0246 Y2.6422  
G01 X-3.0320 Y2.6446  
G01 X-3.0388 Y2.6481  
G01 X-3.0451 Y2.6526  
G01 X-3.0505 Y2.6581  
G01 X-3.0551 Y2.6643  
G01 X-3.0586 Y2.6712  
G01 X-3.0609 Y2.6785  
G01 X-3.0621 Y2.6861  
G01 X-3.0621 Y2.6939  
G01 X-3.0609 Y2.7015  
G01 X-3.0586 Y2.7088  
G01 X-3.0551 Y2.7157  
G01 X-3.0505 Y2.7219  
G01 X-3.0451 Y2.7274  
G01 X-3.0388 Y2.7319  
G01 X-3.0320 Y2.7354  
G01 X-3.0246 Y2.7378  
G01 X-3.0170 Y2.7390  
G01 X-3.0093 Y2.7390  
G01 X-3.0017 Y2.7378  
G01 X-2.9943 Y2.7354  
G01 X-2.9875 Y2.7319  
G01 X-2.9812 Y2.7274  
G01 X-2.9758 Y2.7219  
G01 X-2.9712 Y2.7157  
G01 X-2.9677 Y2.7088  
G01 X-2.9654 Y2.7015  
G01 X-2.9645 Y2.6963  
G01 X-2.7066 Y2.6452  
G01 X-2.5614 Y2.6181  
G01 X-2.5612 Y2.6181  
G01 X-2.5590 Y2.6177  
G01 X-2.5569 Y2.6173  
G01 X-2.5567 Y2.6172  
G01 X-2.5565 Y2.6172  
G01 X-2.5546 Y2.6162  
G01 X-2.5526 Y2.6152  
G01 X-2.5525 Y2.6151  
G01 X-2.5523 Y2.6150  
G01 X-2.5507 Y2.6136  
G01 X-2.5490 Y2.6121  
G01 X-2.5489 Y2.6120  
G01 X-2.5267 Y2.6120  
G01 X-2.5080 Y2.5933  
G01 X-2.5080 Y2.5772  
G01 X-2.4707 Y2.5399  
G01 X-2.3602 Y2.6882  
G01 X-2.5640 Y2.8920  
G01 X-2.6825 Y2.8920  
G01 X-2.7356 Y2.8389  
G01 X-2.7389 Y2.8356  
G01 X-2.7431 Y2.8332  
G01 X-2.7476 Y2.8320  
G01 X-3.6125 Y2.8320  
G01 X-3.7820 Y2.6625  
G01 X-3.7820 Y2.1875  
G01 X-3.7556 Y2.1611  
G01 X-3.7532 Y2.1569  
G01 X-3.7520 Y2.1524  
G01 X-3.7520 Y1.7975  
G01 X-3.7069 Y1.7523  
G01 X-3.7068 Y1.7525  
G01 X-3.7028 Y1.7580  
G01 X-3.6980 Y1.7628  
G01 X-3.6925 Y1.7668  
G01 X-3.6865 Y1.7698  
G01 X-3.6801 Y1.7719  
G01 X-3.6734 Y1.7730  
G01 X-3.6666 Y1.7730  
G01 X-3.6599 Y1.7719  
G01 X-3.6535 Y1.7698  
G01 X-3.6475 Y1.7668  
G01 X-3.6420 Y1.7628  
G01 X-3.6372 Y1.7580  
G01 X-3.6332 Y1.7525  
G01 X-3.6302 Y1.7465  
G01 X-3.6281 Y1.7401  
G01 X-3.6270 Y1.7334  
G01 X-3.6270 Y1.7266  
G01 X-3.6281 Y1.7199  
G01 X-3.6302 Y1.7135  
G01 X-3.6332 Y1.7075  
G01 X-3.6372 Y1.7020  
G01 X-3.6420 Y1.6972  
G01 X-3.6475 Y1.6932  
G01 X-3.6535 Y1.6902  
G01 X-3.6599 Y1.6881  
G01 X-3.6666 Y1.6870  
G01 X-3.6734 Y1.6870  
G01 X-3.6801 Y1.6881  
G01 X-3.6865 Y1.6902  
G01 X-3.6925 Y1.6932  
G01 X-3.6980 Y1.6972  
G01 X-3.7028 Y1.7020  
G01 X-3.7068 Y1.7075  
G01 X-3.7091 Y1.7120  
G01 X-3.7124 Y1.7120  
G01 X-3.7169 Y1.7132  
G01 X-3.7211 Y1.7156  
G01 X-3.7811 Y1.7756  
G01 X-3.7844 Y1.7789  
G01 X-3.7868 Y1.7831  
G01 X-3.7880 Y1.7876  
G01 X-3.7880 Y2.1425  
G01 X-3.8111 Y2.1656  
G01 X-3.8144 Y2.1689  
G01 X-3.8168 Y2.1731  
G01 X-3.8180 Y2.1776  
G01 X-3.8180 Y2.6724  
G01 X-3.8168 Y2.6769  
G01 X-3.8144 Y2.6811  
G01 X-3.6344 Y2.8611  
G01 X-3.6311 Y2.8644  
G01 X-3.6269 Y2.8668  
G01 X-3.6224 Y2.8680  
G01 X-2.7575 Y2.8680  
G01 X-2.7044 Y2.9211  
G01 X-2.7011 Y2.9244  
G01 X-2.6969 Y2.9268  
G01 X-2.6924 Y2.9280  
G01 X-2.5542 Y2.9280  
G01 X-2.5496 Y2.9268  
G01 X-2.5455 Y2.9244  
G01 X-2.3385 Y2.7174  
G01 X-2.2786 Y2.7977  
G01 X-2.2091 Y2.9068  
G01 X-2.2082 Y2.9086  
G01 X-2.2079 Y2.9088  
G01 X-2.2077 Y2.9092  
G01 X-2.2062 Y2.9105  
G01 X-2.2048 Y2.9119  
G01 X-2.2045 Y2.9121  
G01 X-2.2042 Y2.9124  
G01 X-2.2024 Y2.9133  
G01 X-2.2007 Y2.9143  
G01 X-2.2003 Y2.9144  
G01 X-2.2000 Y2.9146  
G01 X-2.1980 Y2.9150  
G01 X-2.1961 Y2.9155  
G01 X-2.1957 Y2.9155  
G01 X-2.1953 Y2.9156  
G01 X-2.1934 Y2.9155  
G01 X-0.3756 Y2.9155  
G01 X-0.3738 Y2.9156  
G01 X-0.3732 Y2.9155  
G01 X-0.3726 Y2.9155  
G01 X-0.3709 Y2.9150  
G01 X-0.2732 Y2.8955  
G01 X-0.2726 Y2.8955  
G01 X-0.2709 Y2.8950  
G01 X-0.2691 Y2.8947  
G01 X-0.2686 Y2.8944  
G01 X-0.2681 Y2.8943  
G01 X-0.2665 Y2.8934  
G01 X-0.2649 Y2.8926  
G01 X-0.2645 Y2.8922  
G01 X-0.2639 Y2.8919  
G01 X-0.2627 Y2.8906  
G01 X-0.2613 Y2.8895  
G01 X-0.2610 Y2.8890  
G01 X-0.2606 Y2.8886  
G01 X-0.2597 Y2.8870  
G01 X-0.2587 Y2.8855  
G01 X-0.2585 Y2.8850  
G01 X-0.2582 Y2.8844  
G01 X-0.2578 Y2.8827  
G01 X-0.2572 Y2.8810  
G01 X-0.2572 Y2.8804  
G01 X-0.2570 Y2.8799  
G01 X-0.2570 Y2.8781  
G01 X-0.2569 Y2.8763  
G01 X-0.2570 Y2.8757  
G01 X-0.2570 Y2.7595  
G01 X-0.2569 Y2.7578  
G01 X-0.2570 Y2.7571  
G01 X-0.2570 Y2.7564  
G01 X-0.2574 Y2.7548  
G01 X-0.2577 Y2.7532  
G01 X-0.2580 Y2.7525  
G01 X-0.2582 Y2.7518  
G01 X-0.2591 Y2.7504  
G01 X-0.2598 Y2.7489  
G01 X-0.2602 Y2.7483  
G01 X-0.2606 Y2.7477  
G01 X-0.2618 Y2.7465  
G01 X-0.2628 Y2.7453  
G01 X-0.2634 Y2.7449  
G01 X-0.2639 Y2.7443  
G01 X-0.2654 Y2.7435  
G01 X-0.2667 Y2.7426  
G01 X-0.2674 Y2.7423  
G01 X-0.2681 Y2.7420  
G01 X-0.2696 Y2.7415  
G01 X-0.3470 Y2.7140  
G01 X-0.3470 Y2.6922  
G01 X-0.3722 Y2.6670  
G01 X-0.3757 Y2.6670  
G01 X-0.3757 Y2.6530  
G01 X-0.3722 Y2.6530  
G01 X-0.3470 Y2.6278  
G01 X-0.3470 Y2.5922  
G01 X-0.3722 Y2.5670  
G01 X-0.3757 Y2.5670  
G01 X-0.3757 Y2.5530  
G01 X-0.3722 Y2.5530  
G01 X-0.3470 Y2.5278  
G01 X-0.3470 Y2.5242  
G01 X-0.2926 Y2.5242  
G01 X-0.2881 Y2.5230  
G01 X-0.2839 Y2.5207  
G01 X-0.2806 Y2.5173  
G01 X-0.2782 Y2.5132  
G01 X-0.2770 Y2.5086  
G01 X-0.2770 Y2.0526  
G01 X-0.2768 Y2.0517  
G01 X-0.2770 Y2.0503  
G01 X-0.2770 Y2.0489  
G01 X-0.2773 Y2.0479  
G01 X-0.3077 Y1.7650  
G01 X-0.2613 Y1.7606  
G01 X-0.2606 Y1.7606  
G01 X-0.2589 Y1.7604  
G01 X-0.2572 Y1.7602  
G01 X-0.2566 Y1.7600  
G01 X-0.2559 Y1.7599  
G01 X-0.2544 Y1.7591  
G01 X-0.2528 Y1.7585  
G01 X-0.2522 Y1.7582  
G01 X-0.2516 Y1.7579  
G01 X-0.2503 Y1.7568  
G01 X-0.2489 Y1.7558  
G01 X-0.2485 Y1.7553  
G01 X-0.2015 Y1.7165  
G01 X-0.2013 Y1.7164  
G01 X-0.1996 Y1.7150  
G01 X-0.1980 Y1.7136  
G01 X-0.1978 Y1.7135  
G01 X-0.1270 Y1.6522  
G01 X-0.1264 Y1.6519  
G01 X-0.1252 Y1.6507  
G01 X-0.1239 Y1.6496  
G01 X-0.1236 Y1.6490  
G01 X-0.1231 Y1.6486  
G01 X-0.1222 Y1.6471  
G01 X-0.1213 Y1.6456  
G01 X-0.1211 Y1.6450  
G01 X-0.1207 Y1.6444  
G01 X-0.1203 Y1.6428  
G01 X-0.1197 Y1.6412  
G01 X-0.1197 Y1.6405  
G01 X-0.1195 Y1.6399  
G01 X-0.1195 Y1.6382  
G01 X-0.1194 Y1.6364  
G01 X-0.1195 Y1.6358  
G01 X-0.1195 Y0.1356  
G01 X-0.1158 Y0.1319  
G01 X-0.1112 Y0.1257  
G01 X-0.1077 Y0.1188  
G01 X-0.1054 Y0.1115  
G01 X-0.1041 Y0.1039  
G01 X-0.1041 Y0.0961  
G01 X-0.1054 Y0.0885  
G01 X-0.1077 Y0.0812  
G01 X-0.1112 Y0.0743  
G01 X-0.1158 Y0.0681  
G00 Z0.0500  
G00 X-0.3126 Y0.0681  
G01 Z-0.0040 F10    
G01 X-0.3181 Y0.0626  F20    
G01 X-0.3243 Y0.0581  
G01 X-0.3312 Y0.0546  
G01 X-0.3385 Y0.0522  
G01 X-0.3461 Y0.0510  
G01 X-0.3539 Y0.0510  
G01 X-0.3615 Y0.0522  
G01 X-0.3688 Y0.0546  
G01 X-0.3757 Y0.0581  
G01 X-0.3819 Y0.0626  
G01 X-0.3874 Y0.0681  
G01 X-0.3919 Y0.0743  
G01 X-0.3954 Y0.0812  
G01 X-0.3978 Y0.0885  
G01 X-0.3990 Y0.0961  
G01 X-0.3990 Y0.1039  
G01 X-0.3978 Y0.1115  
G01 X-0.3954 Y0.1188  
G01 X-0.3919 Y0.1257  
G01 X-0.3874 Y0.1319  
G01 X-0.3819 Y0.1374  
G01 X-0.3757 Y0.1419  
G01 X-0.3688 Y0.1454  
G01 X-0.3615 Y0.1478  
G01 X-0.3539 Y0.1490  
G01 X-0.3461 Y0.1490  
G01 X-0.3385 Y0.1478  
G01 X-0.3312 Y0.1454  
G01 X-0.3305 Y0.1451  
G01 X-0.3305 Y0.3322  
G01 X-0.3325 Y0.3332  
G01 X-0.3380 Y0.3372  
G01 X-0.3428 Y0.3420  
G01 X-0.3468 Y0.3475  
G01 X-0.3498 Y0.3535  
G01 X-0.3519 Y0.3599  
G01 X-0.3530 Y0.3666  
G01 X-0.3530 Y0.3734  
G01 X-0.3519 Y0.3801  
G01 X-0.3498 Y0.3865  
G01 X-0.3468 Y0.3925  
G01 X-0.3428 Y0.3980  
G01 X-0.3380 Y0.4028  
G01 X-0.3325 Y0.4068  
G01 X-0.3265 Y0.4098  
G01 X-0.3201 Y0.4119  
G01 X-0.3134 Y0.4130  
G01 X-0.3066 Y0.4130  
G01 X-0.2999 Y0.4119  
G01 X-0.2935 Y0.4098  
G01 X-0.2875 Y0.4068  
G01 X-0.2820 Y0.4028  
G01 X-0.2772 Y0.3980  
G01 X-0.2732 Y0.3925  
G01 X-0.2702 Y0.3865  
G01 X-0.2681 Y0.3801  
G01 X-0.2670 Y0.3734  
G01 X-0.2670 Y0.3666  
G01 X-0.2681 Y0.3599  
G01 X-0.2702 Y0.3535  
G01 X-0.2732 Y0.3475  
G01 X-0.2772 Y0.3420  
G01 X-0.2820 Y0.3372  
G01 X-0.2875 Y0.3332  
G01 X-0.2935 Y0.3302  
G01 X-0.2945 Y0.3298  
G01 X-0.2945 Y0.0976  
G01 X-0.2957 Y0.0931  
G01 X-0.2981 Y0.0889  
G01 X-0.3014 Y0.0856  
G01 X-0.3036 Y0.0844  
G01 X-0.3046 Y0.0812  
G01 X-0.3081 Y0.0743  
G01 X-0.3126 Y0.0681  
G00 Z0.0500  
G00 X-0.5095 Y0.0681  
G01 Z-0.0040 F10    
G01 X-0.5149 Y0.0626  F20    
G01 X-0.5212 Y0.0581  
G01 X-0.5280 Y0.0546  
G01 X-0.5354 Y0.0522  
G01 X-0.5430 Y0.0510  
G01 X-0.5507 Y0.0510  
G01 X-0.5583 Y0.0522  
G01 X-0.5657 Y0.0546  
G01 X-0.5685 Y0.0560  
G01 X-0.6106 Y0.0139  
G01 X-0.6139 Y0.0106  
G01 X-0.6181 Y0.0082  
G01 X-0.6226 Y0.0070  
G01 X-1.2711 Y0.0070  
G01 X-1.2750 Y0.0080  
G01 X-1.2789 Y0.0070  
G01 X-2.0711 Y0.0070  
G01 X-2.0750 Y0.0080  
G01 X-2.0789 Y0.0070  
G01 X-2.8711 Y0.0070  
G01 X-2.8750 Y0.0080  
G01 X-2.8789 Y0.0070  
G01 X-3.6711 Y0.0070  
G01 X-3.6757 Y0.0082  
G01 X-3.6798 Y0.0106  
G01 X-3.6832 Y0.0139  
G01 X-3.7252 Y0.0560  
G01 X-3.7280 Y0.0546  
G01 X-3.7354 Y0.0522  
G01 X-3.7430 Y0.0510  
G01 X-3.7507 Y0.0510  
G01 X-3.7583 Y0.0522  
G01 X-3.7657 Y0.0546  
G01 X-3.7725 Y0.0581  
G01 X-3.7788 Y0.0626  
G01 X-3.7842 Y0.0681  
G01 X-3.7888 Y0.0743  
G01 X-3.7923 Y0.0812  
G01 X-3.7946 Y0.0885  
G01 X-3.7959 Y0.0961  
G01 X-3.7959 Y0.1039  
G01 X-3.7946 Y0.1115  
G01 X-3.7923 Y0.1188  
G01 X-3.7888 Y0.1257  
G01 X-3.7842 Y0.1319  
G01 X-3.7788 Y0.1374  
G01 X-3.7725 Y0.1419  
G01 X-3.7657 Y0.1454  
G01 X-3.7583 Y0.1478  
G01 X-3.7507 Y0.1490  
G01 X-3.7430 Y0.1490  
G01 X-3.7354 Y0.1478  
G01 X-3.7280 Y0.1454  
G01 X-3.7212 Y0.1419  
G01 X-3.7149 Y0.1374  
G01 X-3.7095 Y0.1319  
G01 X-3.7049 Y0.1257  
G01 X-3.7014 Y0.1188  
G01 X-3.6991 Y0.1115  
G01 X-3.6979 Y0.1039  
G01 X-3.6979 Y0.0961  
G01 X-3.6991 Y0.0885  
G01 X-3.7010 Y0.0827  
G01 X-3.6613 Y0.0430  
G01 X-3.4805 Y0.0430  
G01 X-3.4805 Y0.9280  
G01 X-3.4933 Y0.9280  
G01 X-3.5120 Y0.9467  
G01 X-3.5120 Y0.9507  
G01 X-3.5628 Y0.9507  
G01 X-3.5642 Y0.9506  
G01 X-3.5651 Y0.9507  
G01 X-3.5661 Y0.9507  
G01 X-3.5675 Y0.9511  
G01 X-3.5689 Y0.9513  
G01 X-3.5698 Y0.9517  
G01 X-3.5707 Y0.9520  
G01 X-3.5719 Y0.9527  
G01 X-3.5732 Y0.9532  
G01 X-3.5740 Y0.9539  
G01 X-3.5748 Y0.9543  
G01 X-3.5758 Y0.9553  
G01 X-3.5769 Y0.9562  
G01 X-3.5775 Y0.9570  
G01 X-3.5782 Y0.9577  
G01 X-3.5789 Y0.9589  
G01 X-3.5797 Y0.9600  
G01 X-3.5800 Y0.9610  
G01 X-3.5805 Y0.9618  
G01 X-3.5809 Y0.9632  
G01 X-3.5814 Y0.9645  
G01 X-3.5815 Y0.9654  
G01 X-3.5817 Y0.9664  
G01 X-3.5817 Y0.9678  
G01 X-3.6315 Y1.4279  
G01 X-3.6317 Y1.4289  
G01 X-3.6317 Y1.4294  
G01 X-3.6319 Y1.4298  
G01 X-3.6318 Y1.4308  
G01 X-3.6319 Y1.4317  
G01 X-3.6317 Y1.4326  
G01 X-3.6317 Y1.4336  
G01 X-3.6316 Y1.4341  
G01 X-3.6281 Y1.5007  
G01 X-3.6377 Y1.5866  
G01 X-3.6380 Y1.5875  
G01 X-3.6380 Y1.5889  
G01 X-3.6382 Y1.5903  
G01 X-3.6380 Y1.5913  
G01 X-3.6380 Y1.5923  
G01 X-3.6377 Y1.5936  
G01 X-3.6374 Y1.5950  
G01 X-3.6371 Y1.5959  
G01 X-3.6368 Y1.5969  
G01 X-3.6361 Y1.5981  
G01 X-3.6356 Y1.5994  
G01 X-3.6349 Y1.6001  
G01 X-3.6345 Y1.6010  
G01 X-3.6335 Y1.6020  
G01 X-3.6326 Y1.6031  
G01 X-3.6318 Y1.6037  
G01 X-3.6311 Y1.6044  
G01 X-3.6299 Y1.6051  
G01 X-3.6288 Y1.6059  
G01 X-3.6279 Y1.6062  
G01 X-3.5194 Y1.6695  
G01 X-3.5670 Y2.0411  
G01 X-3.7383 Y2.1960  
G01 X-3.7388 Y2.1963  
G01 X-3.7389 Y2.1964  
G01 X-3.7401 Y2.1977  
G01 X-3.7415 Y2.1989  
G01 X-3.7418 Y2.1993  
G01 X-3.7421 Y2.1996  
G01 X-3.7422 Y2.1997  
G01 X-3.7431 Y2.2013  
G01 X-3.7441 Y2.2029  
G01 X-3.7442 Y2.2033  
G01 X-3.7445 Y2.2037  
G01 X-3.7445 Y2.2039  
G01 X-3.7450 Y2.2056  
G01 X-3.7455 Y2.2074  
G01 X-3.7456 Y2.2079  
G01 X-3.7457 Y2.2083  
G01 X-3.7457 Y2.2085  
G01 X-3.7457 Y2.2103  
G01 X-3.7458 Y2.2121  
G01 X-3.7457 Y2.2126  
G01 X-3.7450 Y2.5100  
G01 X-3.7450 Y2.5124  
G01 X-3.7444 Y2.5146  
G01 X-3.7438 Y2.5169  
G01 X-3.7427 Y2.5188  
G01 X-3.7418 Y2.6160  
G01 X-3.7418 Y2.6180  
G01 X-3.7417 Y2.6184  
G01 X-3.7417 Y2.6188  
G01 X-3.7412 Y2.6207  
G01 X-3.7408 Y2.6226  
G01 X-3.7406 Y2.6230  
G01 X-3.7405 Y2.6234  
G01 X-3.7395 Y2.6251  
G01 X-3.7385 Y2.6268  
G01 X-3.7383 Y2.6271  
G01 X-3.7380 Y2.6274  
G01 X-3.7366 Y2.6288  
G01 X-3.7353 Y2.6303  
G01 X-3.7350 Y2.6305  
G01 X-3.7347 Y2.6308  
G01 X-3.7329 Y2.6317  
G01 X-3.4688 Y2.7967  
G01 X-3.4686 Y2.7969  
G01 X-3.4668 Y2.7979  
G01 X-3.4650 Y2.7990  
G01 X-3.4647 Y2.7991  
G01 X-3.4644 Y2.7993  
G01 X-3.4625 Y2.7998  
G01 X-3.4605 Y2.8004  
G01 X-3.4602 Y2.8004  
G01 X-3.4599 Y2.8005  
G01 X-3.4578 Y2.8005  
G01 X-3.4558 Y2.8006  
G01 X-3.4554 Y2.8005  
G01 X-2.6485 Y2.8005  
G01 X-2.6485 Y2.8101  
G01 X-2.6201 Y2.8385  
G01 X-2.5799 Y2.8385  
G01 X-2.5515 Y2.8101  
G01 X-2.5515 Y2.7699  
G01 X-2.5608 Y2.7606  
G01 X-2.5296 Y2.7120  
G01 X-2.5267 Y2.7120  
G01 X-2.5080 Y2.6933  
G01 X-2.5080 Y2.6667  
G01 X-2.5267 Y2.6480  
G01 X-2.5533 Y2.6480  
G01 X-2.5720 Y2.6667  
G01 X-2.5720 Y2.6933  
G01 X-2.5649 Y2.7003  
G01 X-2.5914 Y2.7415  
G01 X-2.6201 Y2.7415  
G01 X-2.6431 Y2.7645  
G01 X-3.4523 Y2.7645  
G01 X-3.7058 Y2.6062  
G01 X-3.7066 Y2.5280  
G01 X-3.5876 Y2.5280  
G01 X-3.5831 Y2.5268  
G01 X-3.5789 Y2.5244  
G01 X-3.5756 Y2.5211  
G01 X-3.5080 Y2.4535  
G01 X-3.5070 Y2.4527  
G01 X-3.5064 Y2.4518  
G01 X-3.5056 Y2.4511  
G01 X-3.5050 Y2.4499  
G01 X-3.4767 Y2.4123  
G01 X-3.4763 Y2.4119  
G01 X-3.4753 Y2.4104  
G01 X-3.4742 Y2.4089  
G01 X-3.4740 Y2.4084  
G01 X-3.4737 Y2.4079  
G01 X-3.4731 Y2.4062  
G01 X-3.4724 Y2.4045  
G01 X-3.4723 Y2.4040  
G01 X-3.4633 Y2.3768  
G01 X-3.4628 Y2.3757  
G01 X-3.4625 Y2.3746  
G01 X-3.4622 Y2.3734  
G01 X-3.4621 Y2.3723  
G01 X-3.4619 Y2.3711  
G01 X-3.4620 Y2.3699  
G01 X-3.4619 Y2.3687  
G01 X-3.4621 Y2.3675  
G01 X-3.4715 Y2.2369  
G01 X-3.3556 Y2.1211  
G01 X-3.3532 Y2.1169  
G01 X-3.3520 Y2.1124  
G01 X-3.3520 Y2.0673  
G01 X-3.3380 Y2.0533  
G01 X-3.3380 Y2.0267  
G01 X-3.3567 Y2.0080  
G01 X-3.3833 Y2.0080  
G01 X-3.4020 Y2.0267  
G01 X-3.4020 Y2.0533  
G01 X-3.3880 Y2.0673  
G01 X-3.3880 Y2.1025  
G01 X-3.5015 Y2.2161  
G01 X-3.5021 Y2.2164  
G01 X-3.5032 Y2.2177  
G01 X-3.5044 Y2.2189  
G01 X-3.5047 Y2.2195  
G01 X-3.5052 Y2.2200  
G01 X-3.5059 Y2.2216  
G01 X-3.5068 Y2.2231  
G01 X-3.5069 Y2.2237  
G01 X-3.5072 Y2.2243  
G01 X-3.5076 Y2.2260  
G01 X-3.5080 Y2.2276  
G01 X-3.5080 Y2.2283  
G01 X-3.5081 Y2.2289  
G01 X-3.5080 Y2.2306  
G01 X-3.5080 Y2.2324  
G01 X-3.5078 Y2.2330  
G01 X-3.4982 Y2.3677  
G01 X-3.5062 Y2.3915  
G01 X-3.5336 Y2.4282  
G01 X-3.5975 Y2.4920  
G01 X-3.7070 Y2.4920  
G01 X-3.7096 Y2.2186  
G01 X-3.5384 Y2.0638  
G01 X-3.5371 Y2.0628  
G01 X-3.5367 Y2.0622  
G01 X-3.5362 Y2.0618  
G01 X-3.5353 Y2.0604  
G01 X-3.5342 Y2.0590  
G01 X-3.5340 Y2.0584  
G01 X-3.5336 Y2.0578  
G01 X-3.5331 Y2.0562  
G01 X-3.5324 Y2.0546  
G01 X-3.5324 Y2.0539  
G01 X-3.5321 Y2.0533  
G01 X-3.5321 Y2.0516  
G01 X-3.4823 Y1.6635  
G01 X-3.4820 Y1.6625  
G01 X-3.4820 Y1.6612  
G01 X-3.4818 Y1.6599  
G01 X-3.4820 Y1.6588  
G01 X-3.4820 Y1.6577  
G01 X-3.4823 Y1.6565  
G01 X-3.4825 Y1.6552  
G01 X-3.4829 Y1.6542  
G01 X-3.4832 Y1.6531  
G01 X-3.4838 Y1.6520  
G01 X-3.4843 Y1.6509  
G01 X-3.4850 Y1.6500  
G01 X-3.4855 Y1.6490  
G01 X-3.4864 Y1.6481  
G01 X-3.4872 Y1.6471  
G01 X-3.4881 Y1.6464  
G01 X-3.4889 Y1.6456  
G01 X-3.4900 Y1.6450  
G01 X-3.4910 Y1.6442  
G01 X-3.4920 Y1.6438  
G01 X-3.6008 Y1.5804  
G01 X-3.5922 Y1.5041  
G01 X-3.5919 Y1.5027  
G01 X-3.5919 Y1.5018  
G01 X-3.5918 Y1.5009  
G01 X-3.5921 Y1.4994  
G01 X-3.5948 Y1.4492  
G01 X-2.8762 Y1.4492  
G01 X-2.6904 Y1.6351  
G01 X-2.6919 Y1.6399  
G01 X-2.6930 Y1.6466  
G01 X-2.6930 Y1.6534  
G01 X-2.6919 Y1.6601  
G01 X-2.6898 Y1.6665  
G01 X-2.6868 Y1.6725  
G01 X-2.6828 Y1.6780  
G01 X-2.6780 Y1.6828  
G01 X-2.6725 Y1.6868  
G01 X-2.6665 Y1.6898  
G01 X-2.6601 Y1.6919  
G01 X-2.6534 Y1.6930  
G01 X-2.6466 Y1.6930  
G01 X-2.6399 Y1.6919  
G01 X-2.6335 Y1.6898  
G01 X-2.6275 Y1.6868  
G01 X-2.6263 Y1.6859  
G01 X-2.5283 Y1.7470  
G01 X-2.5276 Y1.7476  
G01 X-2.5263 Y1.7482  
G01 X-2.5250 Y1.7490  
G01 X-2.5242 Y1.7493  
G01 X-2.5234 Y1.7497  
G01 X-2.5219 Y1.7500  
G01 X-2.5205 Y1.7504  
G01 X-2.5196 Y1.7504  
G01 X-2.5187 Y1.7506  
G01 X-2.5172 Y1.7505  
G01 X-2.5157 Y1.7506  
G01 X-2.5149 Y1.7504  
G01 X-1.8842 Y1.7110  
G01 X-1.8427 Y1.7602  
G01 X-1.8757 Y1.8636  
G01 X-2.2856 Y1.8732  
G01 X-2.2880 Y1.8733  
G01 X-2.2903 Y1.8733  
G01 X-2.2926 Y1.8740  
G01 X-2.2948 Y1.8746  
G01 X-2.5026 Y1.9358  
G01 X-2.7794 Y1.9358  
G01 X-2.8380 Y1.8700  
G01 X-2.8380 Y1.8308  
G01 X-2.8392 Y1.8247  
G01 X-2.8416 Y1.8188  
G01 X-2.8451 Y1.8136  
G01 X-2.8496 Y1.8091  
G01 X-2.8548 Y1.8056  
G01 X-2.8607 Y1.8032  
G01 X-2.8668 Y1.8020  
G01 X-2.8732 Y1.8020  
G01 X-2.8793 Y1.8032  
G01 X-2.8852 Y1.8056  
G01 X-2.8904 Y1.8091  
G01 X-2.8949 Y1.8136  
G01 X-2.8984 Y1.8188  
G01 X-2.9008 Y1.8247  
G01 X-2.9020 Y1.8308  
G01 X-2.9020 Y1.8892  
G01 X-2.9008 Y1.8953  
G01 X-2.8984 Y1.9012  
G01 X-2.8949 Y1.9064  
G01 X-2.8904 Y1.9109  
G01 X-2.8852 Y1.9144  
G01 X-2.8793 Y1.9168  
G01 X-2.8732 Y1.9180  
G01 X-2.8668 Y1.9180  
G01 X-2.8607 Y1.9168  
G01 X-2.8548 Y1.9144  
G01 X-2.8497 Y1.9109  
G01 X-2.8022 Y1.9643  
G01 X-2.8019 Y1.9648  
G01 X-2.8006 Y1.9661  
G01 X-2.7994 Y1.9675  
G01 X-2.7989 Y1.9678  
G01 X-2.7986 Y1.9682  
G01 X-2.7970 Y1.9691  
G01 X-2.7954 Y1.9701  
G01 X-2.7949 Y1.9703  
G01 X-2.7944 Y1.9705  
G01 X-2.7927 Y1.9710  
G01 X-2.7909 Y1.9716  
G01 X-2.7904 Y1.9716  
G01 X-2.7899 Y1.9717  
G01 X-2.7880 Y1.9717  
G01 X-2.7862 Y1.9719  
G01 X-2.7857 Y1.9717  
G01 X-2.5021 Y1.9717  
G01 X-2.5019 Y1.9718  
G01 X-2.4998 Y1.9717  
G01 X-2.4976 Y1.9717  
G01 X-2.4974 Y1.9717  
G01 X-2.4972 Y1.9717  
G01 X-2.4951 Y1.9711  
G01 X-2.4931 Y1.9705  
G01 X-2.4929 Y1.9704  
G01 X-2.2847 Y1.9092  
G01 X-1.8632 Y1.8993  
G01 X-1.8620 Y1.8994  
G01 X-1.8615 Y1.8993  
G01 X-1.8610 Y1.8993  
G01 X-1.8604 Y1.8992  
G01 X-1.8597 Y1.8992  
G01 X-1.8585 Y1.8988  
G01 X-1.6185 Y1.8602  
G01 X-1.2993 Y2.1011  
G01 X-1.2986 Y2.1019  
G01 X-1.2975 Y2.1025  
G01 X-1.2965 Y2.1033  
G01 X-1.2954 Y2.1037  
G01 X-1.2944 Y2.1043  
G01 X-1.2932 Y2.1046  
G01 X-1.2921 Y2.1051  
G01 X-1.2909 Y2.1052  
G01 X-1.2899 Y2.1055  
G01 X-1.2886 Y2.1055  
G01 X-1.2874 Y2.1057  
G01 X-1.2862 Y2.1055  
G01 X-1.0575 Y2.1055  
G01 X-1.2718 Y2.2695  
G01 X-1.2722 Y2.2696  
G01 X-1.2737 Y2.2709  
G01 X-1.2753 Y2.2721  
G01 X-1.2755 Y2.2724  
G01 X-1.2758 Y2.2726  
G01 X-1.2770 Y2.2743  
G01 X-1.2782 Y2.2759  
G01 X-1.2783 Y2.2762  
G01 X-1.2785 Y2.2765  
G01 X-1.2793 Y2.2784  
G01 X-1.2800 Y2.2803  
G01 X-1.2801 Y2.2806  
G01 X-1.2802 Y2.2810  
G01 X-1.2804 Y2.2830  
G01 X-1.2807 Y2.2850  
G01 X-1.2806 Y2.2853  
G01 X-1.2941 Y2.4286  
G01 X-1.2944 Y2.4300  
G01 X-1.2943 Y2.4310  
G01 X-1.2944 Y2.4319  
G01 X-1.2942 Y2.4330  
G01 X-1.3114 Y2.6195  
G01 X-1.9066 Y2.6195  
G01 X-1.9068 Y2.6194  
G01 X-1.9090 Y2.6195  
G01 X-1.9111 Y2.6195  
G01 X-1.9113 Y2.6196  
G01 X-1.9116 Y2.6196  
G01 X-1.9136 Y2.6202  
G01 X-1.9157 Y2.6207  
G01 X-1.9159 Y2.6208  
G01 X-1.9161 Y2.6209  
G01 X-1.9179 Y2.6220  
G01 X-1.9198 Y2.6231  
G01 X-1.9200 Y2.6233  
G01 X-1.9201 Y2.6234  
G01 X-1.9216 Y2.6249  
G01 X-1.9232 Y2.6264  
G01 X-1.9233 Y2.6266  
G01 X-1.9234 Y2.6268  
G01 X-1.9244 Y2.6287  
G01 X-1.9255 Y2.6306  
G01 X-1.9256 Y2.6308  
G01 X-1.9257 Y2.6310  
G01 X-1.9262 Y2.6331  
G01 X-1.9267 Y2.6351  
G01 X-1.9267 Y2.6354  
G01 X-1.9429 Y2.7020  
G01 X-1.9432 Y2.7020  
G01 X-1.9493 Y2.7032  
G01 X-1.9552 Y2.7056  
G01 X-1.9604 Y2.7091  
G01 X-1.9649 Y2.7136  
G01 X-1.9684 Y2.7188  
G01 X-1.9708 Y2.7247  
G01 X-1.9720 Y2.7308  
G01 X-1.9720 Y2.7892  
G01 X-1.9708 Y2.7953  
G01 X-1.9684 Y2.8012  
G01 X-1.9649 Y2.8064  
G01 X-1.9604 Y2.8109  
G01 X-1.9552 Y2.8144  
G01 X-1.9493 Y2.8168  
G01 X-1.9432 Y2.8180  
G01 X-1.9368 Y2.8180  
G01 X-1.9307 Y2.8168  
G01 X-1.9248 Y2.8144  
G01 X-1.9196 Y2.8109  
G01 X-1.9151 Y2.8064  
G01 X-1.9116 Y2.8012  
G01 X-1.9092 Y2.7953  
G01 X-1.9080 Y2.7892  
G01 X-1.9080 Y2.7308  
G01 X-1.9092 Y2.7247  
G01 X-1.9106 Y2.7215  
G01 X-1.8946 Y2.6555  
G01 X-1.2958 Y2.6555  
G01 X-1.2943 Y2.6556  
G01 X-1.2935 Y2.6555  
G01 X-1.2926 Y2.6555  
G01 X-1.2911 Y2.6551  
G01 X-1.2896 Y2.6548  
G01 X-1.2889 Y2.6545  
G01 X-1.2881 Y2.6543  
G01 X-1.2867 Y2.6535  
G01 X-1.2853 Y2.6529  
G01 X-1.2847 Y2.6523  
G01 X-1.2839 Y2.6519  
G01 X-1.2829 Y2.6508  
G01 X-1.2817 Y2.6498  
G01 X-1.2812 Y2.6491  
G01 X-1.2806 Y2.6486  
G01 X-1.2798 Y2.6472  
G01 X-1.2789 Y2.6460  
G01 X-1.2786 Y2.6452  
G01 X-1.2782 Y2.6444  
G01 X-1.2778 Y2.6430  
G01 X-1.2773 Y2.6415  
G01 X-1.2772 Y2.6407  
G01 X-1.2770 Y2.6399  
G01 X-1.2770 Y2.6383  
G01 X-1.2613 Y2.4685  
G01 X-0.5330 Y2.4262  
G01 X-0.5330 Y2.4278  
G01 X-0.5078 Y2.4530  
G01 X-0.4722 Y2.4530  
G01 X-0.4497 Y2.4305  
G01 X-0.4303 Y2.4305  
G01 X-0.4078 Y2.4530  
G01 X-0.3722 Y2.4530  
G01 X-0.3470 Y2.4278  
G01 X-0.3470 Y2.3922  
G01 X-0.3722 Y2.3670  
G01 X-0.4078 Y2.3670  
G01 X-0.4330 Y2.3922  
G01 X-0.4330 Y2.3945  
G01 X-0.4470 Y2.3945  
G01 X-0.4470 Y2.3922  
G01 X-0.4722 Y2.3670  
G01 X-0.5078 Y2.3670  
G01 X-0.5308 Y2.3900  
G01 X-1.2580 Y2.4322  
G01 X-1.2453 Y2.2945  
G01 X-1.0356 Y2.1341  
G01 X-1.0328 Y2.1380  
G01 X-1.0280 Y2.1428  
G01 X-1.0225 Y2.1468  
G01 X-1.0165 Y2.1498  
G01 X-1.0101 Y2.1519  
G01 X-1.0034 Y2.1530  
G01 X-0.9966 Y2.1530  
G01 X-0.9899 Y2.1519  
G01 X-0.9835 Y2.1498  
G01 X-0.9775 Y2.1468  
G01 X-0.9720 Y2.1428  
G01 X-0.9672 Y2.1380  
G01 X-0.9632 Y2.1325  
G01 X-0.9602 Y2.1265  
G01 X-0.9581 Y2.1201  
G01 X-0.9570 Y2.1134  
G01 X-0.9570 Y2.1066  
G01 X-0.9581 Y2.0999  
G01 X-0.9602 Y2.0935  
G01 X-0.9632 Y2.0875  
G01 X-0.9672 Y2.0820  
G01 X-0.9720 Y2.0772  
G01 X-0.9775 Y2.0732  
G01 X-0.9835 Y2.0702  
G01 X-0.9899 Y2.0681  
G01 X-0.9966 Y2.0670  
G01 X-0.9995 Y2.0670  
G01 X-0.9995 Y1.4045  
G01 X-0.9981 Y1.4001  
G01 X-0.9970 Y1.3934  
G01 X-0.9970 Y1.3866  
G01 X-0.9981 Y1.3799  
G01 X-0.9996 Y1.3751  
G01 X-0.8452 Y1.2207  
G01 X-0.8418 Y1.2173  
G01 X-0.8395 Y1.2132  
G01 X-0.8383 Y1.2086  
G01 X-0.8383 Y1.1558  
G01 X-0.8348 Y1.1544  
G01 X-0.8296 Y1.1509  
G01 X-0.8251 Y1.1464  
G01 X-0.8216 Y1.1412  
G01 X-0.8192 Y1.1353  
G01 X-0.8180 Y1.1292  
G01 X-0.8180 Y1.1180  
G01 X-0.7976 Y1.1180  
G01 X-0.7931 Y1.1168  
G01 X-0.7889 Y1.1144  
G01 X-0.7856 Y1.1111  
G01 X-0.6465 Y0.9720  
G01 X-0.6267 Y0.9720  
G01 X-0.6165 Y0.9617  
G01 X-0.5575 Y0.9617  
G01 X-0.3313 Y1.1879  
G01 X-0.3319 Y1.1899  
G01 X-0.3330 Y1.1966  
G01 X-0.3330 Y1.2034  
G01 X-0.3319 Y1.2101  
G01 X-0.3298 Y1.2165  
G01 X-0.3268 Y1.2225  
G01 X-0.3228 Y1.2280  
G01 X-0.3180 Y1.2328  
G01 X-0.3125 Y1.2368  
G01 X-0.3065 Y1.2398  
G01 X-0.3001 Y1.2419  
G01 X-0.2934 Y1.2430  
G01 X-0.2866 Y1.2430  
G01 X-0.2799 Y1.2419  
G01 X-0.2735 Y1.2398  
G01 X-0.2675 Y1.2368  
G01 X-0.2620 Y1.2328  
G01 X-0.2572 Y1.2280  
G01 X-0.2532 Y1.2225  
G01 X-0.2502 Y1.2165  
G01 X-0.2481 Y1.2101  
G01 X-0.2470 Y1.2034  
G01 X-0.2470 Y1.1966  
G01 X-0.2481 Y1.1899  
G01 X-0.2502 Y1.1835  
G01 X-0.2532 Y1.1775  
G01 X-0.2572 Y1.1720  
G01 X-0.2620 Y1.1672  
G01 X-0.2675 Y1.1632  
G01 X-0.2735 Y1.1602  
G01 X-0.2799 Y1.1581  
G01 X-0.2866 Y1.1570  
G01 X-0.2934 Y1.1570  
G01 X-0.3001 Y1.1581  
G01 X-0.3065 Y1.1602  
G01 X-0.3076 Y1.1607  
G01 X-0.5356 Y0.9327  
G01 X-0.5389 Y0.9293  
G01 X-0.5431 Y0.9270  
G01 X-0.5476 Y0.9257  
G01 X-0.6090 Y0.9257  
G01 X-0.6267 Y0.9080  
G01 X-0.6533 Y0.9080  
G01 X-0.6720 Y0.9267  
G01 X-0.6720 Y0.9465  
G01 X-0.8075 Y1.0820  
G01 X-0.8180 Y1.0820  
G01 X-0.8180 Y1.0708  
G01 X-0.8192 Y1.0647  
G01 X-0.8216 Y1.0588  
G01 X-0.8251 Y1.0536  
G01 X-0.8296 Y1.0491  
G01 X-0.8348 Y1.0456  
G01 X-0.8407 Y1.0432  
G01 X-0.8468 Y1.0420  
G01 X-0.8532 Y1.0420  
G01 X-0.8593 Y1.0432  
G01 X-0.8652 Y1.0456  
G01 X-0.8704 Y1.0491  
G01 X-0.8749 Y1.0536  
G01 X-0.8784 Y1.0588  
G01 X-0.8808 Y1.0647  
G01 X-0.8820 Y1.0708  
G01 X-0.8820 Y1.1292  
G01 X-0.8808 Y1.1353  
G01 X-0.8784 Y1.1412  
G01 X-0.8749 Y1.1464  
G01 X-0.8742 Y1.1470  
G01 X-0.8742 Y1.1988  
G01 X-1.0251 Y1.3496  
G01 X-1.0299 Y1.3481  
G01 X-1.0366 Y1.3470  
G01 X-1.0434 Y1.3470  
G01 X-1.0501 Y1.3481  
G01 X-1.0565 Y1.3502  
G01 X-1.0625 Y1.3532  
G01 X-1.0680 Y1.3572  
G01 X-1.0728 Y1.3620  
G01 X-1.0768 Y1.3675  
G01 X-1.0798 Y1.3735  
G01 X-1.0819 Y1.3799  
G01 X-1.0830 Y1.3866  
G01 X-1.0830 Y1.3934  
G01 X-1.0819 Y1.4001  
G01 X-1.0798 Y1.4065  
G01 X-1.0768 Y1.4125  
G01 X-1.0728 Y1.4180  
G01 X-1.0680 Y1.4228  
G01 X-1.0625 Y1.4268  
G01 X-1.0565 Y1.4298  
G01 X-1.0501 Y1.4319  
G01 X-1.0434 Y1.4330  
G01 X-1.0366 Y1.4330  
G01 X-1.0355 Y1.4328  
G01 X-1.0355 Y2.0695  
G01 X-1.2815 Y2.0695  
G01 X-1.6012 Y1.8282  
G01 X-1.6013 Y1.8281  
G01 X-1.6031 Y1.8268  
G01 X-1.6048 Y1.8255  
G01 X-1.6050 Y1.8254  
G01 X-1.6051 Y1.8253  
G01 X-1.6072 Y1.8245  
G01 X-1.6092 Y1.8237  
G01 X-1.6094 Y1.8237  
G01 X-1.6096 Y1.8236  
G01 X-1.6117 Y1.8234  
G01 X-1.6139 Y1.8231  
G01 X-1.6141 Y1.8231  
G01 X-1.6143 Y1.8231  
G01 X-1.6164 Y1.8234  
G01 X-1.6186 Y1.8238  
G01 X-1.6188 Y1.8238  
G01 X-1.8364 Y1.8588  
G01 X-1.8055 Y1.7621  
G01 X-1.8048 Y1.7601  
G01 X-1.8047 Y1.7598  
G01 X-1.8046 Y1.7595  
G01 X-1.8045 Y1.7574  
G01 X-1.8044 Y1.7554  
G01 X-1.8044 Y1.7551  
G01 X-1.8044 Y1.7547  
G01 X-1.8048 Y1.7528  
G01 X-1.8052 Y1.7507  
G01 X-1.8053 Y1.7504  
G01 X-1.8054 Y1.7501  
G01 X-1.8063 Y1.7483  
G01 X-1.8072 Y1.7465  
G01 X-1.8074 Y1.7462  
G01 X-1.8076 Y1.7459  
G01 X-1.8090 Y1.7444  
G01 X-1.8618 Y1.6817  
G01 X-1.8626 Y1.6806  
G01 X-1.8633 Y1.6799  
G01 X-1.8640 Y1.6791  
G01 X-1.8651 Y1.6783  
G01 X-1.8661 Y1.6774  
G01 X-1.8670 Y1.6770  
G01 X-1.8679 Y1.6764  
G01 X-1.8692 Y1.6759  
G01 X-1.8704 Y1.6753  
G01 X-1.8714 Y1.6751  
G01 X-1.8724 Y1.6748  
G01 X-1.8737 Y1.6747  
G01 X-1.8750 Y1.6744  
G01 X-1.8760 Y1.6745  
G01 X-1.8771 Y1.6744  
G01 X-1.8784 Y1.6746  
G01 X-2.5129 Y1.7142  
G01 X-2.6073 Y1.6554  
G01 X-2.6070 Y1.6534  
G01 X-2.6070 Y1.6466  
G01 X-2.6081 Y1.6399  
G01 X-2.6102 Y1.6335  
G01 X-2.6132 Y1.6275  
G01 X-2.6172 Y1.6220  
G01 X-2.6220 Y1.6172  
G01 X-2.6275 Y1.6132  
G01 X-2.6335 Y1.6102  
G01 X-2.6399 Y1.6081  
G01 X-2.6466 Y1.6070  
G01 X-2.6534 Y1.6070  
G01 X-2.6601 Y1.6081  
G01 X-2.6649 Y1.6096  
G01 X-2.8543 Y1.4202  
G01 X-2.8577 Y1.4168  
G01 X-2.8618 Y1.4145  
G01 X-2.8664 Y1.4132  
G01 X-3.5937 Y1.4132  
G01 X-3.5476 Y0.9867  
G01 X-3.4985 Y0.9867  
G01 X-3.4933 Y0.9920  
G01 X-3.4667 Y0.9920  
G01 X-3.4490 Y0.9742  
G01 X-3.3664 Y0.9742  
G01 X-3.3618 Y0.9730  
G01 X-3.3577 Y0.9707  
G01 X-3.3543 Y0.9673  
G01 X-3.3141 Y0.9271  
G01 X-3.3104 Y0.9309  
G01 X-3.3052 Y0.9344  
G01 X-3.2993 Y0.9368  
G01 X-3.2932 Y0.9380  
G01 X-3.2868 Y0.9380  
G01 X-3.2807 Y0.9368  
G01 X-3.2773 Y0.9354  
G01 X-3.2041 Y1.0457  
G01 X-3.2032 Y1.0473  
G01 X-3.2028 Y1.0477  
G01 X-3.2024 Y1.0482  
G01 X-3.2011 Y1.0494  
G01 X-3.1998 Y1.0507  
G01 X-3.1993 Y1.0509  
G01 X-3.1989 Y1.0513  
G01 X-3.1973 Y1.0521  
G01 X-3.1957 Y1.0530  
G01 X-3.1951 Y1.0532  
G01 X-3.1946 Y1.0534  
G01 X-3.1929 Y1.0538  
G01 X-3.1911 Y1.0542  
G01 X-3.1905 Y1.0542  
G01 X-3.1900 Y1.0544  
G01 X-3.1882 Y1.0542  
G01 X-2.6450 Y1.0542  
G01 X-2.5588 Y1.3730  
G01 X-2.5584 Y1.3748  
G01 X-2.5581 Y1.3752  
G01 X-2.5580 Y1.3757  
G01 X-2.5571 Y1.3774  
G01 X-2.5286 Y1.4334  
G01 X-2.5320 Y1.4367  
G01 X-2.5320 Y1.4633  
G01 X-2.5133 Y1.4820  
G01 X-2.4867 Y1.4820  
G01 X-2.4680 Y1.4633  
G01 X-2.4680 Y1.4367  
G01 X-2.4867 Y1.4180  
G01 X-2.4961 Y1.4180  
G01 X-2.5244 Y1.3623  
G01 X-2.6139 Y1.0316  
G01 X-2.6145 Y1.0293  
G01 X-2.6157 Y1.0272  
G01 X-2.6168 Y1.0252  
G01 X-2.6185 Y1.0235  
G01 X-2.6202 Y1.0218  
G01 X-2.6223 Y1.0207  
G01 X-2.6243 Y1.0195  
G01 X-2.6266 Y1.0189  
G01 X-2.6289 Y1.0183  
G01 X-2.6313 Y1.0183  
G01 X-3.1791 Y1.0183  
G01 X-3.2580 Y0.8994  
G01 X-3.2580 Y0.8508  
G01 X-3.2592 Y0.8447  
G01 X-3.2616 Y0.8388  
G01 X-3.2651 Y0.8336  
G01 X-3.2696 Y0.8291  
G01 X-3.2748 Y0.8256  
G01 X-3.2807 Y0.8232  
G01 X-3.2868 Y0.8220  
G01 X-3.2932 Y0.8220  
G01 X-3.2993 Y0.8232  
G01 X-3.3052 Y0.8256  
G01 X-3.3104 Y0.8291  
G01 X-3.3149 Y0.8336  
G01 X-3.3184 Y0.8388  
G01 X-3.3208 Y0.8447  
G01 X-3.3220 Y0.8508  
G01 X-3.3220 Y0.8840  
G01 X-3.3762 Y0.9383  
G01 X-3.4445 Y0.9383  
G01 X-3.4445 Y0.0430  
G01 X-2.9122 Y0.0430  
G01 X-2.9252 Y0.0560  
G01 X-2.9280 Y0.0546  
G01 X-2.9354 Y0.0522  
G01 X-2.9430 Y0.0510  
G01 X-2.9507 Y0.0510  
G01 X-2.9583 Y0.0522  
G01 X-2.9657 Y0.0546  
G01 X-2.9725 Y0.0581  
G01 X-2.9788 Y0.0626  
G01 X-2.9842 Y0.0681  
G01 X-2.9888 Y0.0743  
G01 X-2.9923 Y0.0812  
G01 X-2.9946 Y0.0885  
G01 X-2.9959 Y0.0961  
G01 X-2.9959 Y0.1039  
G01 X-2.9946 Y0.1115  
G01 X-2.9923 Y0.1188  
G01 X-2.9888 Y0.1257  
G01 X-2.9842 Y0.1319  
G01 X-2.9788 Y0.1374  
G01 X-2.9725 Y0.1419  
G01 X-2.9657 Y0.1454  
G01 X-2.9583 Y0.1478  
G01 X-2.9507 Y0.1490  
G01 X-2.9430 Y0.1490  
G01 X-2.9354 Y0.1478  
G01 X-2.9280 Y0.1454  
G01 X-2.9212 Y0.1419  
G01 X-2.9149 Y0.1374  
G01 X-2.9095 Y0.1319  
G01 X-2.9049 Y0.1257  
G01 X-2.9014 Y0.1188  
G01 X-2.8991 Y0.1115  
G01 X-2.8979 Y0.1039  
G01 X-2.8979 Y0.0961  
G01 X-2.8991 Y0.0885  
G01 X-2.9010 Y0.0827  
G01 X-2.8639 Y0.0457  
G01 X-2.8613 Y0.0430  
G01 X-2.1122 Y0.0430  
G01 X-2.1252 Y0.0560  
G01 X-2.1280 Y0.0546  
G01 X-2.1354 Y0.0522  
G01 X-2.1430 Y0.0510  
G01 X-2.1507 Y0.0510  
G01 X-2.1583 Y0.0522  
G01 X-2.1657 Y0.0546  
G01 X-2.1725 Y0.0581  
G01 X-2.1788 Y0.0626  
G01 X-2.1842 Y0.0681  
G01 X-2.1888 Y0.0743  
G01 X-2.1923 Y0.0812  
G01 X-2.1946 Y0.0885  
G01 X-2.1959 Y0.0961  
G01 X-2.1959 Y0.1039  
G01 X-2.1946 Y0.1115  
G01 X-2.1923 Y0.1188  
G01 X-2.1888 Y0.1257  
G01 X-2.1842 Y0.1319  
G01 X-2.1788 Y0.1374  
G01 X-2.1725 Y0.1419  
G01 X-2.1657 Y0.1454  
G01 X-2.1583 Y0.1478  
G01 X-2.1507 Y0.1490  
G01 X-2.1430 Y0.1490  
G01 X-2.1354 Y0.1478  
G01 X-2.1280 Y0.1454  
G01 X-2.1212 Y0.1419  
G01 X-2.1149 Y0.1374  
G01 X-2.1095 Y0.1319  
G01 X-2.1049 Y0.1257  
G01 X-2.1014 Y0.1188  
G01 X-2.0991 Y0.1115  
G01 X-2.0979 Y0.1039  
G01 X-2.0979 Y0.0961  
G01 X-2.0991 Y0.0885  
G01 X-2.1010 Y0.0827  
G01 X-2.0639 Y0.0457  
G01 X-2.0613 Y0.0430  
G01 X-1.3122 Y0.0430  
G01 X-1.3252 Y0.0560  
G01 X-1.3280 Y0.0546  
G01 X-1.3354 Y0.0522  
G01 X-1.3430 Y0.0510  
G01 X-1.3507 Y0.0510  
G01 X-1.3583 Y0.0522  
G01 X-1.3657 Y0.0546  
G01 X-1.3725 Y0.0581  
G01 X-1.3788 Y0.0626  
G01 X-1.3842 Y0.0681  
G01 X-1.3888 Y0.0743  
G01 X-1.3923 Y0.0812  
G01 X-1.3946 Y0.0885  
G01 X-1.3959 Y0.0961  
G01 X-1.3959 Y0.1039  
G01 X-1.3946 Y0.1115  
G01 X-1.3923 Y0.1188  
G01 X-1.3888 Y0.1257  
G01 X-1.3842 Y0.1319  
G01 X-1.3788 Y0.1374  
G01 X-1.3725 Y0.1419  
G01 X-1.3657 Y0.1454  
G01 X-1.3583 Y0.1478  
G01 X-1.3507 Y0.1490  
G01 X-1.3430 Y0.1490  
G01 X-1.3354 Y0.1478  
G01 X-1.3280 Y0.1454  
G01 X-1.3212 Y0.1419  
G01 X-1.3149 Y0.1374  
G01 X-1.3095 Y0.1319  
G01 X-1.3049 Y0.1257  
G01 X-1.3014 Y0.1188  
G01 X-1.2991 Y0.1115  
G01 X-1.2979 Y0.1039  
G01 X-1.2979 Y0.0961  
G01 X-1.2991 Y0.0885  
G01 X-1.3010 Y0.0827  
G01 X-1.2639 Y0.0457  
G01 X-1.2613 Y0.0430  
G01 X-0.6325 Y0.0430  
G01 X-0.5928 Y0.0827  
G01 X-0.5946 Y0.0885  
G01 X-0.5959 Y0.0961  
G01 X-0.5959 Y0.1039  
G01 X-0.5946 Y0.1115  
G01 X-0.5923 Y0.1188  
G01 X-0.5888 Y0.1257  
G01 X-0.5842 Y0.1319  
G01 X-0.5788 Y0.1374  
G01 X-0.5725 Y0.1419  
G01 X-0.5657 Y0.1454  
G01 X-0.5583 Y0.1478  
G01 X-0.5507 Y0.1490  
G01 X-0.5430 Y0.1490  
G01 X-0.5354 Y0.1478  
G01 X-0.5280 Y0.1454  
G01 X-0.5212 Y0.1419  
G01 X-0.5149 Y0.1374  
G01 X-0.5095 Y0.1319  
G01 X-0.5049 Y0.1257  
G01 X-0.5014 Y0.1188  
G01 X-0.4991 Y0.1115  
G01 X-0.4979 Y0.1039  
G01 X-0.4979 Y0.0961  
G01 X-0.4991 Y0.0885  
G01 X-0.5014 Y0.0812  
G01 X-0.5049 Y0.0743  
G01 X-0.5095 Y0.0681  
G00 Z0.0500  
G00 X-0.6116 Y0.2927  
G01 Z-0.0040 F10    
G01 X-0.6122 Y0.2923  F20    
G01 X-0.6127 Y0.2918  
G01 X-0.6141 Y0.2910  
G01 X-0.6155 Y0.2901  
G01 X-0.6162 Y0.2898  
G01 X-0.6168 Y0.2895  
G01 X-0.6184 Y0.2890  
G01 X-0.7017 Y0.2597  
G01 X-0.7028 Y0.2591  
G01 X-0.7039 Y0.2589  
G01 X-0.7050 Y0.2585  
G01 X-0.7062 Y0.2584  
G01 X-0.7074 Y0.2581  
G01 X-0.7086 Y0.2582  
G01 X-0.7097 Y0.2581  
G01 X-0.7109 Y0.2583  
G01 X-0.7122 Y0.2584  
G01 X-0.7132 Y0.2588  
G01 X-0.7144 Y0.2590  
G01 X-0.7155 Y0.2595  
G01 X-0.7167 Y0.2599  
G01 X-0.7176 Y0.2605  
G01 X-0.7187 Y0.2610  
G01 X-0.7196 Y0.2618  
G01 X-0.9770 Y0.4310  
G01 X-1.4566 Y0.4507  
G01 X-1.4586 Y0.4507  
G01 X-1.4590 Y0.4508  
G01 X-1.4594 Y0.4509  
G01 X-1.4613 Y0.4515  
G01 X-1.4632 Y0.4520  
G01 X-1.4635 Y0.4522  
G01 X-1.4639 Y0.4523  
G01 X-1.4656 Y0.4533  
G01 X-1.4673 Y0.4543  
G01 X-1.4676 Y0.4546  
G01 X-1.4679 Y0.4548  
G01 X-1.4692 Y0.4563  
G01 X-1.7067 Y0.6938  
G01 X-1.7075 Y0.6932  
G01 X-1.7135 Y0.6902  
G01 X-1.7199 Y0.6881  
G01 X-1.7266 Y0.6870  
G01 X-1.7334 Y0.6870  
G01 X-1.7401 Y0.6881  
G01 X-1.7465 Y0.6902  
G01 X-1.7525 Y0.6932  
G01 X-1.7580 Y0.6972  
G01 X-1.7628 Y0.7020  
G01 X-1.7652 Y0.7054  
G01 X-1.8336 Y0.7021  
G01 X-1.8342 Y0.7020  
G01 X-1.8360 Y0.7020  
G01 X-1.8378 Y0.7019  
G01 X-1.8384 Y0.7020  
G01 X-2.3224 Y0.7119  
G01 X-2.7302 Y0.5810  
G01 X-2.7306 Y0.5807  
G01 X-2.7324 Y0.5802  
G01 X-2.7343 Y0.5796  
G01 X-2.7347 Y0.5796  
G01 X-2.7351 Y0.5795  
G01 X-2.7371 Y0.5795  
G01 X-2.7390 Y0.5794  
G01 X-2.7394 Y0.5795  
G01 X-2.9534 Y0.5795  
G01 X-3.0853 Y0.5153  
G01 X-3.0868 Y0.5145  
G01 X-3.0874 Y0.5143  
G01 X-3.0880 Y0.5140  
G01 X-3.0897 Y0.5137  
G01 X-3.0914 Y0.5132  
G01 X-3.0920 Y0.5132  
G01 X-3.0927 Y0.5131  
G01 X-3.0944 Y0.5132  
G01 X-3.1203 Y0.5132  
G01 X-3.1232 Y0.5075  
G01 X-3.1272 Y0.5020  
G01 X-3.1320 Y0.4972  
G01 X-3.1375 Y0.4932  
G01 X-3.1435 Y0.4902  
G01 X-3.1499 Y0.4881  
G01 X-3.1507 Y0.4879  
G01 X-3.1507 Y0.4385  
G01 X-3.1475 Y0.4368  
G01 X-3.1420 Y0.4328  
G01 X-3.1372 Y0.4280  
G01 X-3.1332 Y0.4225  
G01 X-3.1302 Y0.4165  
G01 X-3.1281 Y0.4101  
G01 X-3.1270 Y0.4034  
G01 X-3.1270 Y0.3966  
G01 X-3.1281 Y0.3899  
G01 X-3.1302 Y0.3835  
G01 X-3.1332 Y0.3775  
G01 X-3.1372 Y0.3720  
G01 X-3.1420 Y0.3672  
G01 X-3.1475 Y0.3632  
G01 X-3.1535 Y0.3602  
G01 X-3.1599 Y0.3581  
G01 X-3.1666 Y0.3570  
G01 X-3.1734 Y0.3570  
G01 X-3.1801 Y0.3581  
G01 X-3.1865 Y0.3602  
G01 X-3.1925 Y0.3632  
G01 X-3.1980 Y0.3672  
G01 X-3.2028 Y0.3720  
G01 X-3.2068 Y0.3775  
G01 X-3.2098 Y0.3835  
G01 X-3.2119 Y0.3899  
G01 X-3.2130 Y0.3966  
G01 X-3.2130 Y0.4034  
G01 X-3.2119 Y0.4101  
G01 X-3.2098 Y0.4165  
G01 X-3.2068 Y0.4225  
G01 X-3.2028 Y0.4280  
G01 X-3.1980 Y0.4328  
G01 X-3.1925 Y0.4368  
G01 X-3.1867 Y0.4397  
G01 X-3.1867 Y0.4963  
G01 X-3.1880 Y0.4972  
G01 X-3.1928 Y0.5020  
G01 X-3.1968 Y0.5075  
G01 X-3.1998 Y0.5135  
G01 X-3.2019 Y0.5199  
G01 X-3.2030 Y0.5266  
G01 X-3.2030 Y0.5334  
G01 X-3.2019 Y0.5401  
G01 X-3.1998 Y0.5465  
G01 X-3.1968 Y0.5525  
G01 X-3.1928 Y0.5580  
G01 X-3.1880 Y0.5628  
G01 X-3.1825 Y0.5668  
G01 X-3.1765 Y0.5698  
G01 X-3.1701 Y0.5719  
G01 X-3.1634 Y0.5730  
G01 X-3.1566 Y0.5730  
G01 X-3.1499 Y0.5719  
G01 X-3.1435 Y0.5698  
G01 X-3.1375 Y0.5668  
G01 X-3.1320 Y0.5628  
G01 X-3.1272 Y0.5580  
G01 X-3.1232 Y0.5525  
G01 X-3.1215 Y0.5492  
G01 X-3.0979 Y0.5492  
G01 X-2.9659 Y0.6134  
G01 X-2.9644 Y0.6143  
G01 X-2.9638 Y0.6144  
G01 X-2.9632 Y0.6147  
G01 X-2.9615 Y0.6151  
G01 X-2.9599 Y0.6155  
G01 X-2.9592 Y0.6155  
G01 X-2.9586 Y0.6156  
G01 X-2.9569 Y0.6155  
G01 X-2.7403 Y0.6155  
G01 X-2.3322 Y0.7466  
G01 X-2.3316 Y0.7469  
G01 X-2.3299 Y0.7473  
G01 X-2.3282 Y0.7479  
G01 X-2.3276 Y0.7479  
G01 X-2.3270 Y0.7480  
G01 X-2.3253 Y0.7480  
G01 X-2.3235 Y0.7481  
G01 X-2.3229 Y0.7480  
G01 X-1.8365 Y0.7380  
G01 X-1.7716 Y0.7411  
G01 X-1.7698 Y0.7465  
G01 X-1.7668 Y0.7525  
G01 X-1.7628 Y0.7580  
G01 X-1.7580 Y0.7628  
G01 X-1.7525 Y0.7668  
G01 X-1.7465 Y0.7698  
G01 X-1.7401 Y0.7719  
G01 X-1.7334 Y0.7730  
G01 X-1.7266 Y0.7730  
G01 X-1.7199 Y0.7719  
G01 X-1.7135 Y0.7698  
G01 X-1.7075 Y0.7668  
G01 X-1.7020 Y0.7628  
G01 X-1.6972 Y0.7580  
G01 X-1.6932 Y0.7525  
G01 X-1.6902 Y0.7465  
G01 X-1.6881 Y0.7401  
G01 X-1.6870 Y0.7334  
G01 X-1.6870 Y0.7266  
G01 X-1.6872 Y0.7252  
G01 X-1.4485 Y0.4864  
G01 X-0.9727 Y0.4668  
G01 X-0.9726 Y0.4669  
G01 X-0.9704 Y0.4667  
G01 X-0.9681 Y0.4666  
G01 X-0.9680 Y0.4666  
G01 X-0.9678 Y0.4666  
G01 X-0.9657 Y0.4659  
G01 X-0.9636 Y0.4652  
G01 X-0.9635 Y0.4651  
G01 X-0.9633 Y0.4651  
G01 X-0.9615 Y0.4639  
G01 X-0.9596 Y0.4627  
G01 X-0.9595 Y0.4626  
G01 X-0.7063 Y0.2962  
G01 X-0.6417 Y0.3190  
G01 X-0.6417 Y0.5662  
G01 X-1.0736 Y0.5471  
G01 X-1.0742 Y0.5470  
G01 X-1.0760 Y0.5470  
G01 X-1.0778 Y0.5469  
G01 X-1.0784 Y0.5470  
G01 X-1.0789 Y0.5470  
G01 X-1.0807 Y0.5475  
G01 X-1.0825 Y0.5479  
G01 X-1.0829 Y0.5482  
G01 X-1.0835 Y0.5483  
G01 X-1.0850 Y0.5493  
G01 X-1.0867 Y0.5501  
G01 X-1.0871 Y0.5505  
G01 X-1.0875 Y0.5508  
G01 X-1.0888 Y0.5521  
G01 X-1.0902 Y0.5533  
G01 X-1.0904 Y0.5538  
G01 X-1.0908 Y0.5542  
G01 X-1.0917 Y0.5558  
G01 X-1.0927 Y0.5573  
G01 X-1.0929 Y0.5578  
G01 X-1.1285 Y0.6219  
G01 X-1.1286 Y0.6221  
G01 X-1.1296 Y0.6240  
G01 X-1.1306 Y0.6258  
G01 X-1.1307 Y0.6261  
G01 X-1.1308 Y0.6263  
G01 X-1.1313 Y0.6284  
G01 X-1.1318 Y0.6304  
G01 X-1.1318 Y0.6307  
G01 X-1.1318 Y0.6310  
G01 X-1.1317 Y0.6331  
G01 X-1.1317 Y0.6352  
G01 X-1.1316 Y0.6354  
G01 X-1.1316 Y0.6357  
G01 X-1.1310 Y0.6377  
G01 X-1.1304 Y0.6397  
G01 X-1.1303 Y0.6400  
G01 X-1.0820 Y0.7920  
G01 X-1.0820 Y0.8292  
G01 X-1.0808 Y0.8353  
G01 X-1.0784 Y0.8412  
G01 X-1.0749 Y0.8464  
G01 X-1.0704 Y0.8509  
G01 X-1.0652 Y0.8544  
G01 X-1.0593 Y0.8568  
G01 X-1.0532 Y0.8580  
G01 X-1.0468 Y0.8580  
G01 X-1.0407 Y0.8568  
G01 X-1.0348 Y0.8544  
G01 X-1.0296 Y0.8509  
G01 X-1.0251 Y0.8464  
G01 X-1.0216 Y0.8412  
G01 X-1.0192 Y0.8353  
G01 X-1.0180 Y0.8292  
G01 X-1.0180 Y0.7708  
G01 X-1.0192 Y0.7647  
G01 X-1.0216 Y0.7588  
G01 X-1.0251 Y0.7536  
G01 X-1.0296 Y0.7491  
G01 X-1.0348 Y0.7456  
G01 X-1.0407 Y0.7432  
G01 X-1.0468 Y0.7420  
G01 X-1.0532 Y0.7420  
G01 X-1.0593 Y0.7432  
G01 X-1.0597 Y0.7434  
G01 X-1.0942 Y0.6345  
G01 X-1.0659 Y0.5835  
G01 X-0.6265 Y0.6029  
G01 X-0.6261 Y0.6030  
G01 X-0.6255 Y0.6030  
G01 X-0.2233 Y0.6798  
G01 X-0.2329 Y1.2274  
G01 X-0.2660 Y1.2606  
G01 X-0.6775 Y1.2508  
G01 X-0.6778 Y1.2507  
G01 X-0.6799 Y1.2507  
G01 X-0.6819 Y1.2507  
G01 X-0.6822 Y1.2508  
G01 X-0.6826 Y1.2508  
G01 X-0.6845 Y1.2513  
G01 X-0.6865 Y1.2518  
G01 X-0.6868 Y1.2520  
G01 X-0.6871 Y1.2520  
G01 X-0.6889 Y1.2531  
G01 X-0.6907 Y1.2541  
G01 X-0.6909 Y1.2543  
G01 X-0.6912 Y1.2545  
G01 X-0.6926 Y1.2559  
G01 X-0.6941 Y1.2574  
G01 X-0.6943 Y1.2576  
G01 X-0.6945 Y1.2578  
G01 X-0.6955 Y1.2596  
G01 X-0.6966 Y1.2614  
G01 X-0.6967 Y1.2617  
G01 X-0.7228 Y1.3080  
G01 X-0.7333 Y1.3080  
G01 X-0.7520 Y1.3267  
G01 X-0.7520 Y1.3533  
G01 X-0.7333 Y1.3720  
G01 X-0.7067 Y1.3720  
G01 X-0.6880 Y1.3533  
G01 X-0.6880 Y1.3267  
G01 X-0.6906 Y1.3242  
G01 X-0.6696 Y1.2870  
G01 X-0.2613 Y1.2967  
G01 X-0.2611 Y1.2967  
G01 X-0.2590 Y1.2967  
G01 X-0.2568 Y1.2968  
G01 X-0.2566 Y1.2967  
G01 X-0.2564 Y1.2967  
G01 X-0.2543 Y1.2962  
G01 X-0.2522 Y1.2957  
G01 X-0.2520 Y1.2956  
G01 X-0.2518 Y1.2955  
G01 X-0.2499 Y1.2944  
G01 X-0.2480 Y1.2934  
G01 X-0.2479 Y1.2933  
G01 X-0.2477 Y1.2932  
G01 X-0.2462 Y1.2916  
G01 X-0.2446 Y1.2901  
G01 X-0.2445 Y1.2900  
G01 X-0.2024 Y1.2478  
G01 X-0.2008 Y1.2463  
G01 X-0.2007 Y1.2462  
G01 X-0.2006 Y1.2461  
G01 X-0.1995 Y1.2441  
G01 X-0.1984 Y1.2422  
G01 X-0.1983 Y1.2421  
G01 X-0.1982 Y1.2419  
G01 X-0.1977 Y1.2398  
G01 X-0.1970 Y1.2377  
G01 X-0.1970 Y1.2375  
G01 X-0.1970 Y1.2374  
G01 X-0.1970 Y1.2352  
G01 X-0.1870 Y0.6669  
G01 X-0.1869 Y0.6661  
G01 X-0.1870 Y0.6645  
G01 X-0.1870 Y0.6629  
G01 X-0.1872 Y0.6621  
G01 X-0.1872 Y0.6613  
G01 X-0.1877 Y0.6599  
G01 X-0.1881 Y0.6583  
G01 X-0.1885 Y0.6576  
G01 X-0.1888 Y0.6568  
G01 X-0.1897 Y0.6556  
G01 X-0.1904 Y0.6542  
G01 X-0.1910 Y0.6536  
G01 X-0.1914 Y0.6529  
G01 X-0.1926 Y0.6519  
G01 X-0.1937 Y0.6508  
G01 X-0.1944 Y0.6504  
G01 X-0.1950 Y0.6498  
G01 X-0.1964 Y0.6492  
G01 X-0.1978 Y0.6484  
G01 X-0.1986 Y0.6481  
G01 X-0.1993 Y0.6478  
G01 X-0.2008 Y0.6475  
G01 X-0.2023 Y0.6470  
G01 X-0.2031 Y0.6470  
G01 X-0.6058 Y0.5701  
G01 X-0.6058 Y0.3069  
G01 X-0.6056 Y0.3053  
G01 X-0.6058 Y0.3046  
G01 X-0.6058 Y0.3039  
G01 X-0.6062 Y0.3023  
G01 X-0.6065 Y0.3006  
G01 X-0.6068 Y0.3000  
G01 X-0.6070 Y0.2993  
G01 X-0.6078 Y0.2979  
G01 X-0.6085 Y0.2963  
G01 X-0.6090 Y0.2958  
G01 X-0.6093 Y0.2952  
G01 X-0.6105 Y0.2940  
G01 X-0.6116 Y0.2927  
G00 Z0.0500  
G00 X-0.6772 Y0.3420  
G01 Z-0.0040 F10    
G01 X-0.6820 Y0.3372  F20    
G01 X-0.6875 Y0.3332  
G01 X-0.6935 Y0.3302  
G01 X-0.6999 Y0.3281  
G01 X-0.7066 Y0.3270  
G01 X-0.7134 Y0.3270  
G01 X-0.7201 Y0.3281  
G01 X-0.7265 Y0.3302  
G01 X-0.7325 Y0.3332  
G01 X-0.7380 Y0.3372  
G01 X-0.7428 Y0.3420  
G01 X-0.7468 Y0.3475  
G01 X-0.7498 Y0.3535  
G01 X-0.7519 Y0.3599  
G01 X-0.7530 Y0.3666  
G01 X-0.7530 Y0.3734  
G01 X-0.7519 Y0.3801  
G01 X-0.7498 Y0.3865  
G01 X-0.7468 Y0.3925  
G01 X-0.7428 Y0.3980  
G01 X-0.7380 Y0.4028  
G01 X-0.7325 Y0.4068  
G01 X-0.7305 Y0.4078  
G01 X-0.7305 Y0.4522  
G01 X-0.7325 Y0.4532  
G01 X-0.7380 Y0.4572  
G01 X-0.7428 Y0.4620  
G01 X-0.7468 Y0.4675  
G01 X-0.7498 Y0.4735  
G01 X-0.7519 Y0.4799  
G01 X-0.7530 Y0.4866  
G01 X-0.7530 Y0.4934  
G01 X-0.7528 Y0.4945  
G01 X-1.1824 Y0.4945  
G01 X-1.1869 Y0.4957  
G01 X-1.1911 Y0.4981  
G01 X-1.1944 Y0.5014  
G01 X-1.1968 Y0.5056  
G01 X-1.1980 Y0.5101  
G01 X-1.1980 Y0.6799  
G01 X-1.1980 Y0.6821  
G01 X-1.1980 Y0.6822  
G01 X-1.1980 Y0.6824  
G01 X-1.1974 Y0.6845  
G01 X-1.1787 Y0.7596  
G01 X-1.1808 Y0.7647  
G01 X-1.1820 Y0.7708  
G01 X-1.1820 Y0.8292  
G01 X-1.1808 Y0.8353  
G01 X-1.1784 Y0.8412  
G01 X-1.1749 Y0.8464  
G01 X-1.1704 Y0.8509  
G01 X-1.1652 Y0.8544  
G01 X-1.1593 Y0.8568  
G01 X-1.1532 Y0.8580  
G01 X-1.1468 Y0.8580  
G01 X-1.1407 Y0.8568  
G01 X-1.1348 Y0.8544  
G01 X-1.1296 Y0.8509  
G01 X-1.1251 Y0.8464  
G01 X-1.1216 Y0.8412  
G01 X-1.1192 Y0.8353  
G01 X-1.1180 Y0.8292  
G01 X-1.1180 Y0.7708  
G01 X-1.1192 Y0.7647  
G01 X-1.1216 Y0.7588  
G01 X-1.1251 Y0.7536  
G01 X-1.1296 Y0.7491  
G01 X-1.1348 Y0.7456  
G01 X-1.1407 Y0.7432  
G01 X-1.1459 Y0.7422  
G01 X-1.1620 Y0.6778  
G01 X-1.1620 Y0.5305  
G01 X-0.7245 Y0.5305  
G01 X-0.7201 Y0.5319  
G01 X-0.7134 Y0.5330  
G01 X-0.7066 Y0.5330  
G01 X-0.6999 Y0.5319  
G01 X-0.6935 Y0.5298  
G01 X-0.6875 Y0.5268  
G01 X-0.6820 Y0.5228  
G01 X-0.6772 Y0.5180  
G01 X-0.6732 Y0.5125  
G01 X-0.6702 Y0.5065  
G01 X-0.6681 Y0.5001  
G01 X-0.6670 Y0.4934  
G01 X-0.6670 Y0.4866  
G01 X-0.6681 Y0.4799  
G01 X-0.6702 Y0.4735  
G01 X-0.6732 Y0.4675  
G01 X-0.6772 Y0.4620  
G01 X-0.6820 Y0.4572  
G01 X-0.6875 Y0.4532  
G01 X-0.6935 Y0.4502  
G01 X-0.6945 Y0.4498  
G01 X-0.6945 Y0.4102  
G01 X-0.6935 Y0.4098  
G01 X-0.6875 Y0.4068  
G01 X-0.6820 Y0.4028  
G01 X-0.6772 Y0.3980  
G01 X-0.6732 Y0.3925  
G01 X-0.6702 Y0.3865  
G01 X-0.6681 Y0.3801  
G01 X-0.6670 Y0.3734  
G01 X-0.6670 Y0.3666  
G01 X-0.6681 Y0.3599  
G01 X-0.6702 Y0.3535  
G01 X-0.6732 Y0.3475  
G01 X-0.6772 Y0.3420  
G00 Z0.0500  
G00 X-0.8720 Y0.2728  
G01 Z-0.0040 F10    
G01 X-0.8672 Y0.2680  F20    
G01 X-0.8632 Y0.2625  
G01 X-0.8602 Y0.2565  
G01 X-0.8581 Y0.2501  
G01 X-0.8570 Y0.2434  
G01 X-0.8570 Y0.2366  
G01 X-0.8581 Y0.2299  
G01 X-0.8602 Y0.2235  
G01 X-0.8632 Y0.2175  
G01 X-0.8672 Y0.2120  
G01 X-0.8720 Y0.2072  
G01 X-0.8775 Y0.2032  
G01 X-0.8835 Y0.2002  
G01 X-0.8899 Y0.1981  
G01 X-0.8966 Y0.1970  
G01 X-0.9034 Y0.1970  
G01 X-0.9101 Y0.1981  
G01 X-0.9130 Y0.1990  
G01 X-0.9486 Y0.1634  
G01 X-0.9491 Y0.1628  
G01 X-0.9503 Y0.1617  
G01 X-0.9514 Y0.1606  
G01 X-0.9521 Y0.1602  
G01 X-0.9527 Y0.1597  
G01 X-0.9542 Y0.1590  
G01 X-0.9556 Y0.1582  
G01 X-0.9563 Y0.1580  
G01 X-0.9570 Y0.1577  
G01 X-0.9586 Y0.1574  
G01 X-0.9601 Y0.1570  
G01 X-0.9609 Y0.1570  
G01 X-1.0677 Y0.1380  
G01 X-1.1025 Y0.1125  
G01 X-1.1022 Y0.1115  
G01 X-1.1010 Y0.1039  
G01 X-1.1010 Y0.0961  
G01 X-1.1022 Y0.0885  
G01 X-1.1046 Y0.0812  
G01 X-1.1081 Y0.0743  
G01 X-1.1126 Y0.0681  
G01 X-1.1181 Y0.0626  
G01 X-1.1243 Y0.0581  
G01 X-1.1312 Y0.0546  
G01 X-1.1385 Y0.0522  
G01 X-1.1461 Y0.0510  
G01 X-1.1539 Y0.0510  
G01 X-1.1615 Y0.0522  
G01 X-1.1688 Y0.0546  
G01 X-1.1757 Y0.0581  
G01 X-1.1819 Y0.0626  
G01 X-1.1874 Y0.0681  
G01 X-1.1919 Y0.0743  
G01 X-1.1954 Y0.0812  
G01 X-1.1978 Y0.0885  
G01 X-1.1990 Y0.0961  
G01 X-1.1990 Y0.1039  
G01 X-1.1978 Y0.1115  
G01 X-1.1954 Y0.1188  
G01 X-1.1919 Y0.1257  
G01 X-1.1874 Y0.1319  
G01 X-1.1819 Y0.1374  
G01 X-1.1757 Y0.1419  
G01 X-1.1688 Y0.1454  
G01 X-1.1615 Y0.1478  
G01 X-1.1539 Y0.1490  
G01 X-1.1461 Y0.1490  
G01 X-1.1385 Y0.1478  
G01 X-1.1312 Y0.1454  
G01 X-1.1243 Y0.1419  
G01 X-1.1238 Y0.1415  
G01 X-1.0861 Y0.1692  
G01 X-1.0848 Y0.1703  
G01 X-1.0842 Y0.1706  
G01 X-1.0837 Y0.1709  
G01 X-1.0821 Y0.1716  
G01 X-1.0805 Y0.1723  
G01 X-1.0799 Y0.1724  
G01 X-1.0793 Y0.1726  
G01 X-1.0776 Y0.1728  
G01 X-0.9712 Y0.1917  
G01 X-0.9397 Y0.2232  
G01 X-0.9398 Y0.2235  
G01 X-0.9419 Y0.2299  
G01 X-0.9430 Y0.2366  
G01 X-0.9430 Y0.2434  
G01 X-0.9419 Y0.2501  
G01 X-0.9398 Y0.2565  
G01 X-0.9368 Y0.2625  
G01 X-0.9328 Y0.2680  
G01 X-0.9280 Y0.2728  
G01 X-0.9225 Y0.2768  
G01 X-0.9165 Y0.2798  
G01 X-0.9101 Y0.2819  
G01 X-0.9034 Y0.2830  
G01 X-0.8966 Y0.2830  
G01 X-0.8899 Y0.2819  
G01 X-0.8835 Y0.2798  
G01 X-0.8775 Y0.2768  
G01 X-0.8720 Y0.2728  
G00 Z0.0500  
G00 X-1.0020 Y0.2728  
G01 Z-0.0040 F10    
G01 X-0.9972 Y0.2680  F20    
G01 X-0.9932 Y0.2625  
G01 X-0.9902 Y0.2565  
G01 X-0.9881 Y0.2501  
G01 X-0.9870 Y0.2434  
G01 X-0.9870 Y0.2366  
G01 X-0.9881 Y0.2299  
G01 X-0.9902 Y0.2235  
G01 X-0.9932 Y0.2175  
G01 X-0.9972 Y0.2120  
G01 X-1.0020 Y0.2072  
G01 X-1.0075 Y0.2032  
G01 X-1.0135 Y0.2002  
G01 X-1.0199 Y0.1981  
G01 X-1.0266 Y0.1970  
G01 X-1.0334 Y0.1970  
G01 X-1.0401 Y0.1981  
G01 X-1.0465 Y0.2002  
G01 X-1.0525 Y0.2032  
G01 X-1.0580 Y0.2072  
G01 X-1.0628 Y0.2120  
G01 X-1.0668 Y0.2175  
G01 X-1.0698 Y0.2235  
G01 X-1.0719 Y0.2299  
G01 X-1.0730 Y0.2366  
G01 X-1.0730 Y0.2405  
G01 X-1.1822 Y0.2825  
G01 X-1.2567 Y0.2947  
G01 X-1.2799 Y0.2715  
G01 X-1.3201 Y0.2715  
G01 X-1.3485 Y0.2999  
G01 X-1.3485 Y0.3401  
G01 X-1.3201 Y0.3685  
G01 X-1.2799 Y0.3685  
G01 X-1.2515 Y0.3401  
G01 X-1.2515 Y0.3303  
G01 X-1.1751 Y0.3178  
G01 X-1.1733 Y0.3177  
G01 X-1.1728 Y0.3175  
G01 X-1.1723 Y0.3174  
G01 X-1.1706 Y0.3166  
G01 X-1.0575 Y0.2731  
G01 X-1.0525 Y0.2768  
G01 X-1.0465 Y0.2798  
G01 X-1.0401 Y0.2819  
G01 X-1.0334 Y0.2830  
G01 X-1.0266 Y0.2830  
G01 X-1.0199 Y0.2819  
G01 X-1.0135 Y0.2798  
G01 X-1.0075 Y0.2768  
G01 X-1.0020 Y0.2728  
G00 Z0.0500  
G00 X-1.0020 Y0.6072  
G01 Z-0.0040 F10    
G01 X-1.0075 Y0.6032  F20    
G01 X-1.0135 Y0.6002  
G01 X-1.0199 Y0.5981  
G01 X-1.0266 Y0.5970  
G01 X-1.0334 Y0.5970  
G01 X-1.0401 Y0.5981  
G01 X-1.0465 Y0.6002  
G01 X-1.0525 Y0.6032  
G01 X-1.0580 Y0.6072  
G01 X-1.0628 Y0.6120  
G01 X-1.0668 Y0.6175  
G01 X-1.0698 Y0.6235  
G01 X-1.0719 Y0.6299  
G01 X-1.0730 Y0.6366  
G01 X-1.0730 Y0.6434  
G01 X-1.0719 Y0.6501  
G01 X-1.0698 Y0.6565  
G01 X-1.0668 Y0.6625  
G01 X-1.0628 Y0.6680  
G01 X-1.0580 Y0.6728  
G01 X-1.0525 Y0.6768  
G01 X-1.0465 Y0.6798  
G01 X-1.0401 Y0.6819  
G01 X-1.0334 Y0.6830  
G01 X-1.0266 Y0.6830  
G01 X-1.0199 Y0.6819  
G01 X-1.0135 Y0.6798  
G01 X-1.0075 Y0.6768  
G01 X-1.0020 Y0.6728  
G01 X-0.9972 Y0.6680  
G01 X-0.9932 Y0.6625  
G01 X-0.9928 Y0.6617  
G01 X-0.9680 Y0.6617  
G01 X-0.9680 Y0.7475  
G01 X-0.9704 Y0.7491  
G01 X-0.9749 Y0.7536  
G01 X-0.9784 Y0.7588  
G01 X-0.9808 Y0.7647  
G01 X-0.9820 Y0.7708  
G01 X-0.9820 Y0.8292  
G01 X-0.9808 Y0.8353  
G01 X-0.9784 Y0.8412  
G01 X-0.9749 Y0.8464  
G01 X-0.9704 Y0.8509  
G01 X-0.9652 Y0.8544  
G01 X-0.9593 Y0.8568  
G01 X-0.9532 Y0.8580  
G01 X-0.9468 Y0.8580  
G01 X-0.9407 Y0.8568  
G01 X-0.9348 Y0.8544  
G01 X-0.9296 Y0.8509  
G01 X-0.9251 Y0.8464  
G01 X-0.9216 Y0.8412  
G01 X-0.9192 Y0.8353  
G01 X-0.9180 Y0.8292  
G01 X-0.9180 Y0.7708  
G01 X-0.9192 Y0.7647  
G01 X-0.9216 Y0.7588  
G01 X-0.9251 Y0.7536  
G01 X-0.9296 Y0.7491  
G01 X-0.9320 Y0.7475  
G01 X-0.9320 Y0.6688  
G01 X-0.9280 Y0.6728  
G01 X-0.9225 Y0.6768  
G01 X-0.9165 Y0.6798  
G01 X-0.9101 Y0.6819  
G01 X-0.9034 Y0.6830  
G01 X-0.8966 Y0.6830  
G01 X-0.8899 Y0.6819  
G01 X-0.8835 Y0.6798  
G01 X-0.8775 Y0.6768  
G01 X-0.8720 Y0.6728  
G01 X-0.8672 Y0.6680  
G01 X-0.8632 Y0.6625  
G01 X-0.8602 Y0.6565  
G01 X-0.8581 Y0.6501  
G01 X-0.8570 Y0.6434  
G01 X-0.8570 Y0.6366  
G01 X-0.8581 Y0.6299  
G01 X-0.8602 Y0.6235  
G01 X-0.8632 Y0.6175  
G01 X-0.8672 Y0.6120  
G01 X-0.8720 Y0.6072  
G01 X-0.8775 Y0.6032  
G01 X-0.8835 Y0.6002  
G01 X-0.8899 Y0.5981  
G01 X-0.8966 Y0.5970  
G01 X-0.9034 Y0.5970  
G01 X-0.9101 Y0.5981  
G01 X-0.9165 Y0.6002  
G01 X-0.9225 Y0.6032  
G01 X-0.9280 Y0.6072  
G01 X-0.9328 Y0.6120  
G01 X-0.9368 Y0.6175  
G01 X-0.9398 Y0.6235  
G01 X-0.9406 Y0.6258  
G01 X-0.9894 Y0.6258  
G01 X-0.9902 Y0.6235  
G01 X-0.9932 Y0.6175  
G01 X-0.9972 Y0.6120  
G01 X-1.0020 Y0.6072  
G00 Z0.0500  
G00 X-0.8704 Y0.7491  
G01 Z-0.0040 F10    
G01 X-0.8749 Y0.7536  F20    
G01 X-0.8784 Y0.7588  
G01 X-0.8808 Y0.7647  
G01 X-0.8820 Y0.7708  
G01 X-0.8820 Y0.8133  
G01 X-0.9404 Y0.8932  
G01 X-1.1596 Y0.8932  
G01 X-1.2180 Y0.8133  
G01 X-1.2180 Y0.7708  
G01 X-1.2192 Y0.7647  
G01 X-1.2216 Y0.7588  
G01 X-1.2251 Y0.7536  
G01 X-1.2296 Y0.7491  
G01 X-1.2348 Y0.7456  
G01 X-1.2407 Y0.7432  
G01 X-1.2431 Y0.7427  
G01 X-1.2520 Y0.6982  
G01 X-1.2520 Y0.6976  
G01 X-1.2525 Y0.6959  
G01 X-1.2528 Y0.6941  
G01 X-1.2531 Y0.6936  
G01 X-1.2533 Y0.6930  
G01 X-1.2541 Y0.6915  
G01 X-1.2549 Y0.6899  
G01 X-1.2553 Y0.6894  
G01 X-1.2556 Y0.6889  
G01 X-1.2569 Y0.6877  
G01 X-1.2580 Y0.6863  
G01 X-1.2586 Y0.6860  
G01 X-1.2590 Y0.6855  
G01 X-1.2605 Y0.6847  
G01 X-1.2620 Y0.6837  
G01 X-1.2626 Y0.6835  
G01 X-1.3300 Y0.6450  
G01 X-1.3309 Y0.6443  
G01 X-1.3320 Y0.6438  
G01 X-1.3331 Y0.6432  
G01 X-1.3342 Y0.6429  
G01 X-1.4303 Y0.6029  
G01 X-1.4303 Y0.5851  
G01 X-1.4312 Y0.5829  
G01 X-1.4329 Y0.5812  
G01 X-1.4351 Y0.5803  
G01 X-1.4849 Y0.5803  
G01 X-1.4871 Y0.5812  
G01 X-1.4888 Y0.5829  
G01 X-1.4897 Y0.5851  
G01 X-1.4897 Y0.6349  
G01 X-1.4888 Y0.6371  
G01 X-1.4871 Y0.6388  
G01 X-1.4849 Y0.6397  
G01 X-1.4354 Y0.6397  
G01 X-1.3480 Y0.6762  
G01 X-1.2860 Y0.7116  
G01 X-1.2770 Y0.7568  
G01 X-1.2784 Y0.7588  
G01 X-1.2808 Y0.7647  
G01 X-1.2820 Y0.7708  
G01 X-1.2820 Y0.8292  
G01 X-1.2808 Y0.8353  
G01 X-1.2784 Y0.8412  
G01 X-1.2749 Y0.8464  
G01 X-1.2704 Y0.8509  
G01 X-1.2652 Y0.8544  
G01 X-1.2593 Y0.8568  
G01 X-1.2532 Y0.8580  
G01 X-1.2468 Y0.8580  
G01 X-1.2407 Y0.8568  
G01 X-1.2348 Y0.8544  
G01 X-1.2333 Y0.8533  
G01 X-1.1839 Y0.9211  
G01 X-1.1832 Y0.9223  
G01 X-1.1825 Y0.9230  
G01 X-1.1819 Y0.9238  
G01 X-1.1808 Y0.9247  
G01 X-1.1798 Y0.9257  
G01 X-1.1790 Y0.9261  
G01 X-1.1782 Y0.9268  
G01 X-1.1769 Y0.9273  
G01 X-1.1757 Y0.9280  
G01 X-1.1748 Y0.9283  
G01 X-1.1739 Y0.9287  
G01 X-1.1725 Y0.9289  
G01 X-1.1711 Y0.9292  
G01 X-1.1701 Y0.9292  
G01 X-1.1692 Y0.9294  
G01 X-1.1678 Y0.9292  
G01 X-0.9322 Y0.9292  
G01 X-0.9308 Y0.9294  
G01 X-0.9299 Y0.9292  
G01 X-0.9289 Y0.9292  
G01 X-0.9275 Y0.9289  
G01 X-0.9261 Y0.9287  
G01 X-0.9252 Y0.9283  
G01 X-0.9243 Y0.9280  
G01 X-0.9231 Y0.9273  
G01 X-0.9218 Y0.9268  
G01 X-0.9210 Y0.9261  
G01 X-0.9202 Y0.9257  
G01 X-0.9192 Y0.9247  
G01 X-0.9181 Y0.9238  
G01 X-0.9175 Y0.9230  
G01 X-0.9168 Y0.9223  
G01 X-0.9161 Y0.9211  
G01 X-0.8667 Y0.8533  
G01 X-0.8652 Y0.8544  
G01 X-0.8593 Y0.8568  
G01 X-0.8532 Y0.8580  
G01 X-0.8468 Y0.8580  
G01 X-0.8407 Y0.8568  
G01 X-0.8348 Y0.8544  
G01 X-0.8296 Y0.8509  
G01 X-0.8251 Y0.8464  
G01 X-0.8216 Y0.8412  
G01 X-0.8192 Y0.8353  
G01 X-0.8180 Y0.8292  
G01 X-0.8180 Y0.7708  
G01 X-0.8192 Y0.7647  
G01 X-0.8216 Y0.7588  
G01 X-0.8251 Y0.7536  
G01 X-0.8296 Y0.7491  
G01 X-0.8348 Y0.7456  
G01 X-0.8407 Y0.7432  
G01 X-0.8468 Y0.7420  
G01 X-0.8532 Y0.7420  
G01 X-0.8593 Y0.7432  
G01 X-0.8652 Y0.7456  
G01 X-0.8704 Y0.7491  
G00 Z0.0500  
G00 X-0.9251 Y1.0536  
G01 Z-0.0040 F10    
G01 X-0.9296 Y1.0491  F20    
G01 X-0.9348 Y1.0456  
G01 X-0.9407 Y1.0432  
G01 X-0.9468 Y1.0420  
G01 X-0.9532 Y1.0420  
G01 X-0.9593 Y1.0432  
G01 X-0.9652 Y1.0456  
G01 X-0.9704 Y1.0491  
G01 X-0.9749 Y1.0536  
G01 X-0.9784 Y1.0588  
G01 X-0.9808 Y1.0647  
G01 X-0.9820 Y1.0708  
G01 X-0.9820 Y1.1153  
G01 X-1.1511 Y1.3661  
G01 X-1.1524 Y1.3680  
G01 X-1.1525 Y1.3682  
G01 X-1.1532 Y1.3703  
G01 X-1.1540 Y1.3725  
G01 X-1.1540 Y1.3726  
G01 X-1.1542 Y1.3749  
G01 X-1.1544 Y1.3772  
G01 X-1.1544 Y1.3774  
G01 X-1.1539 Y1.3796  
G01 X-1.1311 Y1.5025  
G01 X-1.1325 Y1.5032  
G01 X-1.1380 Y1.5072  
G01 X-1.1428 Y1.5120  
G01 X-1.1468 Y1.5175  
G01 X-1.1498 Y1.5235  
G01 X-1.1519 Y1.5299  
G01 X-1.1530 Y1.5366  
G01 X-1.1530 Y1.5434  
G01 X-1.1519 Y1.5501  
G01 X-1.1498 Y1.5565  
G01 X-1.1468 Y1.5625  
G01 X-1.1428 Y1.5680  
G01 X-1.1380 Y1.5728  
G01 X-1.1325 Y1.5768  
G01 X-1.1305 Y1.5778  
G01 X-1.1305 Y1.6719  
G01 X-1.1585 Y1.6999  
G01 X-1.1585 Y1.7401  
G01 X-1.1301 Y1.7685  
G01 X-1.0899 Y1.7685  
G01 X-1.0615 Y1.7401  
G01 X-1.0615 Y1.6999  
G01 X-1.0899 Y1.6715  
G01 X-1.0945 Y1.6715  
G01 X-1.0945 Y1.5802  
G01 X-1.0935 Y1.5798  
G01 X-1.0875 Y1.5768  
G01 X-1.0820 Y1.5728  
G01 X-1.0772 Y1.5680  
G01 X-1.0732 Y1.5625  
G01 X-1.0702 Y1.5565  
G01 X-1.0681 Y1.5501  
G01 X-1.0670 Y1.5434  
G01 X-1.0670 Y1.5366  
G01 X-1.0681 Y1.5299  
G01 X-1.0702 Y1.5235  
G01 X-1.0732 Y1.5175  
G01 X-1.0772 Y1.5120  
G01 X-1.0820 Y1.5072  
G01 X-1.0875 Y1.5032  
G01 X-1.0935 Y1.5002  
G01 X-1.0950 Y1.4997  
G01 X-1.1172 Y1.3802  
G01 X-0.9650 Y1.1544  
G01 X-0.9593 Y1.1568  
G01 X-0.9532 Y1.1580  
G01 X-0.9468 Y1.1580  
G01 X-0.9407 Y1.1568  
G01 X-0.9348 Y1.1544  
G01 X-0.9296 Y1.1509  
G01 X-0.9251 Y1.1464  
G01 X-0.9216 Y1.1412  
G01 X-0.9192 Y1.1353  
G01 X-0.9180 Y1.1292  
G01 X-0.9180 Y1.0708  
G01 X-0.9192 Y1.0647  
G01 X-0.9216 Y1.0588  
G01 X-0.9251 Y1.0536  
G00 Z0.0500  
G00 X-1.1251 Y1.0536  
G01 Z-0.0040 F10    
G01 X-1.1296 Y1.0491  F20    
G01 X-1.1348 Y1.0456  
G01 X-1.1407 Y1.0432  
G01 X-1.1468 Y1.0420  
G01 X-1.1532 Y1.0420  
G01 X-1.1593 Y1.0432  
G01 X-1.1652 Y1.0456  
G01 X-1.1704 Y1.0491  
G01 X-1.1749 Y1.0536  
G01 X-1.1784 Y1.0588  
G01 X-1.1808 Y1.0647  
G01 X-1.1820 Y1.0708  
G01 X-1.1820 Y1.1292  
G01 X-1.1808 Y1.1353  
G01 X-1.1784 Y1.1412  
G01 X-1.1749 Y1.1464  
G01 X-1.1704 Y1.1509  
G01 X-1.1680 Y1.1525  
G01 X-1.1680 Y1.1863  
G01 X-1.2759 Y1.4414  
G01 X-1.2762 Y1.4419  
G01 X-1.2768 Y1.4436  
G01 X-1.2775 Y1.4452  
G01 X-1.2776 Y1.4458  
G01 X-1.2778 Y1.4464  
G01 X-1.2779 Y1.4481  
G01 X-1.2782 Y1.4499  
G01 X-1.2781 Y1.4505  
G01 X-1.2781 Y1.4511  
G01 X-1.2778 Y1.4528  
G01 X-1.2776 Y1.4546  
G01 X-1.2773 Y1.4551  
G01 X-1.2080 Y1.8117  
G01 X-1.2080 Y1.8124  
G01 X-1.2075 Y1.8141  
G01 X-1.2072 Y1.8158  
G01 X-1.2069 Y1.8163  
G01 X-1.2068 Y1.8169  
G01 X-1.2059 Y1.8185  
G01 X-1.2051 Y1.8200  
G01 X-1.2047 Y1.8205  
G01 X-1.2044 Y1.8211  
G01 X-1.2032 Y1.8223  
G01 X-1.2020 Y1.8236  
G01 X-1.2015 Y1.8240  
G01 X-1.1680 Y1.8575  
G01 X-1.1680 Y1.9703  
G01 X-1.1749 Y1.9703  
G01 X-1.1771 Y1.9712  
G01 X-1.1788 Y1.9729  
G01 X-1.1797 Y1.9751  
G01 X-1.1797 Y2.0249  
G01 X-1.1788 Y2.0271  
G01 X-1.1771 Y2.0288  
G01 X-1.1749 Y2.0297  
G01 X-1.1251 Y2.0297  
G01 X-1.1229 Y2.0288  
G01 X-1.1212 Y2.0271  
G01 X-1.1203 Y2.0249  
G01 X-1.1203 Y1.9751  
G01 X-1.1212 Y1.9729  
G01 X-1.1229 Y1.9712  
G01 X-1.1251 Y1.9703  
G01 X-1.1320 Y1.9703  
G01 X-1.1320 Y1.8476  
G01 X-1.1332 Y1.8431  
G01 X-1.1356 Y1.8389  
G01 X-1.1389 Y1.8356  
G01 X-1.1734 Y1.8012  
G01 X-1.2413 Y1.4520  
G01 X-1.1339 Y1.1980  
G01 X-1.1332 Y1.1969  
G01 X-1.1329 Y1.1959  
G01 X-1.1325 Y1.1948  
G01 X-1.1323 Y1.1936  
G01 X-1.1320 Y1.1924  
G01 X-1.1320 Y1.1912  
G01 X-1.1318 Y1.1901  
G01 X-1.1320 Y1.1889  
G01 X-1.1320 Y1.1525  
G01 X-1.1296 Y1.1509  
G01 X-1.1251 Y1.1464  
G01 X-1.1216 Y1.1412  
G01 X-1.1192 Y1.1353  
G01 X-1.1180 Y1.1292  
G01 X-1.1180 Y1.0708  
G01 X-1.1192 Y1.0647  
G01 X-1.1216 Y1.0588  
G01 X-1.1251 Y1.0536  
G00 Z0.0500  
G00 X-1.3251 Y1.0536  
G01 Z-0.0040 F10    
G01 X-1.3296 Y1.0491  F20    
G01 X-1.3348 Y1.0456  
G01 X-1.3407 Y1.0432  
G01 X-1.3468 Y1.0420  
G01 X-1.3532 Y1.0420  
G01 X-1.3593 Y1.0432  
G01 X-1.3652 Y1.0456  
G01 X-1.3704 Y1.0491  
G01 X-1.3749 Y1.0536  
G01 X-1.3784 Y1.0588  
G01 X-1.3808 Y1.0647  
G01 X-1.3820 Y1.0708  
G01 X-1.3820 Y1.1292  
G01 X-1.3808 Y1.1353  
G01 X-1.3794 Y1.1386  
G01 X-1.4374 Y1.3470  
G01 X-1.4434 Y1.3470  
G01 X-1.4501 Y1.3481  
G01 X-1.4565 Y1.3502  
G01 X-1.4625 Y1.3532  
G01 X-1.4680 Y1.3572  
G01 X-1.4728 Y1.3620  
G01 X-1.4768 Y1.3675  
G01 X-1.4798 Y1.3735  
G01 X-1.4819 Y1.3799  
G01 X-1.4830 Y1.3866  
G01 X-1.4830 Y1.3934  
G01 X-1.4819 Y1.4001  
G01 X-1.4798 Y1.4065  
G01 X-1.4768 Y1.4125  
G01 X-1.4728 Y1.4180  
G01 X-1.4680 Y1.4228  
G01 X-1.4625 Y1.4268  
G01 X-1.4565 Y1.4298  
G01 X-1.4501 Y1.4319  
G01 X-1.4471 Y1.4324  
G01 X-1.3502 Y1.8694  
G01 X-1.3528 Y1.8720  
G01 X-1.3568 Y1.8775  
G01 X-1.3598 Y1.8835  
G01 X-1.3619 Y1.8899  
G01 X-1.3630 Y1.8966  
G01 X-1.3630 Y1.9034  
G01 X-1.3619 Y1.9101  
G01 X-1.3598 Y1.9165  
G01 X-1.3568 Y1.9225  
G01 X-1.3528 Y1.9280  
G01 X-1.3480 Y1.9328  
G01 X-1.3425 Y1.9368  
G01 X-1.3365 Y1.9398  
G01 X-1.3301 Y1.9419  
G01 X-1.3234 Y1.9430  
G01 X-1.3166 Y1.9430  
G01 X-1.3099 Y1.9419  
G01 X-1.3035 Y1.9398  
G01 X-1.2975 Y1.9368  
G01 X-1.2920 Y1.9328  
G01 X-1.2872 Y1.9280  
G01 X-1.2832 Y1.9225  
G01 X-1.2802 Y1.9165  
G01 X-1.2781 Y1.9101  
G01 X-1.2770 Y1.9034  
G01 X-1.2770 Y1.8966  
G01 X-1.2781 Y1.8899  
G01 X-1.2802 Y1.8835  
G01 X-1.2832 Y1.8775  
G01 X-1.2872 Y1.8720  
G01 X-1.2920 Y1.8672  
G01 X-1.2975 Y1.8632  
G01 X-1.3035 Y1.8602  
G01 X-1.3099 Y1.8581  
G01 X-1.3161 Y1.8571  
G01 X-1.4123 Y1.4230  
G01 X-1.4120 Y1.4228  
G01 X-1.4072 Y1.4180  
G01 X-1.4032 Y1.4125  
G01 X-1.4002 Y1.4065  
G01 X-1.3981 Y1.4001  
G01 X-1.3970 Y1.3934  
G01 X-1.3970 Y1.3866  
G01 X-1.3981 Y1.3799  
G01 X-1.4002 Y1.3735  
G01 X-1.4032 Y1.3675  
G01 X-1.4050 Y1.3650  
G01 X-1.3475 Y1.1580  
G01 X-1.3468 Y1.1580  
G01 X-1.3407 Y1.1568  
G01 X-1.3348 Y1.1544  
G01 X-1.3296 Y1.1509  
G01 X-1.3251 Y1.1464  
G01 X-1.3216 Y1.1412  
G01 X-1.3192 Y1.1353  
G01 X-1.3180 Y1.1292  
G01 X-1.3180 Y1.0708  
G01 X-1.3192 Y1.0647  
G01 X-1.3216 Y1.0588  
G01 X-1.3251 Y1.0536  
G00 Z0.0500  
G00 X-1.4251 Y1.0536  
G01 Z-0.0040 F10    
G01 X-1.4296 Y1.0491  F20    
G01 X-1.4348 Y1.0456  
G01 X-1.4407 Y1.0432  
G01 X-1.4468 Y1.0420  
G01 X-1.4532 Y1.0420  
G01 X-1.4593 Y1.0432  
G01 X-1.4617 Y1.0442  
G01 X-1.5180 Y0.9475  
G01 X-1.5189 Y0.9458  
G01 X-1.5192 Y0.9455  
G01 X-1.5194 Y0.9451  
G01 X-1.5208 Y0.9438  
G01 X-1.5221 Y0.9423  
G01 X-1.5225 Y0.9421  
G01 X-1.5228 Y0.9418  
G01 X-1.5245 Y0.9408  
G01 X-1.5261 Y0.9398  
G01 X-1.5265 Y0.9397  
G01 X-1.5269 Y0.9394  
G01 X-1.5288 Y0.9390  
G01 X-1.5306 Y0.9384  
G01 X-1.5310 Y0.9383  
G01 X-1.5315 Y0.9382  
G01 X-1.5334 Y0.9382  
G01 X-2.4754 Y0.8985  
G01 X-2.6265 Y0.7668  
G01 X-2.6277 Y0.7656  
G01 X-2.6282 Y0.7653  
G01 X-2.6287 Y0.7649  
G01 X-2.6303 Y0.7641  
G01 X-2.6318 Y0.7632  
G01 X-2.6324 Y0.7631  
G01 X-2.6330 Y0.7628  
G01 X-2.6347 Y0.7625  
G01 X-2.6364 Y0.7620  
G01 X-2.6370 Y0.7620  
G01 X-2.6376 Y0.7619  
G01 X-2.6394 Y0.7620  
G01 X-2.8554 Y0.7620  
G01 X-2.8569 Y0.7619  
G01 X-2.8577 Y0.7620  
G01 X-2.8586 Y0.7620  
G01 X-2.8601 Y0.7624  
G01 X-2.8615 Y0.7626  
G01 X-2.8623 Y0.7630  
G01 X-2.8632 Y0.7632  
G01 X-2.8645 Y0.7640  
G01 X-2.8658 Y0.7646  
G01 X-2.8665 Y0.7652  
G01 X-2.8673 Y0.7656  
G01 X-2.8684 Y0.7666  
G01 X-2.8695 Y0.7676  
G01 X-2.8700 Y0.7683  
G01 X-2.8707 Y0.7689  
G01 X-2.8714 Y0.7702  
G01 X-2.8723 Y0.7714  
G01 X-2.8725 Y0.7720  
G01 X-2.9623 Y0.7720  
G01 X-2.9644 Y0.7719  
G01 X-2.9646 Y0.7720  
G01 X-2.9649 Y0.7720  
G01 X-2.9669 Y0.7726  
G01 X-2.9690 Y0.7731  
G01 X-2.9692 Y0.7732  
G01 X-2.9694 Y0.7732  
G01 X-2.9713 Y0.7743  
G01 X-2.9732 Y0.7753  
G01 X-2.9734 Y0.7755  
G01 X-2.9736 Y0.7756  
G01 X-2.9751 Y0.7771  
G01 X-2.9766 Y0.7786  
G01 X-2.9767 Y0.7788  
G01 X-2.9769 Y0.7789  
G01 X-2.9780 Y0.7808  
G01 X-2.9791 Y0.7826  
G01 X-2.9792 Y0.7829  
G01 X-2.9793 Y0.7831  
G01 X-2.9798 Y0.7851  
G01 X-2.9907 Y0.8220  
G01 X-2.9932 Y0.8220  
G01 X-2.9993 Y0.8232  
G01 X-3.0052 Y0.8256  
G01 X-3.0104 Y0.8291  
G01 X-3.0149 Y0.8336  
G01 X-3.0184 Y0.8388  
G01 X-3.0208 Y0.8447  
G01 X-3.0220 Y0.8508  
G01 X-3.0220 Y0.9092  
G01 X-3.0208 Y0.9153  
G01 X-3.0184 Y0.9212  
G01 X-3.0149 Y0.9264  
G01 X-3.0104 Y0.9309  
G01 X-3.0052 Y0.9344  
G01 X-2.9993 Y0.9368  
G01 X-2.9932 Y0.9380  
G01 X-2.9868 Y0.9380  
G01 X-2.9807 Y0.9368  
G01 X-2.9748 Y0.9344  
G01 X-2.9696 Y0.9309  
G01 X-2.9651 Y0.9264  
G01 X-2.9616 Y0.9212  
G01 X-2.9592 Y0.9153  
G01 X-2.9580 Y0.9092  
G01 X-2.9580 Y0.8508  
G01 X-2.9592 Y0.8447  
G01 X-2.9596 Y0.8438  
G01 X-2.9490 Y0.8080  
G01 X-2.8707 Y0.8080  
G01 X-2.8702 Y0.8081  
G01 X-2.8683 Y0.8080  
G01 X-2.8664 Y0.8080  
G01 X-2.8659 Y0.8079  
G01 X-2.8108 Y0.8052  
G01 X-2.8111 Y0.8299  
G01 X-2.8149 Y0.8336  
G01 X-2.8184 Y0.8388  
G01 X-2.8208 Y0.8447  
G01 X-2.8220 Y0.8508  
G01 X-2.8220 Y0.9092  
G01 X-2.8208 Y0.9153  
G01 X-2.8184 Y0.9212  
G01 X-2.8149 Y0.9264  
G01 X-2.8104 Y0.9309  
G01 X-2.8052 Y0.9344  
G01 X-2.7993 Y0.9368  
G01 X-2.7932 Y0.9380  
G01 X-2.7868 Y0.9380  
G01 X-2.7807 Y0.9368  
G01 X-2.7748 Y0.9344  
G01 X-2.7696 Y0.9309  
G01 X-2.7651 Y0.9264  
G01 X-2.7616 Y0.9212  
G01 X-2.7592 Y0.9153  
G01 X-2.7580 Y0.9092  
G01 X-2.7580 Y0.8508  
G01 X-2.7592 Y0.8447  
G01 X-2.7616 Y0.8388  
G01 X-2.7651 Y0.8336  
G01 X-2.7696 Y0.8291  
G01 X-2.7748 Y0.8256  
G01 X-2.7751 Y0.8256  
G01 X-2.7747 Y0.7980  
G01 X-2.6455 Y0.7980  
G01 X-2.4951 Y0.9292  
G01 X-2.4941 Y0.9302  
G01 X-2.4933 Y0.9307  
G01 X-2.4925 Y0.9314  
G01 X-2.4913 Y0.9320  
G01 X-2.4901 Y0.9327  
G01 X-2.4892 Y0.9330  
G01 X-2.4883 Y0.9335  
G01 X-2.4869 Y0.9337  
G01 X-2.4856 Y0.9341  
G01 X-2.4846 Y0.9342  
G01 X-2.4836 Y0.9344  
G01 X-2.4823 Y0.9343  
G01 X-1.5443 Y0.9738  
G01 X-1.4820 Y1.0808  
G01 X-1.4820 Y1.1292  
G01 X-1.4808 Y1.1353  
G01 X-1.4784 Y1.1412  
G01 X-1.4749 Y1.1464  
G01 X-1.4704 Y1.1509  
G01 X-1.4652 Y1.1544  
G01 X-1.4593 Y1.1568  
G01 X-1.4532 Y1.1580  
G01 X-1.4468 Y1.1580  
G01 X-1.4407 Y1.1568  
G01 X-1.4348 Y1.1544  
G01 X-1.4296 Y1.1509  
G01 X-1.4251 Y1.1464  
G01 X-1.4216 Y1.1412  
G01 X-1.4192 Y1.1353  
G01 X-1.4180 Y1.1292  
G01 X-1.4180 Y1.0708  
G01 X-1.4192 Y1.0647  
G01 X-1.4216 Y1.0588  
G01 X-1.4251 Y1.0536  
G00 Z0.0500  
G00 X-1.5251 Y1.0536  
G01 Z-0.0040 F10    
G01 X-1.5296 Y1.0491  F20    
G01 X-1.5348 Y1.0456  
G01 X-1.5407 Y1.0432  
G01 X-1.5468 Y1.0420  
G01 X-1.5532 Y1.0420  
G01 X-1.5593 Y1.0432  
G01 X-1.5652 Y1.0456  
G01 X-1.5704 Y1.0491  
G01 X-1.5749 Y1.0536  
G01 X-1.5784 Y1.0588  
G01 X-1.5808 Y1.0647  
G01 X-1.5820 Y1.0708  
G01 X-1.5820 Y1.0820  
G01 X-1.5925 Y1.0820  
G01 X-1.6556 Y1.0189  
G01 X-1.6589 Y1.0156  
G01 X-1.6631 Y1.0132  
G01 X-1.6676 Y1.0120  
G01 X-1.7924 Y1.0120  
G01 X-1.7969 Y1.0132  
G01 X-1.8011 Y1.0156  
G01 X-1.8611 Y1.0756  
G01 X-1.8644 Y1.0789  
G01 X-1.8668 Y1.0831  
G01 X-1.8680 Y1.0876  
G01 X-1.8680 Y1.1624  
G01 X-1.8668 Y1.1669  
G01 X-1.8644 Y1.1711  
G01 X-1.8280 Y1.2075  
G01 X-1.8280 Y1.4325  
G01 X-1.9475 Y1.5520  
G01 X-2.2118 Y1.5520  
G01 X-2.4403 Y1.2869  
G01 X-2.4403 Y1.2551  
G01 X-2.4412 Y1.2529  
G01 X-2.4429 Y1.2512  
G01 X-2.4451 Y1.2503  
G01 X-2.4949 Y1.2503  
G01 X-2.4971 Y1.2512  
G01 X-2.4988 Y1.2529  
G01 X-2.4997 Y1.2551  
G01 X-2.4997 Y1.3049  
G01 X-2.4988 Y1.3071  
G01 X-2.4971 Y1.3088  
G01 X-2.4949 Y1.3097  
G01 X-2.4681 Y1.3097  
G01 X-2.2347 Y1.5805  
G01 X-2.2344 Y1.5811  
G01 X-2.2332 Y1.5823  
G01 X-2.2321 Y1.5835  
G01 X-2.2315 Y1.5839  
G01 X-2.2311 Y1.5844  
G01 X-2.2296 Y1.5853  
G01 X-2.2282 Y1.5862  
G01 X-2.2275 Y1.5864  
G01 X-2.2269 Y1.5868  
G01 X-2.2253 Y1.5872  
G01 X-2.2237 Y1.5878  
G01 X-2.2230 Y1.5878  
G01 X-2.2224 Y1.5880  
G01 X-2.2207 Y1.5880  
G01 X-2.2190 Y1.5881  
G01 X-2.2183 Y1.5880  
G01 X-1.9376 Y1.5880  
G01 X-1.9331 Y1.5868  
G01 X-1.9289 Y1.5844  
G01 X-1.9256 Y1.5811  
G01 X-1.7956 Y1.4511  
G01 X-1.7932 Y1.4469  
G01 X-1.7920 Y1.4424  
G01 X-1.7920 Y1.1976  
G01 X-1.7932 Y1.1931  
G01 X-1.7956 Y1.1889  
G01 X-1.7989 Y1.1856  
G01 X-1.8320 Y1.1525  
G01 X-1.8320 Y1.0975  
G01 X-1.7825 Y1.0480  
G01 X-1.6775 Y1.0480  
G01 X-1.6111 Y1.1144  
G01 X-1.6069 Y1.1168  
G01 X-1.6024 Y1.1180  
G01 X-1.5820 Y1.1180  
G01 X-1.5820 Y1.1292  
G01 X-1.5808 Y1.1353  
G01 X-1.5784 Y1.1412  
G01 X-1.5749 Y1.1464  
G01 X-1.5704 Y1.1509  
G01 X-1.5652 Y1.1544  
G01 X-1.5593 Y1.1568  
G01 X-1.5532 Y1.1580  
G01 X-1.5468 Y1.1580  
G01 X-1.5407 Y1.1568  
G01 X-1.5348 Y1.1544  
G01 X-1.5296 Y1.1509  
G01 X-1.5251 Y1.1464  
G01 X-1.5216 Y1.1412  
G01 X-1.5192 Y1.1353  
G01 X-1.5180 Y1.1292  
G01 X-1.5180 Y1.0708  
G01 X-1.5192 Y1.0647  
G01 X-1.5216 Y1.0588  
G01 X-1.5251 Y1.0536  
G00 Z0.0500  
G00 X-1.8872 Y1.2120  
G01 Z-0.0040 F10    
G01 X-1.8920 Y1.2072  F20    
G01 X-1.8975 Y1.2032  
G01 X-1.9035 Y1.2002  
G01 X-1.9099 Y1.1981  
G01 X-1.9166 Y1.1970  
G01 X-1.9234 Y1.1970  
G01 X-1.9301 Y1.1981  
G01 X-1.9365 Y1.2002  
G01 X-1.9425 Y1.2032  
G01 X-1.9480 Y1.2072  
G01 X-1.9528 Y1.2120  
G01 X-1.9568 Y1.2175  
G01 X-1.9598 Y1.2235  
G01 X-1.9606 Y1.2257  
G01 X-2.0399 Y1.2257  
G01 X-2.0444 Y1.2270  
G01 X-2.0462 Y1.2280  
G01 X-2.0633 Y1.2280  
G01 X-2.0820 Y1.2467  
G01 X-2.0820 Y1.2733  
G01 X-2.0633 Y1.2920  
G01 X-2.0367 Y1.2920  
G01 X-2.0180 Y1.2733  
G01 X-2.0180 Y1.2617  
G01 X-1.9572 Y1.2617  
G01 X-1.9568 Y1.2625  
G01 X-1.9528 Y1.2680  
G01 X-1.9492 Y1.2716  
G01 X-1.9492 Y1.3015  
G01 X-1.9501 Y1.3015  
G01 X-1.9785 Y1.3299  
G01 X-1.9785 Y1.3382  
G01 X-2.0024 Y1.3382  
G01 X-2.0069 Y1.3395  
G01 X-2.0111 Y1.3418  
G01 X-2.0144 Y1.3452  
G01 X-2.0168 Y1.3493  
G01 X-2.0180 Y1.3539  
G01 X-2.0180 Y1.4415  
G01 X-2.0201 Y1.4415  
G01 X-2.0485 Y1.4699  
G01 X-2.0485 Y1.5101  
G01 X-2.0201 Y1.5385  
G01 X-1.9799 Y1.5385  
G01 X-1.9515 Y1.5101  
