(/Applications/pcbgcode.repo/pcb-gcode.ulp)
(Copyright 2005 - 2012 by John Johnson)
(See readme.txt for licensing terms.)
(This file generated from the board:)
(.../eurorack/EFM_VCRADSR/eagle/vceg.brd)
(Current profile is .../pcbgcode.repo/profiles/mach.pp  )
(This file generated 3/27/15 11:26 PM)
(Settings from pcb-machine.h)
(spindle on time = 0.0000)
(spindle speed = 20000.0000)
(tool change at 0.0000  0.0000  3.0000  )
(feed rate xy = F0     )
(feed rate z  = F20    )
(Z Axis Settings)
(  High     Up        Down     Drill)
(1.0000  	0.0500  	-0.0040 	-0.0730 )
(Settings from pcb-defaults.h)
(isolate min = 0.0010)
(isolate max = 0.0050)
(isolate step = 0.0010)
(Generated bottom outlines, bottom drill, )
(Unit of measure: inch)
( Tool|       Size       |  Min Sub |  Max Sub |   Count )
( T01 | 0.800mm 0.0315in | 0.0000in | 0.0000in |       0 )
( T02 | 0.813mm 0.0320in | 0.0000in | 0.0000in |       0 )
( T03 | 0.900mm 0.0354in | 0.0000in | 0.0000in |       0 )
( T04 | 1.016mm 0.0400in | 0.0000in | 0.0000in |       0 )
( T05 | 1.200mm 0.0472in | 0.0000in | 0.0000in |       0 )
(Inch Mode)
G20
(Absolute Coordinates)
G90
S20000
G00 Z1.0000  
G00 X0.0000  Y0.0000  
M03
G04 P0.000000
M05
G00 Z3.0000  
M06 T01  ; 0.0315  
G01 Z0.0000  F20    
M06 
G00 Z0.0500  
M03
G04 P0.000000
G82 X-1.1500 Y2.0000  Z-0.0730 F20    R0.0500  P0.010000
G82 X-1.1700 Y2.2800  
G82 X-1.4400 Y2.2800  
G82 X-1.6200 Y2.2400  
G82 X-2.0800 Y2.1100  
G82 X-2.8000 Y1.7500  
G82 X-2.9900 Y1.2800  
G82 X-2.4700 Y1.2800  
G82 X-1.7200 Y0.6100  
G82 X-1.4000 Y0.6100  
G82 X-3.4800 Y1.5200  
G82 X-3.6500 Y1.5200  
M05
G00 Z3.0000  
G00 X0.0000  Y0.0000  
M06 T02  ; 0.0320  
G01 Z0.0000  F20    
M06 
G00 Z0.0500  
M03
G04 P0.000000
G82 X-0.6200 Y1.3400  Z-0.0730 F20    R0.0500  P0.010000
G82 X-0.7200 Y1.3400  
G82 X-0.8200 Y1.3400  
G82 X-0.8300 Y1.5700  
G82 X-0.7300 Y1.5700  
G82 X-0.6300 Y1.5700  
G82 X-0.8500 Y1.1000  
G82 X-0.9500 Y1.1000  
G82 X-1.0500 Y1.1000  
G82 X-1.1500 Y1.1000  
G82 X-1.2500 Y1.1000  
G82 X-1.3500 Y1.1000  
G82 X-1.4500 Y1.1000  
G82 X-1.5500 Y1.1000  
G82 X-1.5500 Y0.8000  
G82 X-1.4500 Y0.8000  
G82 X-1.3500 Y0.8000  
G82 X-1.2500 Y0.8000  
G82 X-1.1500 Y0.8000  
G82 X-1.0500 Y0.8000  
G82 X-0.9500 Y0.8000  
G82 X-0.8500 Y0.8000  
G82 X-0.7000 Y0.8900  
G82 X-0.7000 Y0.9900  
G82 X-2.0500 Y1.2600  
G82 X-2.1500 Y1.2600  
G82 X-2.2700 Y1.2700  
G82 X-2.2700 Y1.3700  
G82 X-2.5000 Y1.4500  
G82 X-2.5000 Y1.5500  
G82 X-2.5700 Y1.8600  
G82 X-2.6700 Y1.8600  
G82 X-2.7700 Y1.8600  
G82 X-2.8700 Y1.8600  
G82 X-2.9700 Y1.8600  
G82 X-3.0700 Y1.8600  
G82 X-3.1700 Y1.8600  
G82 X-3.2950 Y1.9900  
G82 X-3.3700 Y1.9400  
G82 X-3.3700 Y2.0400  
G82 X-3.1700 Y2.1600  
G82 X-3.0700 Y2.1600  
G82 X-2.9700 Y2.1600  
G82 X-2.8700 Y2.1600  
G82 X-2.7700 Y2.1600  
G82 X-2.6700 Y2.1600  
G82 X-2.5700 Y2.1600  
G82 X-2.3600 Y2.2000  
G82 X-2.3600 Y2.1000  
G82 X-2.1500 Y2.2200  
G82 X-2.0500 Y2.2200  
G82 X-2.0400 Y2.4200  
G82 X-1.9400 Y2.4200  
G82 X-1.8400 Y2.4200  
G82 X-1.7400 Y2.4200  
G82 X-1.6400 Y2.4200  
G82 X-1.5400 Y2.4200  
G82 X-1.4400 Y2.4200  
G82 X-1.1700 Y2.5400  
G82 X-1.1700 Y2.6400  
G82 X-1.4400 Y2.7200  
G82 X-1.5400 Y2.7200  
G82 X-1.6400 Y2.7200  
G82 X-1.7400 Y2.7200  
G82 X-1.8400 Y2.7200  
G82 X-1.9400 Y2.7200  
G82 X-2.0400 Y2.7200  
G82 X-2.1400 Y2.7200  
G82 X-2.1400 Y2.4200  
G82 X-2.5400 Y2.5800  
G82 X-2.5400 Y2.6800  
G82 X-3.6700 Y2.5800  
G82 X-3.6700 Y2.4800  
G82 X-3.2900 Y1.1800  
G82 X-3.1900 Y1.1800  
G82 X-3.0900 Y1.1800  
G82 X-2.9900 Y1.1800  
G82 X-2.8900 Y1.1800  
G82 X-2.7900 Y1.1800  
G82 X-2.6900 Y1.1800  
G82 X-2.6900 Y0.8800  
G82 X-2.7900 Y0.8800  
G82 X-2.8900 Y0.8800  
G82 X-2.9900 Y0.8800  
G82 X-3.0900 Y0.8800  
G82 X-3.1900 Y0.8800  
G82 X-3.2900 Y0.8800  
G82 X-3.4800 Y0.9600  
G82 X-3.4800 Y1.0600  
M05
G00 Z3.0000  
G00 X0.0000  Y0.0000  
M06 T03  ; 0.0354  
G01 Z0.0000  F20    
M06 
G00 Z0.0500  
M03
G04 P0.000000
G82 X-0.3100 Y0.3700  Z-0.0730 F20    R0.0500  P0.010000
G82 X-0.3100 Y0.4900  
G82 X-0.7100 Y0.4900  
G82 X-0.7100 Y0.3700  
G82 X-0.9000 Y0.2400  
G82 X-1.0300 Y0.2400  
G82 X-1.0300 Y0.6400  
G82 X-0.9000 Y0.6400  
G82 X-0.4800 Y0.9100  
G82 X-0.4800 Y1.3100  
G82 X-0.4900 Y1.4500  
G82 X-0.4900 Y1.8500  
G82 X-0.9400 Y1.8500  
G82 X-0.9900 Y2.1400  
G82 X-1.3900 Y2.1400  
G82 X-1.6300 Y2.1000  
G82 X-1.7900 Y1.9500  
G82 X-1.9400 Y1.7800  
G82 X-1.7900 Y1.5500  
G82 X-1.6300 Y1.7000  
G82 X-1.5100 Y1.5400  
G82 X-1.4400 Y1.3900  
G82 X-1.1100 Y1.5400  
G82 X-1.0400 Y1.3900  
G82 X-1.3400 Y1.8500  
G82 X-1.9400 Y2.1800  
G82 X-2.5700 Y2.3600  
G82 X-2.9700 Y2.3600  
G82 X-2.9600 Y2.4600  
G82 X-3.3600 Y2.4600  
G82 X-3.6100 Y2.3300  
G82 X-3.6100 Y1.9300  
G82 X-3.3700 Y1.7200  
G82 X-3.0500 Y1.6200  
G82 X-3.0500 Y1.5000  
G82 X-3.1400 Y1.3600  
G82 X-3.3700 Y1.3200  
G82 X-2.7400 Y1.3600  
G82 X-2.6500 Y1.5000  
G82 X-2.6500 Y1.6200  
G82 X-2.3800 Y1.2000  
G82 X-2.3800 Y0.8000  
G82 X-2.4800 Y0.5200  
G82 X-2.4800 Y0.3700  
G82 X-2.1500 Y0.3600  
G82 X-2.1500 Y0.5100  
G82 X-1.7500 Y0.5100  
G82 X-1.7500 Y0.3600  
G82 X-1.7300 Y0.7300  
G82 X-1.9200 Y0.8400  
G82 X-1.7300 Y1.1300  
G82 X-1.9200 Y1.2400  
G82 X-2.7300 Y0.6900  
G82 X-2.8800 Y0.5200  
G82 X-2.8800 Y0.3700  
G82 X-3.1700 Y0.4000  
G82 X-3.1700 Y0.5300  
G82 X-3.1300 Y0.6900  
G82 X-3.2500 Y0.7000  
G82 X-3.5700 Y0.5300  
G82 X-3.5700 Y0.4000  
G82 X-3.6500 Y0.7000  
M05
G00 Z3.0000  
G00 X0.0000  Y0.0000  
M06 T04  ; 0.0400  
G01 Z0.0000  F20    
M06 
G00 Z0.0500  
M03
G04 P0.000000
G82 X-0.3600 Y0.6200  Z-0.0730 F20    R0.0500  P0.010000
G82 X-1.3000 Y0.3200  
G82 X-1.6100 Y0.4900  
G82 X-2.2300 Y0.5800  
G82 X-2.3700 Y0.4900  
G82 X-1.9300 Y1.3500  
G82 X-2.0000 Y1.4700  
G82 X-2.1700 Y1.4700  
G82 X-2.4700 Y2.3000  
G82 X-2.6600 Y2.7300  
G82 X-3.3500 Y2.2300  
G82 X-3.5000 Y1.7600  
G82 X-3.2400 Y1.3400  
G82 X-3.7000 Y0.4500  
G82 X-1.1100 Y1.6800  
G82 X-0.7400 Y2.0700  
G82 X-0.4900 Y2.0700  
G82 X-0.3900 Y2.0700  
G82 X-0.3900 Y2.1700  
G82 X-0.4900 Y2.1700  
G82 X-0.4900 Y2.2700  
G82 X-0.3900 Y2.2700  
G82 X-0.3900 Y2.3700  
G82 X-0.4900 Y2.3700  
G82 X-0.4900 Y2.4700  
G82 X-0.4900 Y2.5700  
G82 X-0.3900 Y2.5700  
G82 X-0.3900 Y2.4700  
G82 X-0.3900 Y2.6700  
G82 X-0.4900 Y2.6700  
G82 X-0.4900 Y2.7700  
G82 X-0.3900 Y2.7700  
M05
G00 Z3.0000  
G00 X0.0000  Y0.0000  
M06 T05  ; 0.0472  
G01 Z0.0000  F20    
M06 
G00 Z0.0500  
M03
G04 P0.000000
G82 X-0.1531 Y0.1000  Z-0.0730 F20    R0.0500  P0.010000
G82 X-0.3500 Y0.1000  
G82 X-0.5469 Y0.1000  
G82 X-0.9531 Y0.1000  
G82 X-1.1500 Y0.1000  
G82 X-1.3469 Y0.1000  
G82 X-1.7531 Y0.1000  
G82 X-1.9500 Y0.1000  
G82 X-2.1469 Y0.1000  
G82 X-2.5531 Y0.1000  
G82 X-2.7500 Y0.1000  
G82 X-2.9469 Y0.1000  
G82 X-3.3531 Y0.1000  
G82 X-3.5500 Y0.1000  
G82 X-3.7469 Y0.1000  
G82 X-3.3869 Y2.6000  
G82 X-3.1900 Y2.6000  
G82 X-2.9931 Y2.6000  
T01 
G00 Z1.0000  
M05
M02
