(/Applications/pcbgcode.repo/pcb-gcode.ulp)
(Copyright 2005 - 2012 by John Johnson)
(See readme.txt for licensing terms.)
(This file generated from the board:)
(.../CAM/eurorack/VCEG/eagle/vceg.brd)
(Current profile is .../pcbgcode.repo/profiles/mach.pp  )
(This file generated 3/18/15 2:58 PM)
(Settings from pcb-machine.h)
(spindle on time = 0.0000)
(  Tool Size)
(0.0100  )
(spindle speed = 30000.0000)
(tool change at 0.0000  0.0000  3.0000  )
(feed rate xy = F20    )
(feed rate z  = F10    )
(Z Axis Settings)
(  High     Up        Down     Drill)
(1.0000  	0.0500  	-0.0040 	-0.0730 )
(Settings from pcb-defaults.h)
(isolate min = 0.0010)
(isolate max = 0.0050)
(isolate step = 0.0010)
(Generated bottom outlines, bottom drill, )
(Unit of measure: inch)
(Inch Mode)
G20
(Absolute Coordinates)
G90
S30000
G00 Z1.0000  
G00 X0.0000  Y0.0000  
M03
G04 P0.000000
G00 Z0.0500  
G00 X-0.1158 Y0.1181  
G01 Z-0.0040 F10    
G01 X-0.1212 Y0.1126  F20    
G01 X-0.1275 Y0.1081  
G01 X-0.1343 Y0.1046  
G01 X-0.1417 Y0.1022  
G01 X-0.1493 Y0.1010  
G01 X-0.1570 Y0.1010  
G01 X-0.1646 Y0.1022  
G01 X-0.1720 Y0.1046  
G01 X-0.1770 Y0.1072  
G01 X-0.2215 Y0.0627  
G01 X-0.2252 Y0.0590  
G01 X-0.2298 Y0.0564  
G01 X-0.2349 Y0.0550  
G01 X-0.5901 Y0.0550  
G01 X-0.5952 Y0.0564  
G01 X-0.5998 Y0.0590  
G01 X-0.6623 Y0.1215  
G01 X-0.6660 Y0.1252  
G01 X-0.6686 Y0.1298  
G01 X-0.6687 Y0.1300  
G01 X-0.9083 Y0.1300  
G01 X-0.9112 Y0.1243  
G01 X-0.9158 Y0.1181  
G01 X-0.9212 Y0.1126  
G01 X-0.9275 Y0.1081  
G01 X-0.9343 Y0.1046  
G01 X-0.9417 Y0.1022  
G01 X-0.9493 Y0.1010  
G01 X-0.9570 Y0.1010  
G01 X-0.9646 Y0.1022  
G01 X-0.9720 Y0.1046  
G01 X-0.9770 Y0.1072  
G01 X-1.0252 Y0.0590  
G01 X-1.0298 Y0.0564  
G01 X-1.0349 Y0.0550  
G01 X-1.6776 Y0.0550  
G01 X-1.6827 Y0.0564  
G01 X-1.6873 Y0.0590  
G01 X-1.6910 Y0.0627  
G01 X-1.7334 Y0.1051  
G01 X-1.7343 Y0.1046  
G01 X-1.7417 Y0.1022  
G01 X-1.7493 Y0.1010  
G01 X-1.7497 Y0.1010  
G01 X-1.8054 Y0.0146  
G01 X-1.8065 Y0.0127  
G01 X-1.8068 Y0.0124  
G01 X-1.8071 Y0.0120  
G01 X-1.8087 Y0.0105  
G01 X-1.8102 Y0.0090  
G01 X-1.8106 Y0.0087  
G01 X-1.8110 Y0.0084  
G01 X-1.8129 Y0.0074  
G01 X-1.8148 Y0.0064  
G01 X-1.8153 Y0.0062  
G01 X-1.8157 Y0.0060  
G01 X-1.8178 Y0.0056  
G01 X-1.8199 Y0.0050  
G01 X-1.8204 Y0.0050  
G01 X-1.8208 Y0.0049  
G01 X-1.8230 Y0.0050  
G01 X-2.4276 Y0.0050  
G01 X-2.4312 Y0.0060  
G01 X-2.4349 Y0.0050  
G01 X-3.2276 Y0.0050  
G01 X-3.2327 Y0.0064  
G01 X-3.2373 Y0.0090  
G01 X-3.2410 Y0.0127  
G01 X-3.3334 Y0.1051  
G01 X-3.3343 Y0.1046  
G01 X-3.3417 Y0.1022  
G01 X-3.3493 Y0.1010  
G01 X-3.3570 Y0.1010  
G01 X-3.3646 Y0.1022  
G01 X-3.3720 Y0.1046  
G01 X-3.3788 Y0.1081  
G01 X-3.3851 Y0.1126  
G01 X-3.3905 Y0.1181  
G01 X-3.3951 Y0.1243  
G01 X-3.3986 Y0.1312  
G01 X-3.4009 Y0.1385  
G01 X-3.4021 Y0.1461  
G01 X-3.4021 Y0.1539  
G01 X-3.4009 Y0.1615  
G01 X-3.3986 Y0.1688  
G01 X-3.3951 Y0.1757  
G01 X-3.3905 Y0.1819  
G01 X-3.3851 Y0.1874  
G01 X-3.3788 Y0.1919  
G01 X-3.3720 Y0.1954  
G01 X-3.3646 Y0.1978  
G01 X-3.3570 Y0.1990  
G01 X-3.3493 Y0.1990  
G01 X-3.3417 Y0.1978  
G01 X-3.3343 Y0.1954  
G01 X-3.3275 Y0.1919  
G01 X-3.3212 Y0.1874  
G01 X-3.3158 Y0.1819  
G01 X-3.3112 Y0.1757  
G01 X-3.3077 Y0.1688  
G01 X-3.3054 Y0.1615  
G01 X-3.3041 Y0.1539  
G01 X-3.3041 Y0.1461  
G01 X-3.3054 Y0.1385  
G01 X-3.3066 Y0.1348  
G01 X-3.2167 Y0.0450  
G01 X-2.4733 Y0.0450  
G01 X-2.5334 Y0.1051  
G01 X-2.5343 Y0.1046  
G01 X-2.5417 Y0.1022  
G01 X-2.5493 Y0.1010  
G01 X-2.5570 Y0.1010  
G01 X-2.5646 Y0.1022  
G01 X-2.5720 Y0.1046  
G01 X-2.5788 Y0.1081  
G01 X-2.5851 Y0.1126  
G01 X-2.5905 Y0.1181  
G01 X-2.5951 Y0.1243  
G01 X-2.5986 Y0.1312  
G01 X-2.6009 Y0.1385  
G01 X-2.6021 Y0.1461  
G01 X-2.6021 Y0.1539  
G01 X-2.6009 Y0.1615  
G01 X-2.5986 Y0.1688  
G01 X-2.5951 Y0.1757  
G01 X-2.5905 Y0.1819  
G01 X-2.5851 Y0.1874  
G01 X-2.5788 Y0.1919  
G01 X-2.5720 Y0.1954  
G01 X-2.5646 Y0.1978  
G01 X-2.5570 Y0.1990  
G01 X-2.5493 Y0.1990  
G01 X-2.5417 Y0.1978  
G01 X-2.5343 Y0.1954  
G01 X-2.5275 Y0.1919  
G01 X-2.5212 Y0.1874  
G01 X-2.5158 Y0.1819  
G01 X-2.5112 Y0.1757  
G01 X-2.5077 Y0.1688  
G01 X-2.5054 Y0.1615  
G01 X-2.5041 Y0.1539  
G01 X-2.5041 Y0.1461  
G01 X-2.5054 Y0.1385  
G01 X-2.5066 Y0.1348  
G01 X-2.4190 Y0.0473  
G01 X-2.4167 Y0.0450  
G01 X-1.8334 Y0.0450  
G01 X-1.7880 Y0.1155  
G01 X-1.7905 Y0.1181  
G01 X-1.7951 Y0.1243  
G01 X-1.7986 Y0.1312  
G01 X-1.8009 Y0.1385  
G01 X-1.8021 Y0.1461  
G01 X-1.8021 Y0.1539  
G01 X-1.8009 Y0.1615  
G01 X-1.7986 Y0.1688  
G01 X-1.7951 Y0.1757  
G01 X-1.7905 Y0.1819  
G01 X-1.7851 Y0.1874  
G01 X-1.7788 Y0.1919  
G01 X-1.7720 Y0.1954  
G01 X-1.7646 Y0.1978  
G01 X-1.7570 Y0.1990  
G01 X-1.7493 Y0.1990  
G01 X-1.7417 Y0.1978  
G01 X-1.7343 Y0.1954  
G01 X-1.7275 Y0.1919  
G01 X-1.7212 Y0.1874  
G01 X-1.7158 Y0.1819  
G01 X-1.7112 Y0.1757  
G01 X-1.7077 Y0.1688  
G01 X-1.7054 Y0.1615  
G01 X-1.7041 Y0.1539  
G01 X-1.7041 Y0.1461  
G01 X-1.7054 Y0.1385  
G01 X-1.7066 Y0.1348  
G01 X-1.6667 Y0.0950  
G01 X-1.2825 Y0.0950  
G01 X-1.2825 Y0.1667  
G01 X-1.3458 Y0.2300  
G01 X-1.6026 Y0.2300  
G01 X-1.6077 Y0.2314  
G01 X-1.6123 Y0.2340  
G01 X-1.6160 Y0.2377  
G01 X-1.9333 Y0.5550  
G01 X-2.1901 Y0.5550  
G01 X-2.1952 Y0.5564  
G01 X-2.1998 Y0.5590  
G01 X-2.2035 Y0.5627  
G01 X-2.3458 Y0.7050  
G01 X-2.4663 Y0.7050  
G01 X-2.8588 Y0.2830  
G01 X-2.8590 Y0.2827  
G01 X-2.8606 Y0.2811  
G01 X-2.8621 Y0.2795  
G01 X-2.8625 Y0.2793  
G01 X-2.8627 Y0.2790  
G01 X-2.8647 Y0.2779  
G01 X-2.8666 Y0.2767  
G01 X-2.8670 Y0.2765  
G01 X-2.8673 Y0.2764  
G01 X-2.8695 Y0.2758  
G01 X-2.8716 Y0.2751  
G01 X-2.8720 Y0.2751  
G01 X-2.8724 Y0.2750  
G01 X-2.8746 Y0.2750  
G01 X-2.8769 Y0.2749  
G01 X-2.8773 Y0.2750  
G01 X-3.4776 Y0.2750  
G01 X-3.4827 Y0.2764  
G01 X-3.4873 Y0.2790  
G01 X-3.4910 Y0.2827  
G01 X-3.4936 Y0.2873  
G01 X-3.4950 Y0.2924  
G01 X-3.4950 Y0.5475  
G01 X-3.4950 Y0.5477  
G01 X-3.4950 Y0.5502  
G01 X-3.4950 Y0.5526  
G01 X-3.4950 Y0.5528  
G01 X-3.4950 Y0.5530  
G01 X-3.4943 Y0.5553  
G01 X-3.4936 Y0.5577  
G01 X-3.4936 Y0.5579  
G01 X-3.4935 Y0.5580  
G01 X-3.4922 Y0.5601  
G01 X-3.4910 Y0.5623  
G01 X-3.4909 Y0.5624  
G01 X-3.4022 Y0.7101  
G01 X-3.4010 Y0.7123  
G01 X-3.4009 Y0.7124  
G01 X-3.4008 Y0.7125  
G01 X-3.3990 Y0.7143  
G01 X-3.3973 Y0.7160  
G01 X-3.3971 Y0.7161  
G01 X-3.3970 Y0.7162  
G01 X-3.3949 Y0.7174  
G01 X-3.3927 Y0.7186  
G01 X-3.3926 Y0.7187  
G01 X-3.3924 Y0.7188  
G01 X-3.3900 Y0.7194  
G01 X-3.3876 Y0.7200  
G01 X-3.3875 Y0.7200  
G01 X-3.3873 Y0.7200  
G01 X-3.3848 Y0.7200  
G01 X-3.3282 Y0.7200  
G01 X-3.1928 Y0.8046  
G01 X-3.1919 Y0.8101  
G01 X-3.1898 Y0.8165  
G01 X-3.1868 Y0.8225  
G01 X-3.1828 Y0.8280  
G01 X-3.1780 Y0.8328  
G01 X-3.1725 Y0.8368  
G01 X-3.1700 Y0.8381  
G01 X-3.1700 Y1.1292  
G01 X-3.1860 Y1.1452  
G01 X-3.1907 Y1.1432  
G01 X-3.1968 Y1.1420  
G01 X-3.2032 Y1.1420  
G01 X-3.2093 Y1.1432  
G01 X-3.2152 Y1.1456  
G01 X-3.2204 Y1.1491  
G01 X-3.2249 Y1.1536  
G01 X-3.2284 Y1.1588  
G01 X-3.2308 Y1.1647  
G01 X-3.2320 Y1.1708  
G01 X-3.2320 Y1.2292  
G01 X-3.2308 Y1.2353  
G01 X-3.2284 Y1.2412  
G01 X-3.2249 Y1.2464  
G01 X-3.2204 Y1.2509  
G01 X-3.2152 Y1.2544  
G01 X-3.2093 Y1.2568  
G01 X-3.2032 Y1.2580  
G01 X-3.1968 Y1.2580  
G01 X-3.1921 Y1.2571  
G01 X-3.1618 Y1.2984  
G01 X-3.1610 Y1.2998  
G01 X-3.1602 Y1.3006  
G01 X-3.1596 Y1.3015  
G01 X-3.1584 Y1.3024  
G01 X-3.1573 Y1.3035  
G01 X-3.1563 Y1.3041  
G01 X-3.1555 Y1.3047  
G01 X-3.1541 Y1.3054  
G01 X-3.1527 Y1.3061  
G01 X-3.1517 Y1.3064  
G01 X-3.1506 Y1.3069  
G01 X-3.1491 Y1.3071  
G01 X-3.1476 Y1.3075  
G01 X-3.1465 Y1.3075  
G01 X-3.1454 Y1.3077  
G01 X-3.1439 Y1.3075  
G01 X-3.0223 Y1.3075  
G01 X-3.0219 Y1.3076  
G01 X-3.0196 Y1.3075  
G01 X-3.0174 Y1.3075  
G01 X-3.0170 Y1.3074  
G01 X-3.0166 Y1.3074  
G01 X-3.0145 Y1.3067  
G01 X-3.0123 Y1.3061  
G01 X-3.0120 Y1.3059  
G01 X-3.0116 Y1.3058  
G01 X-3.0097 Y1.3046  
G01 X-3.0077 Y1.3035  
G01 X-3.0075 Y1.3032  
G01 X-3.0071 Y1.3030  
G01 X-3.0056 Y1.3014  
G01 X-3.0040 Y1.2998  
G01 X-3.0038 Y1.2995  
G01 X-3.0036 Y1.2992  
G01 X-3.0025 Y1.2972  
G01 X-3.0014 Y1.2952  
G01 X-3.0013 Y1.2949  
G01 X-3.0011 Y1.2945  
G01 X-3.0006 Y1.2923  
G01 X-3.0000 Y1.2901  
G01 X-3.0000 Y1.2898  
G01 X-2.9925 Y1.2571  
G01 X-2.9907 Y1.2568  
G01 X-2.9848 Y1.2544  
G01 X-2.9796 Y1.2509  
G01 X-2.9751 Y1.2464  
G01 X-2.9716 Y1.2412  
G01 X-2.9692 Y1.2353  
G01 X-2.9680 Y1.2292  
G01 X-2.9680 Y1.1708  
G01 X-2.9692 Y1.1647  
G01 X-2.9716 Y1.1588  
G01 X-2.9751 Y1.1536  
G01 X-2.9796 Y1.1491  
G01 X-2.9848 Y1.1456  
G01 X-2.9907 Y1.1432  
G01 X-2.9968 Y1.1420  
G01 X-3.0032 Y1.1420  
G01 X-3.0093 Y1.1432  
G01 X-3.0152 Y1.1456  
G01 X-3.0204 Y1.1491  
G01 X-3.0249 Y1.1536  
G01 X-3.0284 Y1.1588  
G01 X-3.0308 Y1.1647  
G01 X-3.0320 Y1.1708  
G01 X-3.0320 Y1.2292  
G01 X-3.0308 Y1.2353  
G01 X-3.0294 Y1.2387  
G01 X-3.0359 Y1.2675  
G01 X-3.1349 Y1.2675  
G01 X-3.1680 Y1.2223  
G01 X-3.1680 Y1.1838  
G01 X-3.1340 Y1.1498  
G01 X-3.1314 Y1.1452  
G01 X-3.1300 Y1.1401  
G01 X-3.1300 Y0.8381  
G01 X-3.1275 Y0.8368  
G01 X-3.1220 Y0.8328  
G01 X-3.1172 Y0.8280  
G01 X-3.1132 Y0.8225  
G01 X-3.1102 Y0.8165  
G01 X-3.1081 Y0.8101  
G01 X-3.1070 Y0.8034  
G01 X-3.1070 Y0.7966  
G01 X-3.1081 Y0.7899  
G01 X-3.1092 Y0.7863  
G01 X-2.9200 Y0.9588  
G01 X-2.9200 Y1.1489  
G01 X-2.9204 Y1.1491  
G01 X-2.9249 Y1.1536  
G01 X-2.9284 Y1.1588  
G01 X-2.9308 Y1.1647  
G01 X-2.9320 Y1.1708  
G01 X-2.9320 Y1.2292  
G01 X-2.9308 Y1.2353  
G01 X-2.9284 Y1.2412  
G01 X-2.9249 Y1.2464  
G01 X-2.9204 Y1.2509  
G01 X-2.9152 Y1.2544  
G01 X-2.9093 Y1.2568  
G01 X-2.9032 Y1.2580  
G01 X-2.8968 Y1.2580  
G01 X-2.8907 Y1.2568  
G01 X-2.8860 Y1.2548  
G01 X-2.8373 Y1.3035  
G01 X-2.8327 Y1.3061  
G01 X-2.8276 Y1.3075  
G01 X-2.4974 Y1.3075  
G01 X-2.4923 Y1.3061  
G01 X-2.4877 Y1.3035  
G01 X-2.4840 Y1.2998  
G01 X-2.4814 Y1.2952  
G01 X-2.4800 Y1.2901  
G01 X-2.4800 Y1.2511  
G01 X-2.4796 Y1.2509  
G01 X-2.4751 Y1.2464  
G01 X-2.4716 Y1.2412  
G01 X-2.4692 Y1.2353  
G01 X-2.4680 Y1.2292  
G01 X-2.4680 Y1.1708  
G01 X-2.4692 Y1.1647  
G01 X-2.4716 Y1.1588  
G01 X-2.4751 Y1.1536  
G01 X-2.4796 Y1.1491  
G01 X-2.4848 Y1.1456  
G01 X-2.4907 Y1.1432  
G01 X-2.4968 Y1.1420  
G01 X-2.5032 Y1.1420  
G01 X-2.5093 Y1.1432  
G01 X-2.5152 Y1.1456  
G01 X-2.5204 Y1.1491  
G01 X-2.5249 Y1.1536  
G01 X-2.5284 Y1.1588  
G01 X-2.5308 Y1.1647  
G01 X-2.5320 Y1.1708  
G01 X-2.5320 Y1.2292  
G01 X-2.5308 Y1.2353  
G01 X-2.5284 Y1.2412  
G01 X-2.5249 Y1.2464  
G01 X-2.5204 Y1.2509  
G01 X-2.5200 Y1.2511  
G01 X-2.5200 Y1.2675  
G01 X-2.8167 Y1.2675  
G01 X-2.8680 Y1.2162  
G01 X-2.8680 Y1.1708  
G01 X-2.8692 Y1.1647  
G01 X-2.8716 Y1.1588  
G01 X-2.8751 Y1.1536  
G01 X-2.8796 Y1.1491  
G01 X-2.8800 Y1.1489  
G01 X-2.8800 Y0.9522  
G01 X-2.8799 Y0.9517  
G01 X-2.8800 Y0.9495  
G01 X-2.8800 Y0.9474  
G01 X-2.8801 Y0.9469  
G01 X-2.8801 Y0.9464  
G01 X-2.8808 Y0.9444  
G01 X-2.8814 Y0.9423  
G01 X-2.8816 Y0.9419  
G01 X-2.8817 Y0.9414  
G01 X-2.8829 Y0.9396  
G01 X-2.8840 Y0.9377  
G01 X-2.8843 Y0.9374  
G01 X-2.8846 Y0.9370  
G01 X-2.8862 Y0.9355  
G01 X-2.8877 Y0.9340  
G01 X-2.8881 Y0.9338  
G01 X-3.2262 Y0.6255  
G01 X-3.2277 Y0.6240  
G01 X-3.2281 Y0.6238  
G01 X-3.2285 Y0.6234  
G01 X-3.2304 Y0.6224  
G01 X-3.2323 Y0.6214  
G01 X-3.2327 Y0.6212  
G01 X-3.2331 Y0.6210  
G01 X-3.2353 Y0.6206  
G01 X-3.2374 Y0.6200  
G01 X-3.2378 Y0.6200  
G01 X-3.2383 Y0.6199  
G01 X-3.2405 Y0.6200  
G01 X-3.3421 Y0.6200  
G01 X-3.4050 Y0.5311  
G01 X-3.4050 Y0.4667  
G01 X-3.3645 Y0.3750  
G01 X-3.0350 Y0.3750  
G01 X-2.8930 Y0.4998  
G01 X-2.8930 Y0.5034  
G01 X-2.8919 Y0.5101  
G01 X-2.8898 Y0.5165  
G01 X-2.8868 Y0.5225  
G01 X-2.8828 Y0.5280  
G01 X-2.8780 Y0.5328  
G01 X-2.8725 Y0.5368  
G01 X-2.8700 Y0.5381  
G01 X-2.8700 Y0.6119  
G01 X-2.8725 Y0.6132  
G01 X-2.8780 Y0.6172  
G01 X-2.8828 Y0.6220  
G01 X-2.8868 Y0.6275  
G01 X-2.8898 Y0.6335  
G01 X-2.8919 Y0.6399  
G01 X-2.8930 Y0.6466  
G01 X-2.8930 Y0.6534  
G01 X-2.8919 Y0.6601  
G01 X-2.8898 Y0.6665  
G01 X-2.8868 Y0.6725  
G01 X-2.8828 Y0.6780  
G01 X-2.8780 Y0.6828  
G01 X-2.8725 Y0.6868  
G01 X-2.8665 Y0.6898  
G01 X-2.8601 Y0.6919  
G01 X-2.8534 Y0.6930  
G01 X-2.8466 Y0.6930  
G01 X-2.8399 Y0.6919  
G01 X-2.8335 Y0.6898  
G01 X-2.8275 Y0.6868  
G01 X-2.8220 Y0.6828  
G01 X-2.8172 Y0.6780  
G01 X-2.8132 Y0.6725  
G01 X-2.8102 Y0.6665  
G01 X-2.8081 Y0.6601  
G01 X-2.8070 Y0.6534  
G01 X-2.8070 Y0.6466  
G01 X-2.8081 Y0.6399  
G01 X-2.8102 Y0.6335  
G01 X-2.8132 Y0.6275  
G01 X-2.8172 Y0.6220  
G01 X-2.8220 Y0.6172  
G01 X-2.8275 Y0.6132  
G01 X-2.8300 Y0.6119  
G01 X-2.8300 Y0.5381  
G01 X-2.8275 Y0.5368  
G01 X-2.8220 Y0.5328  
G01 X-2.8172 Y0.5280  
G01 X-2.8132 Y0.5225  
G01 X-2.8102 Y0.5165  
G01 X-2.8081 Y0.5101  
G01 X-2.8070 Y0.5034  
G01 X-2.8070 Y0.4966  
G01 X-2.8081 Y0.4899  
G01 X-2.8102 Y0.4835  
G01 X-2.8132 Y0.4775  
G01 X-2.8172 Y0.4720  
G01 X-2.8220 Y0.4672  
G01 X-2.8275 Y0.4632  
G01 X-2.8335 Y0.4602  
G01 X-2.8399 Y0.4581  
G01 X-2.8466 Y0.4570  
G01 X-2.8534 Y0.4570  
G01 X-2.8601 Y0.4581  
G01 X-2.8665 Y0.4602  
G01 X-2.8725 Y0.4632  
G01 X-2.8734 Y0.4638  
G01 X-3.0138 Y0.3404  
G01 X-3.0152 Y0.3390  
G01 X-3.0158 Y0.3387  
G01 X-3.0163 Y0.3382  
G01 X-3.0181 Y0.3374  
G01 X-3.0198 Y0.3364  
G01 X-3.0204 Y0.3362  
G01 X-3.0210 Y0.3359  
G01 X-3.0229 Y0.3355  
G01 X-3.0249 Y0.3350  
G01 X-3.0255 Y0.3350  
G01 X-3.0262 Y0.3349  
G01 X-3.0281 Y0.3350  
G01 X-3.3760 Y0.3350  
G01 X-3.3770 Y0.3348  
G01 X-3.3786 Y0.3350  
G01 X-3.3801 Y0.3350  
G01 X-3.3812 Y0.3353  
G01 X-3.3823 Y0.3354  
G01 X-3.3837 Y0.3360  
G01 X-3.3852 Y0.3364  
G01 X-3.3862 Y0.3369  
G01 X-3.3872 Y0.3373  
G01 X-3.3884 Y0.3382  
G01 X-3.3898 Y0.3390  
G01 X-3.3905 Y0.3398  
G01 X-3.3914 Y0.3404  
G01 X-3.3924 Y0.3416  
G01 X-3.3935 Y0.3427  
G01 X-3.3940 Y0.3437  
G01 X-3.3947 Y0.3445  
G01 X-3.3954 Y0.3459  
G01 X-3.3961 Y0.3473  
G01 X-3.3964 Y0.3483  
G01 X-3.4429 Y0.4534  
G01 X-3.4436 Y0.4548  
G01 X-3.4439 Y0.4558  
G01 X-3.4444 Y0.4568  
G01 X-3.4446 Y0.4584  
G01 X-3.4450 Y0.4599  
G01 X-3.4450 Y0.4610  
G01 X-3.4452 Y0.4620  
G01 X-3.4450 Y0.4636  
G01 X-3.4450 Y0.5358  
G01 X-3.4452 Y0.5367  
G01 X-3.4450 Y0.5384  
G01 X-3.4450 Y0.5401  
G01 X-3.4448 Y0.5410  
G01 X-3.4447 Y0.5420  
G01 X-3.4441 Y0.5436  
G01 X-3.4436 Y0.5452  
G01 X-3.4432 Y0.5460  
G01 X-3.4428 Y0.5469  
G01 X-3.4419 Y0.5483  
G01 X-3.4410 Y0.5498  
G01 X-3.4403 Y0.5504  
G01 X-3.3694 Y0.6508  
G01 X-3.3685 Y0.6523  
G01 X-3.3678 Y0.6529  
G01 X-3.3673 Y0.6537  
G01 X-3.3660 Y0.6548  
G01 X-3.3648 Y0.6560  
G01 X-3.3640 Y0.6565  
G01 X-3.3633 Y0.6571  
G01 X-3.3617 Y0.6578  
G01 X-3.3602 Y0.6586  
G01 X-3.3593 Y0.6589  
G01 X-3.3585 Y0.6593  
G01 X-3.3568 Y0.6596  
G01 X-3.3551 Y0.6600  
G01 X-3.3542 Y0.6600  
G01 X-3.3533 Y0.6602  
G01 X-3.3516 Y0.6600  
G01 X-3.2477 Y0.6600  
G01 X-3.1403 Y0.7580  
G01 X-3.1466 Y0.7570  
G01 X-3.1534 Y0.7570  
G01 X-3.1601 Y0.7581  
G01 X-3.1665 Y0.7602  
G01 X-3.1725 Y0.7632  
G01 X-3.1777 Y0.7669  
G01 X-3.3100 Y0.6842  
G01 X-3.3102 Y0.6840  
G01 X-3.3122 Y0.6829  
G01 X-3.3141 Y0.6816  
G01 X-3.3145 Y0.6815  
G01 X-3.3148 Y0.6814  
G01 X-3.3170 Y0.6808  
G01 X-3.3192 Y0.6801  
G01 X-3.3195 Y0.6801  
G01 X-3.3199 Y0.6800  
G01 X-3.3221 Y0.6800  
G01 X-3.3244 Y0.6799  
G01 X-3.3248 Y0.6800  
G01 X-3.3737 Y0.6800  
G01 X-3.4550 Y0.5445  
G01 X-3.4550 Y0.3150  
G01 X-2.8837 Y0.3150  
G01 X-2.4912 Y0.7370  
G01 X-2.4910 Y0.7373  
G01 X-2.4894 Y0.7389  
G01 X-2.4879 Y0.7405  
G01 X-2.4875 Y0.7407  
G01 X-2.4873 Y0.7410  
G01 X-2.4853 Y0.7421  
G01 X-2.4834 Y0.7433  
G01 X-2.4830 Y0.7435  
G01 X-2.4827 Y0.7436  
G01 X-2.4805 Y0.7442  
G01 X-2.4784 Y0.7449  
G01 X-2.4780 Y0.7449  
G01 X-2.4776 Y0.7450  
G01 X-2.4754 Y0.7450  
G01 X-2.4731 Y0.7451  
G01 X-2.4727 Y0.7450  
G01 X-2.3349 Y0.7450  
G01 X-2.3298 Y0.7436  
G01 X-2.3252 Y0.7410  
G01 X-2.1792 Y0.5950  
G01 X-1.9224 Y0.5950  
G01 X-1.9173 Y0.5936  
G01 X-1.9127 Y0.5910  
G01 X-1.5917 Y0.2700  
G01 X-1.3349 Y0.2700  
G01 X-1.3298 Y0.2686  
G01 X-1.3252 Y0.2660  
G01 X-1.2502 Y0.1910  
G01 X-1.2465 Y0.1873  
G01 X-1.2439 Y0.1827  
G01 X-1.2425 Y0.1776  
G01 X-1.2425 Y0.0950  
G01 X-1.0458 Y0.0950  
G01 X-1.0011 Y0.1397  
G01 X-1.0021 Y0.1461  
G01 X-1.0021 Y0.1539  
G01 X-1.0009 Y0.1615  
G01 X-0.9986 Y0.1688  
G01 X-0.9951 Y0.1757  
G01 X-0.9905 Y0.1819  
G01 X-0.9851 Y0.1874  
G01 X-0.9788 Y0.1919  
G01 X-0.9720 Y0.1954  
G01 X-0.9646 Y0.1978  
G01 X-0.9570 Y0.1990  
G01 X-0.9493 Y0.1990  
G01 X-0.9417 Y0.1978  
G01 X-0.9343 Y0.1954  
G01 X-0.9275 Y0.1919  
G01 X-0.9212 Y0.1874  
G01 X-0.9158 Y0.1819  
G01 X-0.9112 Y0.1757  
G01 X-0.9083 Y0.1700  
G01 X-0.6450 Y0.1700  
G01 X-0.6450 Y0.6667  
G01 X-0.6834 Y0.7051  
G01 X-1.2988 Y0.7150  
G01 X-1.2999 Y0.7148  
G01 X-1.3014 Y0.7150  
G01 X-1.3030 Y0.7150  
G01 X-1.3040 Y0.7153  
G01 X-1.3051 Y0.7155  
G01 X-1.3065 Y0.7161  
G01 X-1.3080 Y0.7165  
G01 X-1.3090 Y0.7171  
G01 X-1.3100 Y0.7175  
G01 X-1.3112 Y0.7184  
G01 X-1.3125 Y0.7192  
G01 X-1.3133 Y0.7200  
G01 X-1.3142 Y0.7207  
G01 X-1.3151 Y0.7219  
G01 X-1.3162 Y0.7230  
G01 X-1.3167 Y0.7239  
G01 X-1.3174 Y0.7248  
G01 X-1.3180 Y0.7262  
G01 X-1.3188 Y0.7276  
G01 X-1.3190 Y0.7287  
G01 X-1.3195 Y0.7297  
G01 X-1.3197 Y0.7312  
G01 X-1.3200 Y0.7327  
G01 X-1.3200 Y0.7338  
G01 X-1.3626 Y1.0446  
G01 X-1.3652 Y1.0456  
G01 X-1.3704 Y1.0491  
G01 X-1.3749 Y1.0536  
G01 X-1.3784 Y1.0588  
G01 X-1.3808 Y1.0647  
G01 X-1.3820 Y1.0708  
G01 X-1.3820 Y1.1292  
G01 X-1.3808 Y1.1353  
G01 X-1.3784 Y1.1412  
G01 X-1.3749 Y1.1464  
G01 X-1.3704 Y1.1509  
G01 X-1.3652 Y1.1544  
G01 X-1.3593 Y1.1568  
G01 X-1.3532 Y1.1580  
G01 X-1.3468 Y1.1580  
G01 X-1.3407 Y1.1568  
G01 X-1.3348 Y1.1544  
G01 X-1.3296 Y1.1509  
G01 X-1.3251 Y1.1464  
G01 X-1.3216 Y1.1412  
G01 X-1.3192 Y1.1353  
G01 X-1.3180 Y1.1292  
G01 X-1.3180 Y1.0708  
G01 X-1.3192 Y1.0647  
G01 X-1.3216 Y1.0588  
G01 X-1.3237 Y1.0557  
G01 X-1.2825 Y0.7547  
G01 X-0.6936 Y0.7453  
G01 X-0.6910 Y0.7498  
G01 X-0.6873 Y0.7535  
G01 X-0.6827 Y0.7561  
G01 X-0.6776 Y0.7575  
G01 X-0.5450 Y0.7575  
G01 X-0.5450 Y1.9300  
G01 X-0.5917 Y1.9300  
G01 X-0.6089 Y1.9128  
G01 X-0.6081 Y1.9101  
G01 X-0.6070 Y1.9034  
G01 X-0.6070 Y1.8966  
G01 X-0.6081 Y1.8899  
G01 X-0.6102 Y1.8835  
G01 X-0.6132 Y1.8775  
G01 X-0.6172 Y1.8720  
G01 X-0.6220 Y1.8672  
G01 X-0.6275 Y1.8632  
G01 X-0.6335 Y1.8602  
G01 X-0.6399 Y1.8581  
G01 X-0.6466 Y1.8570  
G01 X-0.6534 Y1.8570  
G01 X-0.6601 Y1.8581  
G01 X-0.6665 Y1.8602  
G01 X-0.6725 Y1.8632  
G01 X-0.6780 Y1.8672  
G01 X-0.6828 Y1.8720  
G01 X-0.6868 Y1.8775  
G01 X-0.6898 Y1.8835  
G01 X-0.6919 Y1.8899  
G01 X-0.6930 Y1.8966  
G01 X-0.6930 Y1.8995  
G01 X-0.7968 Y1.9867  
G01 X-0.9116 Y2.0154  
G01 X-0.9134 Y2.0157  
G01 X-0.9141 Y2.0160  
G01 X-0.9149 Y2.0162  
G01 X-0.9165 Y2.0171  
G01 X-0.9182 Y2.0179  
G01 X-0.9188 Y2.0184  
G01 X-0.9195 Y2.0188  
G01 X-0.9208 Y2.0201  
G01 X-1.1447 Y2.2050  
G01 X-1.4042 Y2.2050  
G01 X-1.4070 Y2.2022  
G01 X-1.4070 Y2.1966  
G01 X-1.4081 Y2.1899  
G01 X-1.4102 Y2.1835  
G01 X-1.4132 Y2.1775  
G01 X-1.4172 Y2.1720  
G01 X-1.4220 Y2.1672  
G01 X-1.4275 Y2.1632  
G01 X-1.4335 Y2.1602  
G01 X-1.4399 Y2.1581  
G01 X-1.4466 Y2.1570  
G01 X-1.4534 Y2.1570  
G01 X-1.4601 Y2.1581  
G01 X-1.4665 Y2.1602  
G01 X-1.4725 Y2.1632  
G01 X-1.4780 Y2.1672  
G01 X-1.4828 Y2.1720  
G01 X-1.4868 Y2.1775  
G01 X-1.4881 Y2.1800  
G01 X-1.6119 Y2.1800  
G01 X-1.6132 Y2.1775  
G01 X-1.6172 Y2.1720  
G01 X-1.6220 Y2.1672  
G01 X-1.6275 Y2.1632  
G01 X-1.6335 Y2.1602  
G01 X-1.6399 Y2.1581  
G01 X-1.6466 Y2.1570  
G01 X-1.6534 Y2.1570  
G01 X-1.6601 Y2.1581  
G01 X-1.6665 Y2.1602  
G01 X-1.6725 Y2.1632  
G01 X-1.6780 Y2.1672  
G01 X-1.6828 Y2.1720  
G01 X-1.6868 Y2.1775  
G01 X-1.6881 Y2.1800  
G01 X-2.0526 Y2.1800  
G01 X-2.0577 Y2.1814  
G01 X-2.0623 Y2.1840  
G01 X-2.0660 Y2.1877  
G01 X-2.0963 Y2.2180  
G01 X-2.1133 Y2.2180  
G01 X-2.1320 Y2.2367  
G01 X-2.1320 Y2.2633  
G01 X-2.1305 Y2.2647  
G01 X-2.3708 Y2.5050  
G01 X-2.6767 Y2.5050  
G01 X-2.6628 Y2.4911  
G01 X-2.6601 Y2.4919  
G01 X-2.6534 Y2.4930  
G01 X-2.6466 Y2.4930  
G01 X-2.6399 Y2.4919  
G01 X-2.6335 Y2.4898  
G01 X-2.6275 Y2.4868  
G01 X-2.6220 Y2.4828  
G01 X-2.6172 Y2.4780  
G01 X-2.6132 Y2.4725  
G01 X-2.6102 Y2.4665  
G01 X-2.6081 Y2.4601  
G01 X-2.6070 Y2.4534  
G01 X-2.6070 Y2.4466  
G01 X-2.6081 Y2.4399  
G01 X-2.6102 Y2.4335  
G01 X-2.6132 Y2.4275  
G01 X-2.6172 Y2.4220  
G01 X-2.6220 Y2.4172  
G01 X-2.6275 Y2.4132  
G01 X-2.6335 Y2.4102  
G01 X-2.6399 Y2.4081  
G01 X-2.6466 Y2.4070  
G01 X-2.6534 Y2.4070  
G01 X-2.6601 Y2.4081  
G01 X-2.6665 Y2.4102  
G01 X-2.6725 Y2.4132  
G01 X-2.6780 Y2.4172  
G01 X-2.6828 Y2.4220  
G01 X-2.6847 Y2.4246  
G01 X-2.8180 Y2.2912  
G01 X-2.8180 Y2.2867  
G01 X-2.8300 Y2.2747  
G01 X-2.8300 Y2.2253  
G01 X-2.8180 Y2.2133  
G01 X-2.8180 Y2.1867  
G01 X-2.8367 Y2.1680  
G01 X-2.8633 Y2.1680  
G01 X-2.8753 Y2.1800  
G01 X-3.0917 Y2.1800  
G01 X-3.1089 Y2.1628  
G01 X-3.1081 Y2.1601  
G01 X-3.1070 Y2.1534  
G01 X-3.1070 Y2.1466  
G01 X-3.1081 Y2.1399  
G01 X-3.1102 Y2.1335  
G01 X-3.1132 Y2.1275  
G01 X-3.1172 Y2.1220  
G01 X-3.1192 Y2.1200  
G01 X-2.9750 Y1.8250  
G01 X-2.8224 Y1.8250  
G01 X-2.8173 Y1.8236  
G01 X-2.8127 Y1.8210  
G01 X-2.8090 Y1.8173  
G01 X-2.8064 Y1.8127  
G01 X-2.8050 Y1.8076  
G01 X-2.8050 Y1.6724  
G01 X-2.8064 Y1.6673  
G01 X-2.8090 Y1.6627  
G01 X-2.8127 Y1.6590  
G01 X-2.8627 Y1.6090  
G01 X-2.8673 Y1.6064  
G01 X-2.8724 Y1.6050  
G01 X-2.8800 Y1.6050  
G01 X-2.8800 Y1.5511  
G01 X-2.8796 Y1.5509  
G01 X-2.8751 Y1.5464  
G01 X-2.8716 Y1.5412  
G01 X-2.8692 Y1.5353  
G01 X-2.8680 Y1.5292  
G01 X-2.8680 Y1.4708  
G01 X-2.8682 Y1.4701  
G01 X-2.8430 Y1.4225  
G01 X-2.7448 Y1.4225  
G01 X-2.7312 Y1.4667  
G01 X-2.7320 Y1.4708  
G01 X-2.7320 Y1.5292  
G01 X-2.7308 Y1.5353  
G01 X-2.7284 Y1.5412  
G01 X-2.7249 Y1.5464  
G01 X-2.7204 Y1.5509  
G01 X-2.7152 Y1.5544  
G01 X-2.7093 Y1.5568  
G01 X-2.7032 Y1.5580  
G01 X-2.6968 Y1.5580  
G01 X-2.6907 Y1.5568  
G01 X-2.6848 Y1.5544  
G01 X-2.6796 Y1.5509  
G01 X-2.6751 Y1.5464  
G01 X-2.6716 Y1.5412  
G01 X-2.6692 Y1.5353  
G01 X-2.6680 Y1.5292  
G01 X-2.6680 Y1.4708  
G01 X-2.6692 Y1.4647  
G01 X-2.6716 Y1.4588  
G01 X-2.6751 Y1.4536  
G01 X-2.6796 Y1.4491  
G01 X-2.6848 Y1.4456  
G01 X-2.6907 Y1.4432  
G01 X-2.6968 Y1.4420  
G01 X-2.7108 Y1.3970  
G01 X-2.7114 Y1.3948  
G01 X-2.7115 Y1.3945  
G01 X-2.7117 Y1.3941  
G01 X-2.7129 Y1.3922  
G01 X-2.7140 Y1.3902  
G01 X-2.7143 Y1.3900  
G01 X-2.7145 Y1.3896  
G01 X-2.7161 Y1.3881  
G01 X-2.7177 Y1.3865  
G01 X-2.7180 Y1.3863  
G01 X-2.7183 Y1.3861  
G01 X-2.7203 Y1.3850  
G01 X-2.7223 Y1.3839  
G01 X-2.7226 Y1.3838  
G01 X-2.7230 Y1.3836  
G01 X-2.7252 Y1.3831  
G01 X-2.7274 Y1.3825  
G01 X-2.7277 Y1.3825  
G01 X-2.7281 Y1.3824  
G01 X-2.7304 Y1.3825  
G01 X-2.8527 Y1.3825  
G01 X-2.8531 Y1.3824  
G01 X-2.8554 Y1.3825  
G01 X-2.8576 Y1.3825  
G01 X-2.8580 Y1.3826  
G01 X-2.8584 Y1.3826  
G01 X-2.8605 Y1.3833  
G01 X-2.8627 Y1.3839  
G01 X-2.8630 Y1.3840  
G01 X-2.8634 Y1.3842  
G01 X-2.8653 Y1.3854  
G01 X-2.8673 Y1.3865  
G01 X-2.8675 Y1.3868  
G01 X-2.8679 Y1.3870  
G01 X-2.8694 Y1.3886  
G01 X-2.8710 Y1.3902  
G01 X-2.8712 Y1.3905  
G01 X-2.8714 Y1.3908  
G01 X-2.8725 Y1.3928  
G01 X-2.8736 Y1.3948  
G01 X-2.8737 Y1.3951  
G01 X-2.8985 Y1.4420  
G01 X-2.9032 Y1.4420  
G01 X-2.9093 Y1.4432  
G01 X-2.9152 Y1.4456  
G01 X-2.9204 Y1.4491  
G01 X-2.9249 Y1.4536  
G01 X-2.9284 Y1.4588  
G01 X-2.9308 Y1.4647  
G01 X-2.9320 Y1.4708  
G01 X-2.9320 Y1.5292  
G01 X-2.9308 Y1.5353  
G01 X-2.9284 Y1.5412  
G01 X-2.9249 Y1.5464  
G01 X-2.9204 Y1.5509  
G01 X-2.9200 Y1.5511  
G01 X-2.9200 Y1.6276  
G01 X-2.9186 Y1.6327  
G01 X-2.9160 Y1.6373  
G01 X-2.9123 Y1.6410  
G01 X-2.9077 Y1.6436  
G01 X-2.9026 Y1.6450  
G01 X-2.8833 Y1.6450  
G01 X-2.8450 Y1.6833  
G01 X-2.8450 Y1.7850  
G01 X-2.9856 Y1.7850  
G01 X-2.9863 Y1.7849  
G01 X-2.9882 Y1.7850  
G01 X-2.9901 Y1.7850  
G01 X-2.9908 Y1.7852  
G01 X-2.9915 Y1.7852  
G01 X-2.9933 Y1.7859  
G01 X-2.9952 Y1.7864  
G01 X-2.9958 Y1.7867  
G01 X-2.9965 Y1.7869  
G01 X-2.9981 Y1.7880  
G01 X-2.9998 Y1.7890  
G01 X-3.0003 Y1.7895  
G01 X-3.0009 Y1.7899  
G01 X-3.0021 Y1.7913  
G01 X-3.0035 Y1.7927  
G01 X-3.0039 Y1.7933  
G01 X-3.0043 Y1.7939  
G01 X-3.0052 Y1.7956  
G01 X-3.0061 Y1.7973  
G01 X-3.0063 Y1.7980  
G01 X-3.1577 Y2.1077  
G01 X-3.1601 Y2.1081  
G01 X-3.1665 Y2.1102  
G01 X-3.1725 Y2.1132  
G01 X-3.1780 Y2.1172  
G01 X-3.1828 Y2.1220  
G01 X-3.1868 Y2.1275  
G01 X-3.1898 Y2.1335  
G01 X-3.1919 Y2.1399  
G01 X-3.1930 Y2.1466  
G01 X-3.1930 Y2.1534  
G01 X-3.1919 Y2.1601  
G01 X-3.1898 Y2.1665  
G01 X-3.1868 Y2.1725  
G01 X-3.1828 Y2.1780  
G01 X-3.1780 Y2.1828  
G01 X-3.1725 Y2.1868  
G01 X-3.1665 Y2.1898  
G01 X-3.1601 Y2.1919  
G01 X-3.1534 Y2.1930  
G01 X-3.1466 Y2.1930  
G01 X-3.1399 Y2.1919  
G01 X-3.1372 Y2.1911  
G01 X-3.1160 Y2.2123  
G01 X-3.1123 Y2.2160  
G01 X-3.1077 Y2.2186  
G01 X-3.1026 Y2.2200  
G01 X-2.8753 Y2.2200  
G01 X-2.8700 Y2.2253  
G01 X-2.8700 Y2.2747  
G01 X-2.8820 Y2.2867  
G01 X-2.8820 Y2.3133  
G01 X-2.8633 Y2.3320  
G01 X-2.8367 Y2.3320  
G01 X-2.8353 Y2.3305  
G01 X-2.7035 Y2.4623  
G01 X-2.6998 Y2.4660  
G01 X-2.6963 Y2.4680  
G01 X-2.7310 Y2.5027  
G01 X-2.7348 Y2.5065  
G01 X-2.8372 Y2.6089  
G01 X-2.8399 Y2.6081  
G01 X-2.8466 Y2.6070  
G01 X-2.8534 Y2.6070  
G01 X-2.8601 Y2.6081  
G01 X-2.8665 Y2.6102  
G01 X-2.8725 Y2.6132  
G01 X-2.8780 Y2.6172  
G01 X-2.8828 Y2.6220  
G01 X-2.8868 Y2.6275  
G01 X-2.8898 Y2.6335  
G01 X-2.8919 Y2.6399  
G01 X-2.8930 Y2.6466  
G01 X-2.8930 Y2.6534  
G01 X-2.8919 Y2.6601  
G01 X-2.8898 Y2.6665  
G01 X-2.8868 Y2.6725  
G01 X-2.8828 Y2.6780  
G01 X-2.8780 Y2.6828  
G01 X-2.8725 Y2.6868  
G01 X-2.8665 Y2.6898  
G01 X-2.8601 Y2.6919  
G01 X-2.8534 Y2.6930  
G01 X-2.8466 Y2.6930  
G01 X-2.8399 Y2.6919  
G01 X-2.8335 Y2.6898  
G01 X-2.8275 Y2.6868  
G01 X-2.8220 Y2.6828  
G01 X-2.8172 Y2.6780  
G01 X-2.8132 Y2.6725  
G01 X-2.8102 Y2.6665  
G01 X-2.8081 Y2.6601  
G01 X-2.8070 Y2.6534  
G01 X-2.8070 Y2.6466  
G01 X-2.8081 Y2.6399  
G01 X-2.8089 Y2.6372  
G01 X-2.7164 Y2.5447  
G01 X-2.7151 Y2.5450  
G01 X-2.3599 Y2.5450  
G01 X-2.3548 Y2.5436  
G01 X-2.3502 Y2.5410  
G01 X-2.3465 Y2.5373  
G01 X-2.0912 Y2.2820  
G01 X-2.0867 Y2.2820  
G01 X-2.0680 Y2.2633  
G01 X-2.0680 Y2.2463  
G01 X-2.0417 Y2.2200  
G01 X-1.6881 Y2.2200  
G01 X-1.6868 Y2.2225  
G01 X-1.6828 Y2.2280  
G01 X-1.6780 Y2.2328  
G01 X-1.6725 Y2.2368  
G01 X-1.6665 Y2.2398  
G01 X-1.6601 Y2.2419  
G01 X-1.6534 Y2.2430  
G01 X-1.6466 Y2.2430  
G01 X-1.6399 Y2.2419  
G01 X-1.6335 Y2.2398  
G01 X-1.6275 Y2.2368  
G01 X-1.6220 Y2.2328  
G01 X-1.6172 Y2.2280  
G01 X-1.6132 Y2.2225  
G01 X-1.6119 Y2.2200  
G01 X-1.4881 Y2.2200  
G01 X-1.4868 Y2.2225  
G01 X-1.4828 Y2.2280  
G01 X-1.4780 Y2.2328  
G01 X-1.4725 Y2.2368  
G01 X-1.4665 Y2.2398  
G01 X-1.4601 Y2.2419  
G01 X-1.4534 Y2.2430  
G01 X-1.4466 Y2.2430  
G01 X-1.4399 Y2.2419  
G01 X-1.4335 Y2.2398  
G01 X-1.4285 Y2.2373  
G01 X-1.4248 Y2.2410  
G01 X-1.4202 Y2.2436  
G01 X-1.4151 Y2.2450  
G01 X-1.1385 Y2.2450  
G01 X-1.1368 Y2.2452  
G01 X-1.1358 Y2.2450  
G01 X-1.1349 Y2.2450  
G01 X-1.1332 Y2.2446  
G01 X-1.1316 Y2.2443  
G01 X-1.1307 Y2.2439  
G01 X-1.1298 Y2.2436  
G01 X-1.1283 Y2.2428  
G01 X-1.1268 Y2.2421  
G01 X-1.1261 Y2.2415  
G01 X-1.1252 Y2.2410  
G01 X-1.1240 Y2.2398  
G01 X-0.8983 Y2.0533  
G01 X-0.7833 Y2.0246  
G01 X-0.7814 Y2.0242  
G01 X-0.7808 Y2.0239  
G01 X-0.7801 Y2.0238  
G01 X-0.7784 Y2.0228  
G01 X-0.7767 Y2.0220  
G01 X-0.7761 Y2.0216  
G01 X-0.7755 Y2.0212  
G01 X-0.7741 Y2.0199  
G01 X-0.6740 Y1.9357  
G01 X-0.6725 Y1.9368  
G01 X-0.6665 Y1.9398  
G01 X-0.6601 Y1.9419  
G01 X-0.6534 Y1.9430  
G01 X-0.6466 Y1.9430  
G01 X-0.6399 Y1.9419  
G01 X-0.6372 Y1.9411  
G01 X-0.6160 Y1.9623  
G01 X-0.6123 Y1.9660  
G01 X-0.6077 Y1.9686  
G01 X-0.6026 Y1.9700  
G01 X-0.5700 Y1.9700  
G01 X-0.5700 Y2.2619  
G01 X-0.5725 Y2.2632  
G01 X-0.5780 Y2.2672  
G01 X-0.5828 Y2.2720  
G01 X-0.5868 Y2.2775  
G01 X-0.5898 Y2.2835  
G01 X-0.5919 Y2.2899  
G01 X-0.5930 Y2.2966  
G01 X-0.5930 Y2.3022  
G01 X-0.9563 Y2.6655  
G01 X-0.9627 Y2.6590  
G01 X-0.9673 Y2.6564  
G01 X-0.9724 Y2.6550  
G01 X-1.0667 Y2.6550  
G01 X-1.2089 Y2.5128  
G01 X-1.2081 Y2.5101  
G01 X-1.2070 Y2.5034  
G01 X-1.2070 Y2.4966  
G01 X-1.2081 Y2.4899  
G01 X-1.2102 Y2.4835  
G01 X-1.2132 Y2.4775  
G01 X-1.2172 Y2.4720  
G01 X-1.2220 Y2.4672  
G01 X-1.2275 Y2.4632  
G01 X-1.2335 Y2.4602  
G01 X-1.2399 Y2.4581  
G01 X-1.2466 Y2.4570  
G01 X-1.2534 Y2.4570  
G01 X-1.2601 Y2.4581  
G01 X-1.2665 Y2.4602  
G01 X-1.2725 Y2.4632  
G01 X-1.2780 Y2.4672  
G01 X-1.2828 Y2.4720  
G01 X-1.2868 Y2.4775  
G01 X-1.2898 Y2.4835  
G01 X-1.2919 Y2.4899  
G01 X-1.2930 Y2.4966  
G01 X-1.2930 Y2.5034  
G01 X-1.2919 Y2.5101  
G01 X-1.2898 Y2.5165  
G01 X-1.2868 Y2.5225  
G01 X-1.2828 Y2.5280  
G01 X-1.2780 Y2.5328  
G01 X-1.2725 Y2.5368  
G01 X-1.2665 Y2.5398  
G01 X-1.2601 Y2.5419  
G01 X-1.2534 Y2.5430  
G01 X-1.2466 Y2.5430  
G01 X-1.2399 Y2.5419  
G01 X-1.2372 Y2.5411  
G01 X-1.0910 Y2.6873  
G01 X-1.0873 Y2.6910  
G01 X-1.0827 Y2.6936  
G01 X-1.0776 Y2.6950  
G01 X-0.9833 Y2.6950  
G01 X-0.9723 Y2.7060  
G01 X-0.9685 Y2.7098  
G01 X-0.9430 Y2.7353  
G01 X-0.9430 Y2.7678  
G01 X-0.9178 Y2.7930  
G01 X-0.8822 Y2.7930  
G01 X-0.8592 Y2.7700  
G01 X-0.8408 Y2.7700  
G01 X-0.8178 Y2.7930  
G01 X-0.7822 Y2.7930  
G01 X-0.7592 Y2.7700  
G01 X-0.7408 Y2.7700  
G01 X-0.7200 Y2.7908  
G01 X-0.7200 Y2.8092  
G01 X-0.7408 Y2.8300  
G01 X-0.7592 Y2.8300  
G01 X-0.7822 Y2.8070  
G01 X-0.8178 Y2.8070  
G01 X-0.8408 Y2.8300  
G01 X-0.8592 Y2.8300  
G01 X-0.8822 Y2.8070  
G01 X-0.9178 Y2.8070  
G01 X-0.9430 Y2.8322  
G01 X-0.9430 Y2.8678  
G01 X-0.9178 Y2.8930  
G01 X-0.8822 Y2.8930  
G01 X-0.8592 Y2.8700  
G01 X-0.8408 Y2.8700  
G01 X-0.8178 Y2.8930  
G01 X-0.7822 Y2.8930  
G01 X-0.7592 Y2.8700  
G01 X-0.7408 Y2.8700  
G01 X-0.7178 Y2.8930  
G01 X-0.6822 Y2.8930  
G01 X-0.6570 Y2.8678  
G01 X-0.6570 Y2.8322  
G01 X-0.6800 Y2.8092  
G01 X-0.6800 Y2.7908  
G01 X-0.6570 Y2.7678  
G01 X-0.6570 Y2.7322  
G01 X-0.6822 Y2.7070  
G01 X-0.7178 Y2.7070  
G01 X-0.7408 Y2.7300  
G01 X-0.7592 Y2.7300  
G01 X-0.7822 Y2.7070  
G01 X-0.8178 Y2.7070  
G01 X-0.8408 Y2.7300  
G01 X-0.8592 Y2.7300  
G01 X-0.8822 Y2.7070  
G01 X-0.9147 Y2.7070  
G01 X-0.9280 Y2.6938  
G01 X-0.5715 Y2.3373  
G01 X-0.5665 Y2.3398  
G01 X-0.5601 Y2.3419  
G01 X-0.5534 Y2.3430  
G01 X-0.5466 Y2.3430  
G01 X-0.5399 Y2.3419  
G01 X-0.5335 Y2.3398  
G01 X-0.5275 Y2.3368  
G01 X-0.5220 Y2.3328  
G01 X-0.5172 Y2.3280  
G01 X-0.5132 Y2.3225  
G01 X-0.5102 Y2.3165  
G01 X-0.5081 Y2.3101  
G01 X-0.5070 Y2.3034  
G01 X-0.5070 Y2.2966  
G01 X-0.5081 Y2.2899  
G01 X-0.5102 Y2.2835  
G01 X-0.5132 Y2.2775  
G01 X-0.5172 Y2.2720  
G01 X-0.5220 Y2.2672  
G01 X-0.5275 Y2.2632  
G01 X-0.5300 Y2.2619  
G01 X-0.5300 Y1.9700  
G01 X-0.4881 Y1.9700  
G01 X-0.4868 Y1.9725  
G01 X-0.4828 Y1.9780  
G01 X-0.4780 Y1.9828  
G01 X-0.4725 Y1.9868  
G01 X-0.4665 Y1.9898  
G01 X-0.4601 Y1.9919  
G01 X-0.4534 Y1.9930  
G01 X-0.4466 Y1.9930  
G01 X-0.4399 Y1.9919  
G01 X-0.4335 Y1.9898  
G01 X-0.4275 Y1.9868  
G01 X-0.4220 Y1.9828  
G01 X-0.4172 Y1.9780  
G01 X-0.4132 Y1.9725  
G01 X-0.4102 Y1.9665  
G01 X-0.4081 Y1.9601  
G01 X-0.4070 Y1.9534  
G01 X-0.4070 Y1.9466  
G01 X-0.4081 Y1.9399  
G01 X-0.4102 Y1.9335  
G01 X-0.4132 Y1.9275  
G01 X-0.4172 Y1.9220  
G01 X-0.4220 Y1.9172  
G01 X-0.4275 Y1.9132  
G01 X-0.4335 Y1.9102  
G01 X-0.4399 Y1.9081  
G01 X-0.4466 Y1.9070  
G01 X-0.4534 Y1.9070  
G01 X-0.4601 Y1.9081  
G01 X-0.4665 Y1.9102  
G01 X-0.4725 Y1.9132  
G01 X-0.4780 Y1.9172  
G01 X-0.4828 Y1.9220  
G01 X-0.4868 Y1.9275  
G01 X-0.4881 Y1.9300  
G01 X-0.5050 Y1.9300  
G01 X-0.5050 Y0.7349  
G01 X-0.5064 Y0.7298  
G01 X-0.5090 Y0.7252  
G01 X-0.5127 Y0.7215  
G01 X-0.5173 Y0.7189  
G01 X-0.5224 Y0.7175  
G01 X-0.6392 Y0.7175  
G01 X-0.6127 Y0.6910  
G01 X-0.6090 Y0.6873  
G01 X-0.6064 Y0.6827  
G01 X-0.6050 Y0.6776  
G01 X-0.6050 Y0.1474  
G01 X-0.6064 Y0.1423  
G01 X-0.6090 Y0.1377  
G01 X-0.6127 Y0.1340  
G01 X-0.6162 Y0.1320  
G01 X-0.5792 Y0.0950  
G01 X-0.2458 Y0.0950  
G01 X-0.2011 Y0.1397  
G01 X-0.2021 Y0.1461  
G01 X-0.2021 Y0.1539  
G01 X-0.2009 Y0.1615  
G01 X-0.1986 Y0.1688  
G01 X-0.1951 Y0.1757  
G01 X-0.1905 Y0.1819  
G01 X-0.1851 Y0.1874  
G01 X-0.1788 Y0.1919  
G01 X-0.1720 Y0.1954  
G01 X-0.1646 Y0.1978  
G01 X-0.1570 Y0.1990  
G01 X-0.1493 Y0.1990  
G01 X-0.1417 Y0.1978  
G01 X-0.1343 Y0.1954  
G01 X-0.1275 Y0.1919  
G01 X-0.1212 Y0.1874  
G01 X-0.1158 Y0.1819  
G01 X-0.1112 Y0.1757  
G01 X-0.1077 Y0.1688  
G01 X-0.1054 Y0.1615  
G01 X-0.1041 Y0.1539  
G01 X-0.1041 Y0.1461  
G01 X-0.1054 Y0.1385  
G01 X-0.1077 Y0.1312  
G01 X-0.1112 Y0.1243  
G01 X-0.1158 Y0.1181  
G00 Z0.0500  
G00 X-0.2840 Y0.1377  
G01 Z-0.0040 F10    
G01 X-0.2877 Y0.1340  F20    
G01 X-0.2923 Y0.1314  
G01 X-0.2974 Y0.1300  
G01 X-0.3052 Y0.1300  
G01 X-0.3081 Y0.1243  
G01 X-0.3126 Y0.1181  
G01 X-0.3181 Y0.1126  
G01 X-0.3243 Y0.1081  
G01 X-0.3312 Y0.1046  
G01 X-0.3385 Y0.1022  
G01 X-0.3461 Y0.1010  
G01 X-0.3539 Y0.1010  
G01 X-0.3615 Y0.1022  
G01 X-0.3688 Y0.1046  
G01 X-0.3757 Y0.1081  
G01 X-0.3819 Y0.1126  
G01 X-0.3874 Y0.1181  
G01 X-0.3919 Y0.1243  
G01 X-0.3954 Y0.1312  
G01 X-0.3978 Y0.1385  
G01 X-0.3990 Y0.1461  
G01 X-0.3990 Y0.1539  
G01 X-0.3978 Y0.1615  
G01 X-0.3954 Y0.1688  
G01 X-0.3919 Y0.1757  
G01 X-0.3874 Y0.1819  
G01 X-0.3819 Y0.1874  
G01 X-0.3757 Y0.1919  
G01 X-0.3688 Y0.1954  
G01 X-0.3615 Y0.1978  
G01 X-0.3539 Y0.1990  
G01 X-0.3461 Y0.1990  
G01 X-0.3385 Y0.1978  
G01 X-0.3312 Y0.1954  
G01 X-0.3243 Y0.1919  
G01 X-0.3200 Y0.1888  
G01 X-0.3200 Y0.4619  
G01 X-0.3225 Y0.4632  
G01 X-0.3280 Y0.4672  
G01 X-0.3328 Y0.4720  
G01 X-0.3368 Y0.4775  
G01 X-0.3398 Y0.4835  
G01 X-0.3419 Y0.4899  
G01 X-0.3430 Y0.4966  
G01 X-0.3430 Y0.5034  
G01 X-0.3419 Y0.5101  
G01 X-0.3398 Y0.5165  
G01 X-0.3368 Y0.5225  
G01 X-0.3328 Y0.5280  
G01 X-0.3280 Y0.5328  
G01 X-0.3225 Y0.5368  
G01 X-0.3165 Y0.5398  
G01 X-0.3101 Y0.5419  
G01 X-0.3034 Y0.5430  
G01 X-0.2966 Y0.5430  
G01 X-0.2899 Y0.5419  
G01 X-0.2835 Y0.5398  
G01 X-0.2775 Y0.5368  
G01 X-0.2720 Y0.5328  
G01 X-0.2672 Y0.5280  
G01 X-0.2632 Y0.5225  
G01 X-0.2602 Y0.5165  
G01 X-0.2581 Y0.5101  
G01 X-0.2570 Y0.5034  
G01 X-0.2570 Y0.4966  
G01 X-0.2581 Y0.4899  
G01 X-0.2602 Y0.4835  
G01 X-0.2632 Y0.4775  
G01 X-0.2672 Y0.4720  
G01 X-0.2720 Y0.4672  
G01 X-0.2775 Y0.4632  
G01 X-0.2800 Y0.4619  
G01 X-0.2800 Y0.1474  
G01 X-0.2814 Y0.1423  
G01 X-0.2840 Y0.1377  
G00 Z0.0500  
G00 X-0.4590 Y0.1377  
G01 Z-0.0040 F10    
G01 X-0.4627 Y0.1340  F20    
G01 X-0.4673 Y0.1314  
G01 X-0.4724 Y0.1300  
G01 X-0.5020 Y0.1300  
G01 X-0.5049 Y0.1243  
G01 X-0.5095 Y0.1181  
G01 X-0.5149 Y0.1126  
G01 X-0.5212 Y0.1081  
G01 X-0.5280 Y0.1046  
G01 X-0.5354 Y0.1022  
G01 X-0.5430 Y0.1010  
G01 X-0.5507 Y0.1010  
G01 X-0.5583 Y0.1022  
G01 X-0.5657 Y0.1046  
G01 X-0.5725 Y0.1081  
G01 X-0.5788 Y0.1126  
G01 X-0.5842 Y0.1181  
G01 X-0.5888 Y0.1243  
G01 X-0.5923 Y0.1312  
G01 X-0.5946 Y0.1385  
G01 X-0.5959 Y0.1461  
G01 X-0.5959 Y0.1539  
G01 X-0.5946 Y0.1615  
G01 X-0.5923 Y0.1688  
G01 X-0.5888 Y0.1757  
G01 X-0.5842 Y0.1819  
G01 X-0.5788 Y0.1874  
G01 X-0.5725 Y0.1919  
G01 X-0.5657 Y0.1954  
G01 X-0.5583 Y0.1978  
G01 X-0.5507 Y0.1990  
G01 X-0.5430 Y0.1990  
G01 X-0.5354 Y0.1978  
G01 X-0.5280 Y0.1954  
G01 X-0.5212 Y0.1919  
G01 X-0.5149 Y0.1874  
G01 X-0.5095 Y0.1819  
G01 X-0.5049 Y0.1757  
G01 X-0.5020 Y0.1700  
G01 X-0.4950 Y0.1700  
G01 X-0.4950 Y0.7401  
G01 X-0.4936 Y0.7452  
G01 X-0.4910 Y0.7498  
G01 X-0.4873 Y0.7535  
G01 X-0.3498 Y0.8910  
G01 X-0.3452 Y0.8936  
G01 X-0.3401 Y0.8950  
G01 X-0.2700 Y0.8950  
G01 X-0.2700 Y1.3119  
G01 X-0.2725 Y1.3132  
G01 X-0.2780 Y1.3172  
G01 X-0.2828 Y1.3220  
G01 X-0.2868 Y1.3275  
G01 X-0.2898 Y1.3335  
G01 X-0.2919 Y1.3399  
G01 X-0.2930 Y1.3466  
G01 X-0.2930 Y1.3534  
G01 X-0.2919 Y1.3601  
G01 X-0.2898 Y1.3665  
G01 X-0.2868 Y1.3725  
G01 X-0.2828 Y1.3780  
G01 X-0.2780 Y1.3828  
G01 X-0.2725 Y1.3868  
G01 X-0.2665 Y1.3898  
G01 X-0.2601 Y1.3919  
G01 X-0.2534 Y1.3930  
G01 X-0.2466 Y1.3930  
G01 X-0.2450 Y1.3927  
G01 X-0.2450 Y2.5669  
G01 X-0.5834 Y2.9150  
G01 X-0.9283 Y2.9150  
G01 X-0.9635 Y2.8743  
G01 X-0.9570 Y2.8678  
G01 X-0.9570 Y2.8322  
G01 X-0.9800 Y2.8092  
G01 X-0.9800 Y2.7908  
G01 X-0.9570 Y2.7678  
G01 X-0.9570 Y2.7322  
G01 X-0.9822 Y2.7070  
G01 X-1.0178 Y2.7070  
G01 X-1.0430 Y2.7322  
G01 X-1.0430 Y2.7678  
G01 X-1.0200 Y2.7908  
G01 X-1.0200 Y2.8092  
G01 X-1.0430 Y2.8322  
G01 X-1.0430 Y2.8678  
G01 X-1.0427 Y2.8681  
G01 X-1.0840 Y2.9150  
G01 X-3.2291 Y2.9150  
G01 X-3.8675 Y2.2668  
G01 X-3.8675 Y1.2450  
G01 X-3.2974 Y1.2450  
G01 X-3.2969 Y1.2449  
G01 X-3.1912 Y1.3594  
G01 X-3.1910 Y1.3598  
G01 X-3.1894 Y1.3614  
G01 X-3.1879 Y1.3630  
G01 X-3.1876 Y1.3632  
G01 X-3.1873 Y1.3635  
G01 X-3.1853 Y1.3646  
G01 X-3.1835 Y1.3658  
G01 X-3.1831 Y1.3659  
G01 X-3.1827 Y1.3661  
G01 X-3.1806 Y1.3667  
G01 X-3.1784 Y1.3674  
G01 X-3.1780 Y1.3674  
G01 X-3.1776 Y1.3675  
G01 X-3.1754 Y1.3675  
G01 X-3.1732 Y1.3676  
G01 X-3.1728 Y1.3675  
G01 X-2.5430 Y1.3675  
G01 X-2.3856 Y1.4615  
G01 X-2.4191 Y1.6800  
G01 X-2.4619 Y1.6800  
G01 X-2.4632 Y1.6775  
G01 X-2.4672 Y1.6720  
G01 X-2.4720 Y1.6672  
G01 X-2.4775 Y1.6632  
G01 X-2.4835 Y1.6602  
G01 X-2.4899 Y1.6581  
G01 X-2.4966 Y1.6570  
G01 X-2.5034 Y1.6570  
G01 X-2.5101 Y1.6581  
G01 X-2.5165 Y1.6602  
G01 X-2.5225 Y1.6632  
G01 X-2.5280 Y1.6672  
G01 X-2.5328 Y1.6720  
G01 X-2.5368 Y1.6775  
G01 X-2.5398 Y1.6835  
G01 X-2.5419 Y1.6899  
G01 X-2.5430 Y1.6966  
G01 X-2.5430 Y1.7034  
G01 X-2.5419 Y1.7101  
G01 X-2.5398 Y1.7165  
G01 X-2.5368 Y1.7225  
G01 X-2.5328 Y1.7280  
G01 X-2.5280 Y1.7328  
G01 X-2.5225 Y1.7368  
G01 X-2.5165 Y1.7398  
G01 X-2.5101 Y1.7419  
G01 X-2.5034 Y1.7430  
G01 X-2.4966 Y1.7430  
G01 X-2.4899 Y1.7419  
G01 X-2.4835 Y1.7398  
G01 X-2.4775 Y1.7368  
G01 X-2.4720 Y1.7328  
G01 X-2.4672 Y1.7280  
G01 X-2.4632 Y1.7225  
G01 X-2.4619 Y1.7200  
G01 X-2.4324 Y1.7200  
G01 X-2.5009 Y1.8570  
G01 X-2.5034 Y1.8570  
G01 X-2.5101 Y1.8581  
G01 X-2.5165 Y1.8602  
G01 X-2.5225 Y1.8632  
G01 X-2.5280 Y1.8672  
G01 X-2.5328 Y1.8720  
G01 X-2.5368 Y1.8775  
G01 X-2.5398 Y1.8835  
G01 X-2.5419 Y1.8899  
G01 X-2.5430 Y1.8966  
G01 X-2.5430 Y1.9034  
G01 X-2.5419 Y1.9101  
G01 X-2.5398 Y1.9165  
G01 X-2.5368 Y1.9225  
G01 X-2.5328 Y1.9280  
G01 X-2.5280 Y1.9328  
G01 X-2.5225 Y1.9368  
G01 X-2.5165 Y1.9398  
G01 X-2.5101 Y1.9419  
G01 X-2.5034 Y1.9430  
G01 X-2.4966 Y1.9430  
G01 X-2.4899 Y1.9419  
G01 X-2.4835 Y1.9398  
G01 X-2.4775 Y1.9368  
G01 X-2.4720 Y1.9328  
G01 X-2.4672 Y1.9280  
G01 X-2.4632 Y1.9225  
G01 X-2.4602 Y1.9165  
G01 X-2.4581 Y1.9101  
G01 X-2.4570 Y1.9034  
G01 X-2.4570 Y1.8966  
G01 X-2.4581 Y1.8899  
G01 X-2.4602 Y1.8835  
G01 X-2.4632 Y1.8775  
G01 X-2.4651 Y1.8749  
G01 X-2.3824 Y1.7095  
G01 X-2.3814 Y1.7077  
G01 X-2.3812 Y1.7071  
G01 X-2.3809 Y1.7066  
G01 X-2.3805 Y1.7046  
G01 X-2.3800 Y1.7026  
G01 X-2.3800 Y1.7020  
G01 X-2.3799 Y1.7014  
G01 X-2.3800 Y1.6994  
G01 X-2.3800 Y1.6890  
G01 X-2.3501 Y1.4943  
G01 X-2.3211 Y1.5246  
G01 X-2.3210 Y1.5248  
G01 X-2.3193 Y1.5265  
G01 X-2.3176 Y1.5282  
G01 X-2.3174 Y1.5284  
G01 X-2.3173 Y1.5285  
G01 X-2.3152 Y1.5297  
G01 X-2.3131 Y1.5310  
G01 X-2.3129 Y1.5310  
G01 X-2.3127 Y1.5311  
G01 X-2.3104 Y1.5318  
G01 X-2.3080 Y1.5324  
G01 X-2.3078 Y1.5324  
G01 X-2.3076 Y1.5325  
G01 X-2.3052 Y1.5325  
G01 X-2.3028 Y1.5326  
G01 X-2.3026 Y1.5325  
G01 X-2.0756 Y1.5325  
G01 X-2.0737 Y1.5326  
G01 X-2.0730 Y1.5325  
G01 X-2.0724 Y1.5325  
G01 X-2.0704 Y1.5320  
G01 X-2.0422 Y1.5263  
G01 X-2.0201 Y1.5485  
G01 X-1.9799 Y1.5485  
G01 X-1.9515 Y1.5201  
G01 X-1.8881 Y1.5200  
G01 X-1.8868 Y1.5225  
G01 X-1.8828 Y1.5280  
G01 X-1.8780 Y1.5328  
G01 X-1.8725 Y1.5368  
G01 X-1.8665 Y1.5398  
G01 X-1.8601 Y1.5419  
G01 X-1.8534 Y1.5430  
G01 X-1.8466 Y1.5430  
G01 X-1.8399 Y1.5419  
G01 X-1.8335 Y1.5398  
G01 X-1.8275 Y1.5368  
G01 X-1.8220 Y1.5328  
G01 X-1.8172 Y1.5280  
G01 X-1.8132 Y1.5225  
G01 X-1.8102 Y1.5165  
G01 X-1.8081 Y1.5101  
G01 X-1.8070 Y1.5034  
G01 X-1.8070 Y1.4966  
G01 X-1.8081 Y1.4899  
G01 X-1.8102 Y1.4835  
G01 X-1.8132 Y1.4775  
G01 X-1.8172 Y1.4720  
G01 X-1.8220 Y1.4672  
G01 X-1.8275 Y1.4632  
G01 X-1.8335 Y1.4602  
G01 X-1.8399 Y1.4581  
G01 X-1.8466 Y1.4570  
G01 X-1.8534 Y1.4570  
G01 X-1.8601 Y1.4581  
G01 X-1.8665 Y1.4602  
G01 X-1.8725 Y1.4632  
G01 X-1.8780 Y1.4672  
G01 X-1.8828 Y1.4720  
G01 X-1.8868 Y1.4775  
G01 X-1.8881 Y1.4800  
G01 X-1.9515 Y1.4800  
G01 X-1.9799 Y1.4515  
G01 X-2.0201 Y1.4515  
G01 X-2.0485 Y1.4799  
G01 X-2.0485 Y1.4868  
G01 X-2.0770 Y1.4925  
G01 X-2.2965 Y1.4925  
G01 X-2.3475 Y1.4393  
G01 X-2.3484 Y1.4383  
G01 X-2.3492 Y1.4373  
G01 X-2.3502 Y1.4365  
G01 X-2.3511 Y1.4355  
G01 X-2.3523 Y1.4348  
G01 X-2.3533 Y1.4340  
G01 X-2.3545 Y1.4335  
G01 X-2.3556 Y1.4328  
G01 X-2.5251 Y1.3316  
G01 X-2.5252 Y1.3315  
G01 X-2.5274 Y1.3303  
G01 X-2.5295 Y1.3290  
G01 X-2.5297 Y1.3289  
G01 X-2.5298 Y1.3289  
G01 X-2.5322 Y1.3282  
G01 X-2.5346 Y1.3275  
G01 X-2.5347 Y1.3275  
G01 X-2.5349 Y1.3275  
G01 X-2.5374 Y1.3275  
G01 X-2.5398 Y1.3275  
G01 X-2.5400 Y1.3275  
G01 X-3.1662 Y1.3275  
G01 X-3.2775 Y1.2068  
G01 X-3.2777 Y1.2065  
G01 X-3.2793 Y1.2049  
G01 X-3.2808 Y1.2033  
G01 X-3.2812 Y1.2030  
G01 X-3.2815 Y1.2027  
G01 X-3.4050 Y1.0792  
G01 X-3.4050 Y0.7631  
G01 X-3.4049 Y0.7611  
G01 X-3.4050 Y0.7605  
G01 X-3.4050 Y0.7599  
G01 X-3.4055 Y0.7579  
G01 X-3.4059 Y0.7559  
G01 X-3.4062 Y0.7554  
G01 X-3.4064 Y0.7548  
G01 X-3.4074 Y0.7530  
G01 X-3.5050 Y0.5578  
G01 X-3.5050 Y0.2450  
G01 X-3.0224 Y0.2450  
G01 X-3.0173 Y0.2436  
G01 X-3.0127 Y0.2410  
G01 X-3.0090 Y0.2373  
G01 X-2.9666 Y0.1949  
G01 X-2.9657 Y0.1954  
G01 X-2.9583 Y0.1978  
G01 X-2.9507 Y0.1990  
G01 X-2.9430 Y0.1990  
G01 X-2.9354 Y0.1978  
G01 X-2.9280 Y0.1954  
G01 X-2.9212 Y0.1919  
G01 X-2.9149 Y0.1874  
G01 X-2.9095 Y0.1819  
G01 X-2.9049 Y0.1757  
G01 X-2.9014 Y0.1688  
G01 X-2.8991 Y0.1615  
G01 X-2.8979 Y0.1539  
G01 X-2.8979 Y0.1461  
G01 X-2.8989 Y0.1397  
G01 X-2.8542 Y0.0950  
G01 X-2.6950 Y0.0950  
G01 X-2.6950 Y0.1401  
G01 X-2.6936 Y0.1452  
G01 X-2.6910 Y0.1498  
G01 X-2.6873 Y0.1535  
G01 X-2.5998 Y0.2410  
G01 X-2.5952 Y0.2436  
G01 X-2.5901 Y0.2450  
G01 X-2.2099 Y0.2450  
G01 X-2.2048 Y0.2436  
G01 X-2.2002 Y0.2410  
G01 X-2.1965 Y0.2373  
G01 X-2.1572 Y0.1980  
G01 X-2.1507 Y0.1990  
G01 X-2.1430 Y0.1990  
G01 X-2.1354 Y0.1978  
G01 X-2.1280 Y0.1954  
G01 X-2.1212 Y0.1919  
G01 X-2.1149 Y0.1874  
G01 X-2.1095 Y0.1819  
G01 X-2.1049 Y0.1757  
G01 X-2.1014 Y0.1688  
G01 X-2.0991 Y0.1615  
G01 X-2.0979 Y0.1539  
G01 X-2.0979 Y0.1461  
G01 X-2.0989 Y0.1397  
G01 X-2.0542 Y0.0950  
G01 X-1.8950 Y0.0950  
G01 X-1.8950 Y0.1401  
G01 X-1.8936 Y0.1452  
G01 X-1.8910 Y0.1498  
G01 X-1.8873 Y0.1535  
G01 X-1.7998 Y0.2410  
G01 X-1.7952 Y0.2436  
G01 X-1.7901 Y0.2450  
G01 X-1.7099 Y0.2450  
G01 X-1.7048 Y0.2436  
G01 X-1.7002 Y0.2410  
G01 X-1.6965 Y0.2373  
G01 X-1.6792 Y0.2200  
G01 X-1.3974 Y0.2200  
G01 X-1.3923 Y0.2186  
G01 X-1.3877 Y0.2160  
G01 X-1.3840 Y0.2123  
G01 X-1.3666 Y0.1949  
G01 X-1.3657 Y0.1954  
G01 X-1.3583 Y0.1978  
G01 X-1.3507 Y0.1990  
G01 X-1.3430 Y0.1990  
G01 X-1.3354 Y0.1978  
G01 X-1.3280 Y0.1954  
G01 X-1.3212 Y0.1919  
G01 X-1.3149 Y0.1874  
G01 X-1.3095 Y0.1819  
G01 X-1.3049 Y0.1757  
G01 X-1.3014 Y0.1688  
G01 X-1.2991 Y0.1615  
G01 X-1.2979 Y0.1539  
G01 X-1.2979 Y0.1461  
G01 X-1.2991 Y0.1385  
G01 X-1.3014 Y0.1312  
G01 X-1.3049 Y0.1243  
G01 X-1.3095 Y0.1181  
G01 X-1.3149 Y0.1126  
G01 X-1.3212 Y0.1081  
G01 X-1.3280 Y0.1046  
G01 X-1.3354 Y0.1022  
G01 X-1.3430 Y0.1010  
G01 X-1.3507 Y0.1010  
G01 X-1.3583 Y0.1022  
G01 X-1.3657 Y0.1046  
G01 X-1.3725 Y0.1081  
G01 X-1.3788 Y0.1126  
G01 X-1.3842 Y0.1181  
G01 X-1.3888 Y0.1243  
G01 X-1.3923 Y0.1312  
G01 X-1.3946 Y0.1385  
G01 X-1.3959 Y0.1461  
G01 X-1.3959 Y0.1539  
G01 X-1.3946 Y0.1615  
G01 X-1.3934 Y0.1652  
G01 X-1.4083 Y0.1800  
G01 X-1.6901 Y0.1800  
G01 X-1.6952 Y0.1814  
G01 X-1.6998 Y0.1840  
G01 X-1.7035 Y0.1877  
G01 X-1.7208 Y0.2050  
G01 X-1.7792 Y0.2050  
G01 X-1.8550 Y0.1292  
G01 X-1.8550 Y0.0724  
G01 X-1.8564 Y0.0673  
G01 X-1.8590 Y0.0627  
G01 X-1.8627 Y0.0590  
G01 X-1.8673 Y0.0564  
G01 X-1.8724 Y0.0550  
G01 X-2.0651 Y0.0550  
G01 X-2.0702 Y0.0564  
G01 X-2.0748 Y0.0590  
G01 X-2.1230 Y0.1072  
G01 X-2.1280 Y0.1046  
G01 X-2.1354 Y0.1022  
G01 X-2.1430 Y0.1010  
G01 X-2.1507 Y0.1010  
G01 X-2.1583 Y0.1022  
G01 X-2.1657 Y0.1046  
G01 X-2.1725 Y0.1081  
G01 X-2.1788 Y0.1126  
G01 X-2.1842 Y0.1181  
G01 X-2.1888 Y0.1243  
G01 X-2.1923 Y0.1312  
G01 X-2.1946 Y0.1385  
G01 X-2.1959 Y0.1461  
G01 X-2.1959 Y0.1539  
G01 X-2.1946 Y0.1615  
G01 X-2.1923 Y0.1688  
G01 X-2.1897 Y0.1739  
G01 X-2.2208 Y0.2050  
G01 X-2.5792 Y0.2050  
G01 X-2.6550 Y0.1292  
G01 X-2.6550 Y0.0724  
G01 X-2.6564 Y0.0673  
G01 X-2.6590 Y0.0627  
G01 X-2.6627 Y0.0590  
G01 X-2.6673 Y0.0564  
G01 X-2.6724 Y0.0550  
G01 X-2.8651 Y0.0550  
G01 X-2.8702 Y0.0564  
G01 X-2.8748 Y0.0590  
G01 X-2.9230 Y0.1072  
G01 X-2.9280 Y0.1046  
G01 X-2.9354 Y0.1022  
G01 X-2.9430 Y0.1010  
G01 X-2.9507 Y0.1010  
G01 X-2.9583 Y0.1022  
G01 X-2.9657 Y0.1046  
G01 X-2.9725 Y0.1081  
G01 X-2.9788 Y0.1126  
G01 X-2.9842 Y0.1181  
G01 X-2.9888 Y0.1243  
G01 X-2.9923 Y0.1312  
G01 X-2.9946 Y0.1385  
G01 X-2.9959 Y0.1461  
G01 X-2.9959 Y0.1539  
G01 X-2.9946 Y0.1615  
G01 X-2.9934 Y0.1652  
G01 X-3.0333 Y0.2050  
G01 X-3.6542 Y0.2050  
G01 X-3.6989 Y0.1603  
G01 X-3.6979 Y0.1539  
G01 X-3.6979 Y0.1461  
G01 X-3.6991 Y0.1385  
G01 X-3.7014 Y0.1312  
G01 X-3.7049 Y0.1243  
G01 X-3.7095 Y0.1181  
G01 X-3.7149 Y0.1126  
G01 X-3.7212 Y0.1081  
G01 X-3.7280 Y0.1046  
G01 X-3.7354 Y0.1022  
G01 X-3.7430 Y0.1010  
G01 X-3.7507 Y0.1010  
G01 X-3.7583 Y0.1022  
G01 X-3.7657 Y0.1046  
G01 X-3.7725 Y0.1081  
G01 X-3.7788 Y0.1126  
G01 X-3.7842 Y0.1181  
G01 X-3.7888 Y0.1243  
G01 X-3.7923 Y0.1312  
G01 X-3.7946 Y0.1385  
G01 X-3.7959 Y0.1461  
G01 X-3.7959 Y0.1539  
G01 X-3.7946 Y0.1615  
G01 X-3.7923 Y0.1688  
G01 X-3.7888 Y0.1757  
G01 X-3.7842 Y0.1819  
G01 X-3.7788 Y0.1874  
G01 X-3.7725 Y0.1919  
G01 X-3.7657 Y0.1954  
G01 X-3.7583 Y0.1978  
G01 X-3.7507 Y0.1990  
G01 X-3.7430 Y0.1990  
G01 X-3.7354 Y0.1978  
G01 X-3.7280 Y0.1954  
G01 X-3.7230 Y0.1928  
G01 X-3.6748 Y0.2410  
G01 X-3.6702 Y0.2436  
G01 X-3.6651 Y0.2450  
G01 X-3.5450 Y0.2450  
G01 X-3.5450 Y0.5619  
G01 X-3.5451 Y0.5639  
G01 X-3.5450 Y0.5645  
G01 X-3.5450 Y0.5651  
G01 X-3.5445 Y0.5671  
G01 X-3.5441 Y0.5691  
G01 X-3.5438 Y0.5696  
G01 X-3.5436 Y0.5702  
G01 X-3.5426 Y0.5720  
G01 X-3.4450 Y0.7672  
G01 X-3.4450 Y1.0901  
G01 X-3.4436 Y1.0952  
G01 X-3.4410 Y1.0998  
G01 X-3.4373 Y1.1035  
G01 X-3.3358 Y1.2050  
G01 X-3.8901 Y1.2050  
G01 X-3.8952 Y1.2064  
G01 X-3.8998 Y1.2090  
G01 X-3.9035 Y1.2127  
G01 X-3.9061 Y1.2173  
G01 X-3.9075 Y1.2224  
G01 X-3.9075 Y2.2749  
G01 X-3.9075 Y2.2775  
G01 X-3.9075 Y2.2776  
G01 X-3.9068 Y2.2801  
G01 X-3.9062 Y2.2826  
G01 X-3.9061 Y2.2827  
G01 X-3.9049 Y2.2849  
G01 X-3.9036 Y2.2872  
G01 X-3.9035 Y2.2873  
G01 X-3.9017 Y2.2891  
G01 X-3.2535 Y2.9472  
G01 X-3.2517 Y2.9491  
G01 X-3.2499 Y2.9509  
G01 X-3.2498 Y2.9510  
G01 X-3.2476 Y2.9523  
G01 X-3.2454 Y2.9536  
G01 X-3.2452 Y2.9536  
G01 X-3.2428 Y2.9543  
G01 X-3.2403 Y2.9550  
G01 X-3.2401 Y2.9550  
G01 X-3.2376 Y2.9550  
G01 X-3.2350 Y2.9550  
G01 X-1.0770 Y2.9550  
G01 X-1.0764 Y2.9551  
G01 X-1.0744 Y2.9550  
G01 X-1.0724 Y2.9550  
G01 X-1.0718 Y2.9548  
G01 X-1.0711 Y2.9548  
G01 X-1.0692 Y2.9542  
G01 X-1.0673 Y2.9536  
G01 X-1.0667 Y2.9533  
G01 X-1.0661 Y2.9531  
G01 X-1.0645 Y2.9520  
G01 X-1.0627 Y2.9510  
G01 X-1.0623 Y2.9506  
G01 X-1.0617 Y2.9502  
G01 X-1.0604 Y2.9487  
G01 X-1.0590 Y2.9473  
G01 X-1.0587 Y2.9467  
G01 X-1.0113 Y2.8930  
G01 X-1.0001 Y2.8930  
G01 X-0.9539 Y2.9466  
G01 X-0.9535 Y2.9473  
G01 X-0.9522 Y2.9486  
G01 X-0.9509 Y2.9501  
G01 X-0.9503 Y2.9505  
G01 X-0.9498 Y2.9510  
G01 X-0.9481 Y2.9520  
G01 X-0.9466 Y2.9530  
G01 X-0.9459 Y2.9533  
G01 X-0.9452 Y2.9536  
G01 X-0.9434 Y2.9541  
G01 X-0.9416 Y2.9548  
G01 X-0.9409 Y2.9548  
G01 X-0.9401 Y2.9550  
G01 X-0.9382 Y2.9550  
G01 X-0.9364 Y2.9551  
G01 X-0.9356 Y2.9550  
G01 X-0.5775 Y2.9550  
G01 X-0.5774 Y2.9550  
G01 X-0.5749 Y2.9550  
G01 X-0.5724 Y2.9550  
G01 X-0.5722 Y2.9550  
G01 X-0.5721 Y2.9550  
G01 X-0.5697 Y2.9543  
G01 X-0.5673 Y2.9536  
G01 X-0.5672 Y2.9536  
G01 X-0.5670 Y2.9535  
G01 X-0.5649 Y2.9523  
G01 X-0.5627 Y2.9510  
G01 X-0.5626 Y2.9509  
G01 X-0.5625 Y2.9508  
G01 X-0.5608 Y2.9490  
G01 X-0.5590 Y2.9473  
G01 X-0.5589 Y2.9472  
G01 X-0.2108 Y2.5890  
G01 X-0.2090 Y2.5873  
G01 X-0.2089 Y2.5872  
G01 X-0.2088 Y2.5871  
G01 X-0.2076 Y2.5849  
G01 X-0.2064 Y2.5827  
G01 X-0.2063 Y2.5826  
G01 X-0.2063 Y2.5825  
G01 X-0.2056 Y2.5800  
G01 X-0.2050 Y2.5776  
G01 X-0.2050 Y2.5775  
G01 X-0.2050 Y2.5774  
G01 X-0.2050 Y2.5749  
G01 X-0.2050 Y1.3599  
G01 X-0.2064 Y1.3548  
G01 X-0.2070 Y1.3536  
G01 X-0.2070 Y1.3534  
G01 X-0.2070 Y1.3466  
G01 X-0.2081 Y1.3399  
G01 X-0.2102 Y1.3335  
G01 X-0.2132 Y1.3275  
G01 X-0.2172 Y1.3220  
G01 X-0.2220 Y1.3172  
G01 X-0.2275 Y1.3132  
G01 X-0.2300 Y1.3119  
G01 X-0.2300 Y0.8724  
G01 X-0.2314 Y0.8673  
G01 X-0.2340 Y0.8627  
G01 X-0.2377 Y0.8590  
G01 X-0.2423 Y0.8564  
G01 X-0.2474 Y0.8550  
G01 X-0.3292 Y0.8550  
G01 X-0.4550 Y0.7292  
G01 X-0.4550 Y0.1474  
G01 X-0.4564 Y0.1423  
G01 X-0.4590 Y0.1377  
G00 Z0.0500  
G00 X-0.6672 Y0.4720  
G01 Z-0.0040 F10    
G01 X-0.6720 Y0.4672  F20    
G01 X-0.6775 Y0.4632  
G01 X-0.6835 Y0.4602  
G01 X-0.6899 Y0.4581  
G01 X-0.6966 Y0.4570  
G01 X-0.7034 Y0.4570  
G01 X-0.7101 Y0.4581  
G01 X-0.7165 Y0.4602  
G01 X-0.7225 Y0.4632  
G01 X-0.7280 Y0.4672  
G01 X-0.7328 Y0.4720  
G01 X-0.7368 Y0.4775  
G01 X-0.7398 Y0.4835  
G01 X-0.7419 Y0.4899  
G01 X-0.7430 Y0.4966  
G01 X-0.7430 Y0.5034  
G01 X-0.7419 Y0.5101  
G01 X-0.7398 Y0.5165  
G01 X-0.7368 Y0.5225  
G01 X-0.7328 Y0.5280  
G01 X-0.7280 Y0.5328  
G01 X-0.7225 Y0.5368  
G01 X-0.7200 Y0.5381  
G01 X-0.7200 Y0.6119  
G01 X-0.7225 Y0.6132  
G01 X-0.7280 Y0.6172  
G01 X-0.7328 Y0.6220  
G01 X-0.7368 Y0.6275  
G01 X-0.7381 Y0.6300  
G01 X-1.4026 Y0.6300  
G01 X-1.4077 Y0.6314  
G01 X-1.4123 Y0.6340  
G01 X-1.4160 Y0.6377  
G01 X-1.4186 Y0.6423  
G01 X-1.4200 Y0.6474  
G01 X-1.4200 Y0.8799  
G01 X-1.4815 Y0.9250  
G01 X-1.5160 Y0.9250  
G01 X-1.6587 Y0.7633  
G01 X-1.6590 Y0.7627  
G01 X-1.6604 Y0.7613  
G01 X-1.6617 Y0.7598  
G01 X-1.6623 Y0.7594  
G01 X-1.6627 Y0.7590  
G01 X-1.6645 Y0.7580  
G01 X-1.6661 Y0.7569  
G01 X-1.6667 Y0.7567  
G01 X-1.6673 Y0.7564  
G01 X-1.6692 Y0.7558  
G01 X-1.6711 Y0.7552  
G01 X-1.6718 Y0.7552  
G01 X-1.6724 Y0.7550  
G01 X-1.6744 Y0.7550  
G01 X-1.6764 Y0.7549  
G01 X-1.6770 Y0.7550  
G01 X-1.9976 Y0.7550  
G01 X-2.0027 Y0.7564  
G01 X-2.0073 Y0.7590  
G01 X-2.0110 Y0.7627  
G01 X-2.0533 Y0.8050  
G01 X-2.4321 Y0.8050  
G01 X-2.5952 Y0.7091  
G01 X-2.5974 Y0.7077  
G01 X-2.5996 Y0.7064  
G01 X-2.5998 Y0.7064  
G01 X-2.6022 Y0.7057  
G01 X-2.6047 Y0.7050  
G01 X-2.6049 Y0.7050  
G01 X-2.6074 Y0.7050  
G01 X-2.6100 Y0.7050  
G01 X-2.8665 Y0.7050  
G01 X-3.1589 Y0.4029  
G01 X-3.1590 Y0.4027  
G01 X-3.1607 Y0.4010  
G01 X-3.1625 Y0.3992  
G01 X-3.1626 Y0.3991  
G01 X-3.1627 Y0.3990  
G01 X-3.1649 Y0.3978  
G01 X-3.1670 Y0.3965  
G01 X-3.1671 Y0.3964  
G01 X-3.1673 Y0.3964  
G01 X-3.1697 Y0.3957  
G01 X-3.1720 Y0.3950  
G01 X-3.1722 Y0.3950  
G01 X-3.1724 Y0.3950  
G01 X-3.1748 Y0.3950  
G01 X-3.1773 Y0.3950  
G01 X-3.1775 Y0.3950  
G01 X-3.3233 Y0.3950  
G01 X-3.3242 Y0.3948  
G01 X-3.3259 Y0.3950  
G01 X-3.3276 Y0.3950  
G01 X-3.3285 Y0.3952  
G01 X-3.3294 Y0.3953  
G01 X-3.3311 Y0.3959  
G01 X-3.3327 Y0.3964  
G01 X-3.3335 Y0.3968  
G01 X-3.3344 Y0.3971  
G01 X-3.3358 Y0.3981  
G01 X-3.3373 Y0.3990  
G01 X-3.3379 Y0.3996  
G01 X-3.3387 Y0.4002  
G01 X-3.3398 Y0.4015  
G01 X-3.3410 Y0.4027  
G01 X-3.3415 Y0.4035  
G01 X-3.3898 Y0.4615  
G01 X-3.3910 Y0.4627  
G01 X-3.3915 Y0.4635  
G01 X-3.3920 Y0.4642  
G01 X-3.3928 Y0.4658  
G01 X-3.3936 Y0.4673  
G01 X-3.3939 Y0.4682  
G01 X-3.3943 Y0.4690  
G01 X-3.3946 Y0.4707  
G01 X-3.3950 Y0.4724  
G01 X-3.3950 Y0.4733  
G01 X-3.3952 Y0.4742  
G01 X-3.3950 Y0.4759  
G01 X-3.3950 Y0.5276  
G01 X-3.3936 Y0.5327  
G01 X-3.3910 Y0.5373  
G01 X-3.3873 Y0.5410  
G01 X-3.3373 Y0.5910  
G01 X-3.3327 Y0.5936  
G01 X-3.3276 Y0.5950  
G01 X-3.2008 Y0.5950  
G01 X-2.9321 Y0.8637  
G01 X-2.9308 Y0.8652  
G01 X-2.9303 Y0.8655  
G01 X-2.9298 Y0.8660  
G01 X-2.9281 Y0.8670  
G01 X-2.9264 Y0.8681  
G01 X-2.9258 Y0.8683  
G01 X-2.9252 Y0.8686  
G01 X-2.9233 Y0.8691  
G01 X-2.8200 Y0.9043  
G01 X-2.8200 Y1.1489  
G01 X-2.8204 Y1.1491  
G01 X-2.8249 Y1.1536  
G01 X-2.8284 Y1.1588  
G01 X-2.8308 Y1.1647  
G01 X-2.8320 Y1.1708  
G01 X-2.8320 Y1.2292  
G01 X-2.8308 Y1.2353  
G01 X-2.8284 Y1.2412  
G01 X-2.8249 Y1.2464  
G01 X-2.8204 Y1.2509  
G01 X-2.8152 Y1.2544  
G01 X-2.8093 Y1.2568  
G01 X-2.8032 Y1.2580  
G01 X-2.7968 Y1.2580  
G01 X-2.7907 Y1.2568  
G01 X-2.7848 Y1.2544  
G01 X-2.7796 Y1.2509  
G01 X-2.7751 Y1.2464  
G01 X-2.7716 Y1.2412  
G01 X-2.7692 Y1.2353  
G01 X-2.7680 Y1.2292  
G01 X-2.7680 Y1.1708  
G01 X-2.7692 Y1.1647  
G01 X-2.7716 Y1.1588  
G01 X-2.7751 Y1.1536  
G01 X-2.7796 Y1.1491  
G01 X-2.7800 Y1.1489  
G01 X-2.7800 Y0.8907  
G01 X-2.7799 Y0.8887  
G01 X-2.7800 Y0.8880  
G01 X-2.7800 Y0.8874  
G01 X-2.7805 Y0.8855  
G01 X-2.7809 Y0.8835  
G01 X-2.7812 Y0.8829  
G01 X-2.7814 Y0.8823  
G01 X-2.7823 Y0.8806  
G01 X-2.7832 Y0.8788  
G01 X-2.7837 Y0.8783  
G01 X-2.7840 Y0.8777  
G01 X-2.7854 Y0.8763  
G01 X-2.7867 Y0.8748  
G01 X-2.7872 Y0.8745  
G01 X-2.7877 Y0.8740  
G01 X-2.7894 Y0.8730  
G01 X-2.7911 Y0.8719  
G01 X-2.7917 Y0.8717  
G01 X-2.7923 Y0.8714  
G01 X-2.7942 Y0.8709  
G01 X-2.9066 Y0.8326  
G01 X-3.1765 Y0.5627  
G01 X-3.1802 Y0.5590  
G01 X-3.1848 Y0.5564  
G01 X-3.1899 Y0.5550  
G01 X-3.3167 Y0.5550  
G01 X-3.3550 Y0.5167  
G01 X-3.3550 Y0.4822  
G01 X-3.3156 Y0.4350  
G01 X-3.1835 Y0.4350  
G01 X-2.8911 Y0.7371  
G01 X-2.8910 Y0.7373  
G01 X-2.8893 Y0.7390  
G01 X-2.8875 Y0.7408  
G01 X-2.8874 Y0.7409  
G01 X-2.8873 Y0.7410  
G01 X-2.8851 Y0.7422  
G01 X-2.8830 Y0.7435  
G01 X-2.8829 Y0.7436  
G01 X-2.8827 Y0.7436  
G01 X-2.8803 Y0.7443  
G01 X-2.8780 Y0.7450  
G01 X-2.8778 Y0.7450  
G01 X-2.8776 Y0.7450  
G01 X-2.8752 Y0.7450  
G01 X-2.8727 Y0.7450  
G01 X-2.8725 Y0.7450  
G01 X-2.6129 Y0.7450  
G01 X-2.4498 Y0.8409  
G01 X-2.4476 Y0.8423  
G01 X-2.4454 Y0.8436  
G01 X-2.4452 Y0.8436  
G01 X-2.4428 Y0.8443  
G01 X-2.4403 Y0.8450  
G01 X-2.4401 Y0.8450  
G01 X-2.4376 Y0.8450  
G01 X-2.4350 Y0.8450  
G01 X-2.0424 Y0.8450  
G01 X-2.0373 Y0.8436  
G01 X-2.0327 Y0.8410  
G01 X-1.9867 Y0.7950  
G01 X-1.6840 Y0.7950  
G01 X-1.5413 Y0.9567  
G01 X-1.5410 Y0.9573  
G01 X-1.5396 Y0.9587  
G01 X-1.5383 Y0.9602  
G01 X-1.5377 Y0.9606  
G01 X-1.5373 Y0.9610  
G01 X-1.5355 Y0.9620  
G01 X-1.5339 Y0.9631  
G01 X-1.5333 Y0.9633  
G01 X-1.5327 Y0.9636  
G01 X-1.5308 Y0.9642  
G01 X-1.5289 Y0.9648  
G01 X-1.5282 Y0.9648  
G01 X-1.5276 Y0.9650  
G01 X-1.5256 Y0.9650  
G01 X-1.5236 Y0.9651  
G01 X-1.5230 Y0.9650  
G01 X-1.4765 Y0.9650  
G01 X-1.4754 Y0.9652  
G01 X-1.4739 Y0.9650  
G01 X-1.4724 Y0.9650  
G01 X-1.4713 Y0.9647  
G01 X-1.4702 Y0.9646  
G01 X-1.4688 Y0.9640  
G01 X-1.4673 Y0.9636  
G01 X-1.4663 Y0.9631  
G01 X-1.4653 Y0.9627  
G01 X-1.4641 Y0.9618  
G01 X-1.4627 Y0.9610  
G01 X-1.4619 Y0.9602  
G01 X-1.3891 Y0.9068  
G01 X-1.3877 Y0.9060  
G01 X-1.3869 Y0.9052  
G01 X-1.3860 Y0.9046  
G01 X-1.3851 Y0.9034  
G01 X-1.3840 Y0.9023  
G01 X-1.3834 Y0.9013  
G01 X-1.3828 Y0.9005  
G01 X-1.3821 Y0.8991  
G01 X-1.3814 Y0.8977  
G01 X-1.3811 Y0.8967  
G01 X-1.3806 Y0.8956  
G01 X-1.3804 Y0.8941  
G01 X-1.3800 Y0.8926  
G01 X-1.3800 Y0.8915  
G01 X-1.3798 Y0.8904  
G01 X-1.3800 Y0.8889  
G01 X-1.3800 Y0.6700  
G01 X-0.7381 Y0.6700  
G01 X-0.7368 Y0.6725  
G01 X-0.7328 Y0.6780  
G01 X-0.7280 Y0.6828  
G01 X-0.7225 Y0.6868  
G01 X-0.7165 Y0.6898  
G01 X-0.7101 Y0.6919  
G01 X-0.7034 Y0.6930  
G01 X-0.6966 Y0.6930  
G01 X-0.6899 Y0.6919  
G01 X-0.6835 Y0.6898  
G01 X-0.6775 Y0.6868  
G01 X-0.6720 Y0.6828  
G01 X-0.6672 Y0.6780  
G01 X-0.6632 Y0.6725  
G01 X-0.6602 Y0.6665  
G01 X-0.6581 Y0.6601  
G01 X-0.6570 Y0.6534  
G01 X-0.6570 Y0.6466  
G01 X-0.6581 Y0.6399  
G01 X-0.6602 Y0.6335  
G01 X-0.6632 Y0.6275  
G01 X-0.6672 Y0.6220  
G01 X-0.6720 Y0.6172  
G01 X-0.6775 Y0.6132  
G01 X-0.6800 Y0.6119  
G01 X-0.6800 Y0.5381  
G01 X-0.6775 Y0.5368  
G01 X-0.6720 Y0.5328  
G01 X-0.6672 Y0.5280  
G01 X-0.6632 Y0.5225  
G01 X-0.6602 Y0.5165  
G01 X-0.6581 Y0.5101  
G01 X-0.6570 Y0.5034  
G01 X-0.6570 Y0.4966  
G01 X-0.6581 Y0.4899  
G01 X-0.6602 Y0.4835  
G01 X-0.6632 Y0.4775  
G01 X-0.6672 Y0.4720  
G00 Z0.0500  
G00 X-0.3280 Y0.6172  
G01 Z-0.0040 F10    
G01 X-0.3328 Y0.6220  F20    
G01 X-0.3368 Y0.6275  
G01 X-0.3398 Y0.6335  
G01 X-0.3419 Y0.6399  
G01 X-0.3430 Y0.6466  
G01 X-0.3430 Y0.6534  
G01 X-0.3419 Y0.6601  
G01 X-0.3398 Y0.6665  
G01 X-0.3368 Y0.6725  
G01 X-0.3328 Y0.6780  
G01 X-0.3280 Y0.6828  
G01 X-0.3225 Y0.6868  
G01 X-0.3200 Y0.6881  
G01 X-0.3200 Y0.7515  
G01 X-0.3485 Y0.7799  
G01 X-0.3485 Y0.8201  
G01 X-0.3201 Y0.8485  
G01 X-0.2799 Y0.8485  
G01 X-0.2515 Y0.8201  
G01 X-0.2515 Y0.7799  
G01 X-0.2799 Y0.7515  
G01 X-0.2800 Y0.6881  
G01 X-0.2775 Y0.6868  
G01 X-0.2720 Y0.6828  
G01 X-0.2672 Y0.6780  
G01 X-0.2632 Y0.6725  
G01 X-0.2602 Y0.6665  
G01 X-0.2581 Y0.6601  
G01 X-0.2570 Y0.6534  
G01 X-0.2570 Y0.6466  
G01 X-0.2581 Y0.6399  
G01 X-0.2602 Y0.6335  
G01 X-0.2632 Y0.6275  
G01 X-0.2672 Y0.6220  
G01 X-0.2720 Y0.6172  
G01 X-0.2775 Y0.6132  
G01 X-0.2835 Y0.6102  
G01 X-0.2899 Y0.6081  
G01 X-0.2966 Y0.6070  
G01 X-0.3034 Y0.6070  
G01 X-0.3101 Y0.6081  
G01 X-0.3165 Y0.6102  
G01 X-0.3225 Y0.6132  
G01 X-0.3280 Y0.6172  
G00 Z0.0500  
G00 X-0.5515 Y0.9799  
G01 Z-0.0040 F10    
G01 X-0.5799 Y0.9515  F20    
G01 X-0.6201 Y0.9515  
G01 X-0.6485 Y0.9799  
G01 X-0.7747 Y0.9800  
G01 X-0.7867 Y0.9680  
G01 X-0.8133 Y0.9680  
G01 X-0.8320 Y0.9867  
G01 X-0.8320 Y1.0133  
G01 X-0.8133 Y1.0320  
G01 X-0.7867 Y1.0320  
G01 X-0.7747 Y1.0200  
G01 X-0.6485 Y1.0200  
G01 X-0.6201 Y1.0485  
G01 X-0.5799 Y1.0485  
G01 X-0.5515 Y1.0201  
G01 X-0.5515 Y0.9799  
G00 Z0.0500  
G00 X-0.8680 Y0.9867  
G01 Z-0.0040 F10    
G01 X-0.8867 Y0.9680  F20    
G01 X-0.9133 Y0.9680  
G01 X-0.9320 Y0.9867  
G01 X-0.9320 Y1.0133  
G01 X-0.9200 Y1.0253  
G01 X-0.9200 Y1.0628  
G01 X-0.9216 Y1.0588  
G01 X-0.9251 Y1.0536  
G01 X-0.9296 Y1.0491  
G01 X-0.9348 Y1.0456  
G01 X-0.9407 Y1.0432  
G01 X-0.9468 Y1.0420  
G01 X-0.9532 Y1.0420  
G01 X-0.9593 Y1.0432  
G01 X-0.9652 Y1.0456  
G01 X-0.9704 Y1.0491  
G01 X-0.9749 Y1.0536  
G01 X-0.9784 Y1.0588  
G01 X-0.9808 Y1.0647  
G01 X-0.9820 Y1.0708  
G01 X-0.9820 Y1.1292  
G01 X-0.9808 Y1.1353  
G01 X-0.9784 Y1.1412  
G01 X-0.9749 Y1.1464  
G01 X-0.9704 Y1.1509  
G01 X-0.9652 Y1.1544  
G01 X-0.9593 Y1.1568  
G01 X-0.9532 Y1.1580  
G01 X-0.9468 Y1.1580  
G01 X-0.9407 Y1.1568  
G01 X-0.9348 Y1.1544  
G01 X-0.9296 Y1.1509  
G01 X-0.9251 Y1.1464  
G01 X-0.9216 Y1.1412  
G01 X-0.9192 Y1.1353  
G01 X-0.9180 Y1.1292  
G01 X-0.9180 Y1.1200  
G01 X-0.8974 Y1.1200  
G01 X-0.8923 Y1.1186  
G01 X-0.8877 Y1.1160  
G01 X-0.8840 Y1.1123  
G01 X-0.8814 Y1.1077  
G01 X-0.8800 Y1.1026  
G01 X-0.8800 Y1.0253  
G01 X-0.8680 Y1.0133  
G01 X-0.8680 Y0.9867  
G00 Z0.0500  
G00 X-1.0251 Y1.0536  
G01 Z-0.0040 F10    
G01 X-1.0296 Y1.0491  F20    
G01 X-1.0348 Y1.0456  
G01 X-1.0407 Y1.0432  
G01 X-1.0468 Y1.0420  
G01 X-1.0532 Y1.0420  
G01 X-1.0593 Y1.0432  
G01 X-1.0652 Y1.0456  
G01 X-1.0704 Y1.0491  
G01 X-1.0749 Y1.0536  
G01 X-1.0784 Y1.0588  
G01 X-1.0808 Y1.0647  
G01 X-1.0820 Y1.0708  
G01 X-1.0820 Y1.1292  
G01 X-1.0808 Y1.1353  
G01 X-1.0784 Y1.1412  
G01 X-1.0749 Y1.1464  
G01 X-1.0704 Y1.1509  
G01 X-1.0700 Y1.1511  
G01 X-1.0700 Y1.2925  
G01 X-1.3776 Y1.2925  
G01 X-1.3827 Y1.2939  
G01 X-1.3873 Y1.2965  
G01 X-1.3910 Y1.3002  
G01 X-1.4360 Y1.3452  
G01 X-1.4407 Y1.3432  
G01 X-1.4468 Y1.3420  
G01 X-1.4532 Y1.3420  
G01 X-1.4593 Y1.3432  
G01 X-1.4652 Y1.3456  
G01 X-1.4704 Y1.3491  
G01 X-1.4749 Y1.3536  
G01 X-1.4784 Y1.3588  
G01 X-1.4808 Y1.3647  
G01 X-1.4820 Y1.3708  
G01 X-1.4820 Y1.3800  
G01 X-1.5180 Y1.3800  
G01 X-1.5180 Y1.3708  
G01 X-1.5192 Y1.3647  
G01 X-1.5216 Y1.3588  
G01 X-1.5251 Y1.3536  
G01 X-1.5296 Y1.3491  
G01 X-1.5348 Y1.3456  
G01 X-1.5407 Y1.3432  
G01 X-1.5468 Y1.3420  
G01 X-1.5532 Y1.3420  
G01 X-1.5593 Y1.3432  
G01 X-1.5652 Y1.3456  
G01 X-1.5704 Y1.3491  
G01 X-1.5749 Y1.3536  
G01 X-1.5784 Y1.3588  
G01 X-1.5808 Y1.3647  
G01 X-1.5820 Y1.3708  
G01 X-1.5820 Y1.4292  
G01 X-1.5808 Y1.4353  
G01 X-1.5784 Y1.4412  
G01 X-1.5749 Y1.4464  
G01 X-1.5704 Y1.4509  
G01 X-1.5652 Y1.4544  
G01 X-1.5593 Y1.4568  
G01 X-1.5532 Y1.4580  
G01 X-1.5468 Y1.4580  
G01 X-1.5407 Y1.4568  
G01 X-1.5348 Y1.4544  
G01 X-1.5296 Y1.4509  
G01 X-1.5251 Y1.4464  
G01 X-1.5216 Y1.4412  
G01 X-1.5192 Y1.4353  
G01 X-1.5180 Y1.4292  
G01 X-1.5180 Y1.4200  
G01 X-1.4820 Y1.4200  
G01 X-1.4820 Y1.4292  
G01 X-1.4808 Y1.4353  
G01 X-1.4784 Y1.4412  
G01 X-1.4749 Y1.4464  
G01 X-1.4704 Y1.4509  
G01 X-1.4652 Y1.4544  
G01 X-1.4593 Y1.4568  
G01 X-1.4532 Y1.4580  
G01 X-1.4468 Y1.4580  
G01 X-1.4407 Y1.4568  
G01 X-1.4348 Y1.4544  
G01 X-1.4296 Y1.4509  
G01 X-1.4251 Y1.4464  
G01 X-1.4216 Y1.4412  
G01 X-1.4192 Y1.4353  
G01 X-1.4180 Y1.4292  
G01 X-1.4180 Y1.3838  
G01 X-1.3667 Y1.3325  
G01 X-1.1233 Y1.3325  
G01 X-1.1360 Y1.3452  
G01 X-1.1407 Y1.3432  
G01 X-1.1468 Y1.3420  
G01 X-1.1532 Y1.3420  
G01 X-1.1593 Y1.3432  
G01 X-1.1652 Y1.3456  
G01 X-1.1704 Y1.3491  
G01 X-1.1749 Y1.3536  
G01 X-1.1784 Y1.3588  
G01 X-1.1808 Y1.3647  
G01 X-1.1820 Y1.3708  
G01 X-1.1820 Y1.4292  
G01 X-1.1808 Y1.4353  
G01 X-1.1784 Y1.4412  
G01 X-1.1749 Y1.4464  
G01 X-1.1704 Y1.4509  
G01 X-1.1700 Y1.4511  
G01 X-1.1700 Y1.5300  
G01 X-1.2015 Y1.5300  
G01 X-1.2299 Y1.5015  
G01 X-1.2701 Y1.5015  
G01 X-1.2985 Y1.5299  
G01 X-1.2985 Y1.5701  
G01 X-1.2701 Y1.5985  
G01 X-1.2299 Y1.5985  
G01 X-1.2015 Y1.5701  
G01 X-1.0881 Y1.5700  
G01 X-1.0868 Y1.5725  
G01 X-1.0828 Y1.5780  
G01 X-1.0780 Y1.5828  
G01 X-1.0725 Y1.5868  
G01 X-1.0665 Y1.5898  
G01 X-1.0601 Y1.5919  
G01 X-1.0534 Y1.5930  
G01 X-1.0466 Y1.5930  
G01 X-1.0399 Y1.5919  
G01 X-1.0335 Y1.5898  
G01 X-1.0275 Y1.5868  
G01 X-1.0220 Y1.5828  
G01 X-1.0172 Y1.5780  
G01 X-1.0132 Y1.5725  
G01 X-1.0102 Y1.5665  
G01 X-1.0081 Y1.5601  
G01 X-1.0070 Y1.5534  
G01 X-1.0070 Y1.5466  
G01 X-1.0081 Y1.5399  
G01 X-1.0102 Y1.5335  
G01 X-1.0132 Y1.5275  
G01 X-1.0172 Y1.5220  
G01 X-1.0220 Y1.5172  
G01 X-1.0275 Y1.5132  
G01 X-1.0335 Y1.5102  
G01 X-1.0399 Y1.5081  
G01 X-1.0466 Y1.5070  
G01 X-1.0534 Y1.5070  
G01 X-1.0601 Y1.5081  
G01 X-1.0665 Y1.5102  
G01 X-1.0725 Y1.5132  
G01 X-1.0780 Y1.5172  
G01 X-1.0828 Y1.5220  
G01 X-1.0868 Y1.5275  
G01 X-1.0881 Y1.5300  
G01 X-1.1300 Y1.5300  
G01 X-1.1300 Y1.4511  
G01 X-1.1296 Y1.4509  
G01 X-1.1251 Y1.4464  
G01 X-1.1216 Y1.4412  
G01 X-1.1192 Y1.4353  
G01 X-1.1180 Y1.4292  
G01 X-1.1180 Y1.3838  
G01 X-1.0667 Y1.3325  
G01 X-1.0474 Y1.3325  
G01 X-1.0423 Y1.3311  
G01 X-1.0377 Y1.3285  
G01 X-1.0340 Y1.3248  
G01 X-1.0314 Y1.3202  
G01 X-1.0300 Y1.3151  
G01 X-1.0300 Y1.1511  
G01 X-1.0296 Y1.1509  
G01 X-1.0251 Y1.1464  
G01 X-1.0216 Y1.1412  
G01 X-1.0192 Y1.1353  
G01 X-1.0180 Y1.1292  
G01 X-1.0180 Y1.0708  
G01 X-1.0192 Y1.0647  
G01 X-1.0216 Y1.0588  
G01 X-1.0251 Y1.0536  
G00 Z0.0500  
G00 X-1.1251 Y1.0536  
G01 Z-0.0040 F10    
G01 X-1.1296 Y1.0491  F20    
G01 X-1.1348 Y1.0456  
G01 X-1.1407 Y1.0432  
G01 X-1.1468 Y1.0420  
G01 X-1.1532 Y1.0420  
G01 X-1.1593 Y1.0432  
G01 X-1.1652 Y1.0456  
G01 X-1.1704 Y1.0491  
G01 X-1.1749 Y1.0536  
G01 X-1.1784 Y1.0588  
G01 X-1.1808 Y1.0647  
G01 X-1.1820 Y1.0708  
G01 X-1.1820 Y1.1292  
G01 X-1.1808 Y1.1353  
G01 X-1.1784 Y1.1412  
G01 X-1.1749 Y1.1464  
G01 X-1.1704 Y1.1509  
G01 X-1.1700 Y1.1511  
G01 X-1.1700 Y1.1675  
G01 X-1.7542 Y1.1675  
G01 X-1.8089 Y1.1128  
G01 X-1.8081 Y1.1101  
G01 X-1.8070 Y1.1034  
G01 X-1.8070 Y1.0966  
G01 X-1.8081 Y1.0899  
G01 X-1.8102 Y1.0835  
G01 X-1.8132 Y1.0775  
G01 X-1.8172 Y1.0720  
G01 X-1.8220 Y1.0672  
G01 X-1.8275 Y1.0632  
G01 X-1.8335 Y1.0602  
G01 X-1.8399 Y1.0581  
G01 X-1.8466 Y1.0570  
G01 X-1.8534 Y1.0570  
G01 X-1.8601 Y1.0581  
G01 X-1.8665 Y1.0602  
G01 X-1.8725 Y1.0632  
G01 X-1.8780 Y1.0672  
G01 X-1.8828 Y1.0720  
G01 X-1.8868 Y1.0775  
G01 X-1.8898 Y1.0835  
G01 X-1.8919 Y1.0899  
G01 X-1.8930 Y1.0966  
G01 X-1.8930 Y1.1034  
G01 X-1.8919 Y1.1101  
G01 X-1.8898 Y1.1165  
G01 X-1.8868 Y1.1225  
G01 X-1.8828 Y1.1280  
G01 X-1.8780 Y1.1328  
G01 X-1.8725 Y1.1368  
G01 X-1.8665 Y1.1398  
G01 X-1.8601 Y1.1419  
G01 X-1.8534 Y1.1430  
G01 X-1.8466 Y1.1430  
G01 X-1.8399 Y1.1419  
G01 X-1.8372 Y1.1411  
G01 X-1.7748 Y1.2035  
G01 X-1.7702 Y1.2061  
G01 X-1.7651 Y1.2075  
G01 X-1.6325 Y1.2075  
G01 X-1.6325 Y1.4526  
G01 X-1.6311 Y1.4577  
G01 X-1.6285 Y1.4623  
G01 X-1.6248 Y1.4660  
G01 X-1.4623 Y1.6285  
G01 X-1.4577 Y1.6311  
G01 X-1.4526 Y1.6325  
G01 X-1.3950 Y1.6325  
G01 X-1.3950 Y1.8167  
G01 X-1.4333 Y1.8550  
G01 X-1.4667 Y1.8550  
G01 X-1.4752 Y1.8465  
G01 X-1.4798 Y1.8439  
G01 X-1.4849 Y1.8425  
G01 X-1.5792 Y1.8425  
G01 X-1.6089 Y1.8128  
G01 X-1.6081 Y1.8101  
G01 X-1.6070 Y1.8034  
G01 X-1.6070 Y1.7966  
G01 X-1.6081 Y1.7899  
G01 X-1.6102 Y1.7835  
G01 X-1.6132 Y1.7775  
G01 X-1.6172 Y1.7720  
G01 X-1.6220 Y1.7672  
G01 X-1.6275 Y1.7632  
G01 X-1.6335 Y1.7602  
G01 X-1.6399 Y1.7581  
G01 X-1.6466 Y1.7570  
G01 X-1.6534 Y1.7570  
G01 X-1.6601 Y1.7581  
G01 X-1.6665 Y1.7602  
G01 X-1.6725 Y1.7632  
G01 X-1.6780 Y1.7672  
G01 X-1.6828 Y1.7720  
G01 X-1.6868 Y1.7775  
G01 X-1.6898 Y1.7835  
G01 X-1.6919 Y1.7899  
G01 X-1.6930 Y1.7966  
G01 X-1.6930 Y1.8034  
G01 X-1.6919 Y1.8101  
G01 X-1.6898 Y1.8165  
G01 X-1.6868 Y1.8225  
G01 X-1.6828 Y1.8280  
G01 X-1.6780 Y1.8328  
G01 X-1.6725 Y1.8368  
G01 X-1.6665 Y1.8398  
G01 X-1.6601 Y1.8419  
G01 X-1.6534 Y1.8430  
G01 X-1.6466 Y1.8430  
G01 X-1.6399 Y1.8419  
G01 X-1.6372 Y1.8411  
G01 X-1.6035 Y1.8748  
G01 X-1.5998 Y1.8785  
G01 X-1.5952 Y1.8811  
G01 X-1.5901 Y1.8825  
G01 X-1.4958 Y1.8825  
G01 X-1.4910 Y1.8873  
G01 X-1.4873 Y1.8910  
G01 X-1.4827 Y1.8936  
G01 X-1.4776 Y1.8950  
G01 X-1.4224 Y1.8950  
G01 X-1.4173 Y1.8936  
G01 X-1.4127 Y1.8910  
G01 X-1.3627 Y1.8410  
G01 X-1.3590 Y1.8373  
G01 X-1.3564 Y1.8327  
G01 X-1.3550 Y1.8276  
G01 X-1.3550 Y1.6099  
G01 X-1.3564 Y1.6048  
G01 X-1.3590 Y1.6002  
G01 X-1.3627 Y1.5965  
G01 X-1.3673 Y1.5939  
G01 X-1.3724 Y1.5925  
G01 X-1.4417 Y1.5925  
G01 X-1.5925 Y1.4417  
G01 X-1.5925 Y1.2075  
G01 X-1.1474 Y1.2075  
G01 X-1.1423 Y1.2061  
G01 X-1.1377 Y1.2035  
G01 X-1.1340 Y1.1998  
G01 X-1.1314 Y1.1952  
G01 X-1.1300 Y1.1901  
G01 X-1.1300 Y1.1511  
G01 X-1.1296 Y1.1509  
G01 X-1.1251 Y1.1464  
G01 X-1.1216 Y1.1412  
G01 X-1.1192 Y1.1353  
G01 X-1.1180 Y1.1292  
G01 X-1.1180 Y1.0708  
G01 X-1.1192 Y1.0647  
G01 X-1.1216 Y1.0588  
G01 X-1.1251 Y1.0536  
G00 Z0.0500  
G00 X-1.2251 Y1.0536  
G01 Z-0.0040 F10    
G01 X-1.2296 Y1.0491  F20    
G01 X-1.2348 Y1.0456  
G01 X-1.2407 Y1.0432  
G01 X-1.2468 Y1.0420  
G01 X-1.2532 Y1.0420  
G01 X-1.2593 Y1.0432  
G01 X-1.2652 Y1.0456  
G01 X-1.2704 Y1.0491  
G01 X-1.2749 Y1.0536  
G01 X-1.2784 Y1.0588  
G01 X-1.2808 Y1.0647  
G01 X-1.2820 Y1.0708  
G01 X-1.2820 Y1.1292  
G01 X-1.2808 Y1.1353  
G01 X-1.2784 Y1.1412  
G01 X-1.2749 Y1.1464  
G01 X-1.2704 Y1.1509  
G01 X-1.2652 Y1.1544  
G01 X-1.2593 Y1.1568  
G01 X-1.2532 Y1.1580  
G01 X-1.2468 Y1.1580  
G01 X-1.2407 Y1.1568  
G01 X-1.2348 Y1.1544  
G01 X-1.2296 Y1.1509  
G01 X-1.2251 Y1.1464  
G01 X-1.2216 Y1.1412  
G01 X-1.2192 Y1.1353  
G01 X-1.2180 Y1.1292  
G01 X-1.2180 Y1.0708  
G01 X-1.2192 Y1.0647  
G01 X-1.2216 Y1.0588  
G01 X-1.2251 Y1.0536  
G00 Z0.0500  
G00 X-1.4251 Y1.0536  
G01 Z-0.0040 F10    
G01 X-1.4296 Y1.0491  F20    
G01 X-1.4348 Y1.0456  
G01 X-1.4407 Y1.0432  
G01 X-1.4468 Y1.0420  
G01 X-1.4532 Y1.0420  
G01 X-1.4593 Y1.0432  
G01 X-1.4652 Y1.0456  
G01 X-1.4704 Y1.0491  
G01 X-1.4749 Y1.0536  
G01 X-1.4784 Y1.0588  
G01 X-1.4808 Y1.0647  
G01 X-1.4820 Y1.0708  
G01 X-1.4820 Y1.0800  
G01 X-1.5180 Y1.0800  
G01 X-1.5180 Y1.0708  
G01 X-1.5192 Y1.0647  
G01 X-1.5216 Y1.0588  
G01 X-1.5251 Y1.0536  
G01 X-1.5296 Y1.0491  
G01 X-1.5348 Y1.0456  
G01 X-1.5407 Y1.0432  
G01 X-1.5468 Y1.0420  
G01 X-1.5532 Y1.0420  
G01 X-1.5593 Y1.0432  
G01 X-1.5652 Y1.0456  
G01 X-1.5704 Y1.0491  
G01 X-1.5749 Y1.0536  
G01 X-1.5784 Y1.0588  
G01 X-1.5808 Y1.0647  
G01 X-1.5820 Y1.0708  
G01 X-1.5820 Y1.1292  
G01 X-1.5808 Y1.1353  
G01 X-1.5784 Y1.1412  
G01 X-1.5749 Y1.1464  
G01 X-1.5704 Y1.1509  
G01 X-1.5652 Y1.1544  
G01 X-1.5593 Y1.1568  
G01 X-1.5532 Y1.1580  
G01 X-1.5468 Y1.1580  
G01 X-1.5407 Y1.1568  
G01 X-1.5348 Y1.1544  
G01 X-1.5296 Y1.1509  
G01 X-1.5251 Y1.1464  
G01 X-1.5216 Y1.1412  
G01 X-1.5192 Y1.1353  
G01 X-1.5180 Y1.1292  
G01 X-1.5180 Y1.1200  
G01 X-1.4820 Y1.1200  
G01 X-1.4820 Y1.1292  
G01 X-1.4808 Y1.1353  
G01 X-1.4784 Y1.1412  
G01 X-1.4749 Y1.1464  
G01 X-1.4704 Y1.1509  
G01 X-1.4652 Y1.1544  
G01 X-1.4593 Y1.1568  
G01 X-1.4532 Y1.1580  
G01 X-1.4468 Y1.1580  
G01 X-1.4407 Y1.1568  
G01 X-1.4348 Y1.1544  
G01 X-1.4296 Y1.1509  
G01 X-1.4251 Y1.1464  
G01 X-1.4216 Y1.1412  
G01 X-1.4192 Y1.1353  
G01 X-1.4180 Y1.1292  
G01 X-1.4180 Y1.0708  
G01 X-1.4192 Y1.0647  
G01 X-1.4216 Y1.0588  
G01 X-1.4251 Y1.0536  
G00 Z0.0500  
G00 X-1.4720 Y0.8828  
G01 Z-0.0040 F10    
G01 X-1.4672 Y0.8780  F20    
G01 X-1.4632 Y0.8725  
G01 X-1.4602 Y0.8665  
G01 X-1.4581 Y0.8601  
G01 X-1.4570 Y0.8534  
G01 X-1.4570 Y0.8466  
G01 X-1.4581 Y0.8399  
G01 X-1.4602 Y0.8335  
G01 X-1.4632 Y0.8275  
G01 X-1.4672 Y0.8220  
G01 X-1.4720 Y0.8172  
G01 X-1.4775 Y0.8132  
G01 X-1.4800 Y0.8119  
G01 X-1.4800 Y0.3600  
G01 X-1.3014 Y0.3600  
G01 X-1.3003 Y0.3602  
G01 X-1.2988 Y0.3600  
G01 X-1.2974 Y0.3600  
G01 X-1.2962 Y0.3597  
G01 X-1.2950 Y0.3596  
G01 X-1.2937 Y0.3590  
G01 X-1.2923 Y0.3586  
G01 X-1.2913 Y0.3580  
G01 X-1.2902 Y0.3576  
G01 X-1.2890 Y0.3567  
G01 X-1.2877 Y0.3560  
G01 X-1.2869 Y0.3552  
G01 X-1.2859 Y0.3545  
G01 X-1.2850 Y0.3533  
G01 X-1.2840 Y0.3523  
G01 X-1.2834 Y0.3513  
G01 X-1.1621 Y0.1976  
G01 X-1.1615 Y0.1978  
G01 X-1.1539 Y0.1990  
G01 X-1.1461 Y0.1990  
G01 X-1.1385 Y0.1978  
G01 X-1.1312 Y0.1954  
G01 X-1.1243 Y0.1919  
G01 X-1.1181 Y0.1874  
G01 X-1.1126 Y0.1819  
G01 X-1.1081 Y0.1757  
G01 X-1.1046 Y0.1688  
G01 X-1.1022 Y0.1615  
G01 X-1.1010 Y0.1539  
G01 X-1.1010 Y0.1461  
G01 X-1.1022 Y0.1385  
G01 X-1.1046 Y0.1312  
G01 X-1.1081 Y0.1243  
G01 X-1.1126 Y0.1181  
G01 X-1.1181 Y0.1126  
G01 X-1.1243 Y0.1081  
G01 X-1.1312 Y0.1046  
G01 X-1.1385 Y0.1022  
G01 X-1.1461 Y0.1010  
G01 X-1.1539 Y0.1010  
G01 X-1.1615 Y0.1022  
G01 X-1.1688 Y0.1046  
G01 X-1.1757 Y0.1081  
G01 X-1.1819 Y0.1126  
G01 X-1.1874 Y0.1181  
G01 X-1.1919 Y0.1243  
G01 X-1.1954 Y0.1312  
G01 X-1.1978 Y0.1385  
G01 X-1.1990 Y0.1461  
G01 X-1.1990 Y0.1539  
G01 X-1.1978 Y0.1615  
G01 X-1.1954 Y0.1688  
G01 X-1.1934 Y0.1727  
G01 X-1.3097 Y0.3200  
G01 X-1.5026 Y0.3200  
G01 X-1.5077 Y0.3214  
G01 X-1.5123 Y0.3240  
G01 X-1.5160 Y0.3277  
G01 X-1.5186 Y0.3323  
G01 X-1.5200 Y0.3374  
G01 X-1.5200 Y0.8119  
G01 X-1.5225 Y0.8132  
G01 X-1.5280 Y0.8172  
G01 X-1.5328 Y0.8220  
G01 X-1.5368 Y0.8275  
G01 X-1.5398 Y0.8335  
G01 X-1.5419 Y0.8399  
G01 X-1.5430 Y0.8466  
G01 X-1.5430 Y0.8534  
G01 X-1.5419 Y0.8601  
G01 X-1.5398 Y0.8665  
G01 X-1.5368 Y0.8725  
G01 X-1.5328 Y0.8780  
G01 X-1.5280 Y0.8828  
G01 X-1.5225 Y0.8868  
G01 X-1.5165 Y0.8898  
G01 X-1.5101 Y0.8919  
G01 X-1.5034 Y0.8930  
G01 X-1.4966 Y0.8930  
G01 X-1.4899 Y0.8919  
G01 X-1.4835 Y0.8898  
G01 X-1.4775 Y0.8868  
G01 X-1.4720 Y0.8828  
G00 Z0.0500  
G00 X-1.5799 Y0.6485  
G01 Z-0.0040 F10    
G01 X-1.5515 Y0.6201  F20    
G01 X-1.5515 Y0.5799  
G01 X-1.5799 Y0.5515  
G01 X-1.6201 Y0.5515  
G01 X-1.6485 Y0.5799  
G01 X-1.7300 Y0.5800  
G01 X-1.7300 Y0.5381  
G01 X-1.7275 Y0.5368  
G01 X-1.7220 Y0.5328  
G01 X-1.7172 Y0.5280  
G01 X-1.7132 Y0.5225  
G01 X-1.7102 Y0.5165  
G01 X-1.7081 Y0.5101  
G01 X-1.7070 Y0.5034  
G01 X-1.7070 Y0.4966  
G01 X-1.7081 Y0.4899  
G01 X-1.7102 Y0.4835  
G01 X-1.7132 Y0.4775  
G01 X-1.7172 Y0.4720  
G01 X-1.7220 Y0.4672  
G01 X-1.7275 Y0.4632  
G01 X-1.7335 Y0.4602  
G01 X-1.7399 Y0.4581  
G01 X-1.7466 Y0.4570  
G01 X-1.7534 Y0.4570  
G01 X-1.7601 Y0.4581  
G01 X-1.7665 Y0.4602  
G01 X-1.7725 Y0.4632  
G01 X-1.7780 Y0.4672  
G01 X-1.7828 Y0.4720  
G01 X-1.7868 Y0.4775  
G01 X-1.7898 Y0.4835  
G01 X-1.7919 Y0.4899  
G01 X-1.7930 Y0.4966  
G01 X-1.7930 Y0.5034  
G01 X-1.7919 Y0.5101  
G01 X-1.7898 Y0.5165  
G01 X-1.7868 Y0.5225  
G01 X-1.7828 Y0.5280  
G01 X-1.7780 Y0.5328  
G01 X-1.7725 Y0.5368  
G01 X-1.7700 Y0.5381  
G01 X-1.7700 Y0.6119  
G01 X-1.7725 Y0.6132  
G01 X-1.7780 Y0.6172  
G01 X-1.7828 Y0.6220  
G01 X-1.7868 Y0.6275  
G01 X-1.7898 Y0.6335  
G01 X-1.7919 Y0.6399  
G01 X-1.7930 Y0.6466  
G01 X-1.7930 Y0.6534  
G01 X-1.7919 Y0.6601  
G01 X-1.7898 Y0.6665  
G01 X-1.7868 Y0.6725  
G01 X-1.7828 Y0.6780  
G01 X-1.7780 Y0.6828  
G01 X-1.7725 Y0.6868  
G01 X-1.7665 Y0.6898  
G01 X-1.7601 Y0.6919  
G01 X-1.7534 Y0.6930  
G01 X-1.7466 Y0.6930  
G01 X-1.7399 Y0.6919  
G01 X-1.7335 Y0.6898  
G01 X-1.7275 Y0.6868  
G01 X-1.7220 Y0.6828  
G01 X-1.7172 Y0.6780  
G01 X-1.7132 Y0.6725  
G01 X-1.7102 Y0.6665  
G01 X-1.7081 Y0.6601  
G01 X-1.7070 Y0.6534  
G01 X-1.7070 Y0.6466  
G01 X-1.7081 Y0.6399  
G01 X-1.7102 Y0.6335  
G01 X-1.7132 Y0.6275  
G01 X-1.7172 Y0.6220  
G01 X-1.7192 Y0.6200  
G01 X-1.6485 Y0.6200  
G01 X-1.6201 Y0.6485  
G01 X-1.5799 Y0.6485  
G00 Z0.0500  
G00 X-1.8672 Y0.8220  
G01 Z-0.0040 F10    
G01 X-1.8720 Y0.8172  F20    
G01 X-1.8775 Y0.8132  
G01 X-1.8835 Y0.8102  
G01 X-1.8899 Y0.8081  
G01 X-1.8966 Y0.8070  
G01 X-1.9034 Y0.8070  
G01 X-1.9101 Y0.8081  
G01 X-1.9165 Y0.8102  
G01 X-1.9225 Y0.8132  
G01 X-1.9280 Y0.8172  
G01 X-1.9328 Y0.8220  
G01 X-1.9368 Y0.8275  
G01 X-1.9398 Y0.8335  
G01 X-1.9419 Y0.8399  
G01 X-1.9430 Y0.8466  
G01 X-1.9430 Y0.8534  
G01 X-1.9419 Y0.8601  
G01 X-1.9411 Y0.8628  
G01 X-1.9583 Y0.8800  
G01 X-1.9619 Y0.8800  
G01 X-1.9632 Y0.8775  
G01 X-1.9672 Y0.8720  
G01 X-1.9720 Y0.8672  
G01 X-1.9775 Y0.8632  
G01 X-1.9835 Y0.8602  
G01 X-1.9899 Y0.8581  
G01 X-1.9966 Y0.8570  
G01 X-2.0034 Y0.8570  
G01 X-2.0101 Y0.8581  
G01 X-2.0165 Y0.8602  
G01 X-2.0225 Y0.8632  
G01 X-2.0280 Y0.8672  
G01 X-2.0328 Y0.8720  
G01 X-2.0368 Y0.8775  
G01 X-2.0398 Y0.8835  
G01 X-2.0419 Y0.8899  
G01 X-2.0430 Y0.8966  
G01 X-2.0430 Y0.9034  
G01 X-2.0419 Y0.9101  
G01 X-2.0411 Y0.9128  
G01 X-2.0848 Y0.9565  
G01 X-2.5430 Y1.0452  
G01 X-2.5447 Y1.0454  
G01 X-2.5455 Y1.0457  
G01 X-2.5464 Y1.0459  
G01 X-2.5480 Y1.0466  
G01 X-2.5496 Y1.0473  
G01 X-2.5503 Y1.0478  
G01 X-2.5511 Y1.0482  
G01 X-2.5525 Y1.0493  
G01 X-2.5539 Y1.0504  
G01 X-2.5544 Y1.0511  
G01 X-2.5551 Y1.0516  
G01 X-2.5561 Y1.0531  
G01 X-2.5572 Y1.0545  
G01 X-2.5576 Y1.0553  
G01 X-2.5580 Y1.0560  
G01 X-2.5586 Y1.0577  
G01 X-2.5962 Y1.1421  
G01 X-2.5968 Y1.1420  
G01 X-2.6032 Y1.1420  
G01 X-2.6093 Y1.1432  
G01 X-2.6152 Y1.1456  
G01 X-2.6204 Y1.1491  
G01 X-2.6249 Y1.1536  
G01 X-2.6284 Y1.1588  
G01 X-2.6308 Y1.1647  
G01 X-2.6320 Y1.1708  
G01 X-2.6320 Y1.2292  
G01 X-2.6308 Y1.2353  
G01 X-2.6284 Y1.2412  
G01 X-2.6249 Y1.2464  
G01 X-2.6204 Y1.2509  
G01 X-2.6152 Y1.2544  
G01 X-2.6093 Y1.2568  
G01 X-2.6032 Y1.2580  
G01 X-2.5968 Y1.2580  
G01 X-2.5907 Y1.2568  
G01 X-2.5848 Y1.2544  
G01 X-2.5796 Y1.2509  
G01 X-2.5751 Y1.2464  
G01 X-2.5716 Y1.2412  
G01 X-2.5692 Y1.2353  
G01 X-2.5680 Y1.2292  
G01 X-2.5680 Y1.1772  
G01 X-2.5260 Y1.0827  
G01 X-2.0731 Y0.9950  
G01 X-2.0724 Y0.9950  
G01 X-2.0705 Y0.9945  
G01 X-2.0686 Y0.9941  
G01 X-2.0680 Y0.9938  
G01 X-2.0673 Y0.9936  
G01 X-2.0656 Y0.9927  
G01 X-2.0639 Y0.9918  
G01 X-2.0633 Y0.9914  
G01 X-2.0627 Y0.9910  
G01 X-2.0614 Y0.9896  
G01 X-2.0599 Y0.9884  
G01 X-2.0595 Y0.9878  
G01 X-2.0128 Y0.9411  
G01 X-2.0101 Y0.9419  
G01 X-2.0034 Y0.9430  
G01 X-1.9966 Y0.9430  
G01 X-1.9899 Y0.9419  
G01 X-1.9835 Y0.9398  
G01 X-1.9775 Y0.9368  
G01 X-1.9720 Y0.9328  
G01 X-1.9672 Y0.9280  
G01 X-1.9632 Y0.9225  
G01 X-1.9619 Y0.9200  
G01 X-1.9474 Y0.9200  
G01 X-1.9423 Y0.9186  
G01 X-1.9377 Y0.9160  
G01 X-1.9340 Y0.9123  
G01 X-1.9128 Y0.8911  
G01 X-1.9101 Y0.8919  
G01 X-1.9034 Y0.8930  
G01 X-1.8966 Y0.8930  
G01 X-1.8899 Y0.8919  
G01 X-1.8835 Y0.8898  
G01 X-1.8775 Y0.8868  
G01 X-1.8720 Y0.8828  
G01 X-1.8672 Y0.8780  
G01 X-1.8632 Y0.8725  
G01 X-1.8602 Y0.8665  
G01 X-1.8581 Y0.8601  
G01 X-1.8570 Y0.8534  
G01 X-1.8570 Y0.8466  
G01 X-1.8581 Y0.8399  
G01 X-1.8602 Y0.8335  
G01 X-1.8632 Y0.8275  
G01 X-1.8672 Y0.8220  
G00 Z0.0500  
G00 X-2.2299 Y0.7985  
G01 Z-0.0040 F10    
G01 X-2.2015 Y0.7701  F20    
G01 X-2.2015 Y0.7299  
G01 X-2.1628 Y0.6911  
G01 X-2.1601 Y0.6919  
G01 X-2.1534 Y0.6930  
G01 X-2.1466 Y0.6930  
G01 X-2.1399 Y0.6919  
G01 X-2.1335 Y0.6898  
G01 X-2.1275 Y0.6868  
G01 X-2.1220 Y0.6828  
G01 X-2.1172 Y0.6780  
G01 X-2.1132 Y0.6725  
G01 X-2.1102 Y0.6665  
G01 X-2.1081 Y0.6601  
G01 X-2.1070 Y0.6534  
G01 X-2.1070 Y0.6466  
G01 X-2.1081 Y0.6399  
G01 X-2.1102 Y0.6335  
G01 X-2.1132 Y0.6275  
G01 X-2.1172 Y0.6220  
G01 X-2.1220 Y0.6172  
G01 X-2.1275 Y0.6132  
G01 X-2.1335 Y0.6102  
G01 X-2.1399 Y0.6081  
G01 X-2.1466 Y0.6070  
G01 X-2.1534 Y0.6070  
G01 X-2.1601 Y0.6081  
G01 X-2.1665 Y0.6102  
G01 X-2.1725 Y0.6132  
G01 X-2.1780 Y0.6172  
G01 X-2.1828 Y0.6220  
G01 X-2.1868 Y0.6275  
G01 X-2.1898 Y0.6335  
G01 X-2.1919 Y0.6399  
G01 X-2.1930 Y0.6466  
G01 X-2.1930 Y0.6534  
G01 X-2.1919 Y0.6601  
G01 X-2.1911 Y0.6628  
G01 X-2.2298 Y0.7016  
G01 X-2.2701 Y0.7015  
G01 X-2.2985 Y0.7299  
G01 X-2.2985 Y0.7701  
G01 X-2.2701 Y0.7985  
G01 X-2.2299 Y0.7985  
G00 Z0.0500  
G00 X-2.3672 Y0.8720  
G01 Z-0.0040 F10    
G01 X-2.3720 Y0.8672  F20    
G01 X-2.3775 Y0.8632  
G01 X-2.3835 Y0.8602  
G01 X-2.3899 Y0.8581  
G01 X-2.3966 Y0.8570  
G01 X-2.4034 Y0.8570  
G01 X-2.4101 Y0.8581  
G01 X-2.4165 Y0.8602  
G01 X-2.4225 Y0.8632  
G01 X-2.4280 Y0.8672  
G01 X-2.4328 Y0.8720  
G01 X-2.4368 Y0.8775  
G01 X-2.4381 Y0.8800  
G01 X-2.4515 Y0.8800  
G01 X-2.4799 Y0.8515  
G01 X-2.5201 Y0.8515  
G01 X-2.5485 Y0.8799  
G01 X-2.5485 Y0.9201  
G01 X-2.5201 Y0.9485  
G01 X-2.4799 Y0.9485  
G01 X-2.4515 Y0.9201  
G01 X-2.4381 Y0.9200  
G01 X-2.4368 Y0.9225  
G01 X-2.4328 Y0.9280  
G01 X-2.4280 Y0.9328  
G01 X-2.4225 Y0.9368  
G01 X-2.4165 Y0.9398  
G01 X-2.4101 Y0.9419  
G01 X-2.4034 Y0.9430  
G01 X-2.3966 Y0.9430  
G01 X-2.3899 Y0.9419  
G01 X-2.3835 Y0.9398  
G01 X-2.3775 Y0.9368  
G01 X-2.3720 Y0.9328  
G01 X-2.3672 Y0.9280  
G01 X-2.3632 Y0.9225  
G01 X-2.3602 Y0.9165  
G01 X-2.3581 Y0.9101  
G01 X-2.3570 Y0.9034  
G01 X-2.3570 Y0.8966  
G01 X-2.3581 Y0.8899  
G01 X-2.3602 Y0.8835  
G01 X-2.3632 Y0.8775  
G01 X-2.3672 Y0.8720  
G00 Z0.0500  
G00 X-2.3701 Y0.6485  
G01 Z-0.0040 F10    
G01 X-2.3299 Y0.6485  F20    
G01 X-2.3015 Y0.6201  
G01 X-2.3015 Y0.5799  
G01 X-2.3299 Y0.5515  
G01 X-2.3701 Y0.5515  
G01 X-2.3985 Y0.5799  
G01 X-2.4026 Y0.5800  
G01 X-2.4077 Y0.5814  
G01 X-2.4123 Y0.5840  
G01 X-2.4160 Y0.5877  
G01 X-2.4372 Y0.6089  
G01 X-2.4399 Y0.6081  
G01 X-2.4466 Y0.6070  
G01 X-2.4534 Y0.6070  
G01 X-2.4601 Y0.6081  
G01 X-2.4665 Y0.6102  
G01 X-2.4725 Y0.6132  
G01 X-2.4780 Y0.6172  
G01 X-2.4828 Y0.6220  
G01 X-2.4868 Y0.6275  
G01 X-2.4898 Y0.6335  
G01 X-2.4919 Y0.6399  
G01 X-2.4930 Y0.6466  
G01 X-2.4930 Y0.6534  
G01 X-2.4919 Y0.6601  
G01 X-2.4898 Y0.6665  
G01 X-2.4868 Y0.6725  
G01 X-2.4828 Y0.6780  
G01 X-2.4780 Y0.6828  
G01 X-2.4725 Y0.6868  
G01 X-2.4665 Y0.6898  
G01 X-2.4601 Y0.6919  
G01 X-2.4534 Y0.6930  
G01 X-2.4466 Y0.6930  
G01 X-2.4399 Y0.6919  
G01 X-2.4335 Y0.6898  
G01 X-2.4275 Y0.6868  
G01 X-2.4220 Y0.6828  
G01 X-2.4172 Y0.6780  
G01 X-2.4132 Y0.6725  
G01 X-2.4102 Y0.6665  
G01 X-2.4081 Y0.6601  
G01 X-2.4070 Y0.6534  
G01 X-2.4070 Y0.6466  
G01 X-2.4081 Y0.6399  
G01 X-2.4089 Y0.6372  
G01 X-2.3952 Y0.6234  
G01 X-2.3701 Y0.6485  
G00 Z0.0500  
G00 X-2.4220 Y0.5328  
G01 Z-0.0040 F10    
G01 X-2.4172 Y0.5280  F20    
G01 X-2.4132 Y0.5225  
G01 X-2.4102 Y0.5165  
G01 X-2.4081 Y0.5101  
G01 X-2.4070 Y0.5034  
G01 X-2.4070 Y0.4966  
G01 X-2.4081 Y0.4899  
G01 X-2.4102 Y0.4835  
G01 X-2.4132 Y0.4775  
G01 X-2.4172 Y0.4720  
G01 X-2.4220 Y0.4672  
G01 X-2.4275 Y0.4632  
G01 X-2.4335 Y0.4602  
G01 X-2.4399 Y0.4581  
G01 X-2.4466 Y0.4570  
G01 X-2.4534 Y0.4570  
G01 X-2.4601 Y0.4581  
G01 X-2.4628 Y0.4589  
G01 X-2.7280 Y0.1938  
G01 X-2.7243 Y0.1919  
G01 X-2.7181 Y0.1874  
G01 X-2.7126 Y0.1819  
G01 X-2.7081 Y0.1757  
G01 X-2.7046 Y0.1688  
G01 X-2.7022 Y0.1615  
G01 X-2.7010 Y0.1539  
G01 X-2.7010 Y0.1461  
G01 X-2.7022 Y0.1385  
G01 X-2.7046 Y0.1312  
G01 X-2.7081 Y0.1243  
G01 X-2.7126 Y0.1181  
G01 X-2.7181 Y0.1126  
G01 X-2.7243 Y0.1081  
G01 X-2.7312 Y0.1046  
G01 X-2.7385 Y0.1022  
G01 X-2.7461 Y0.1010  
G01 X-2.7539 Y0.1010  
G01 X-2.7615 Y0.1022  
G01 X-2.7688 Y0.1046  
G01 X-2.7757 Y0.1081  
G01 X-2.7819 Y0.1126  
G01 X-2.7874 Y0.1181  
G01 X-2.7919 Y0.1243  
G01 X-2.7954 Y0.1312  
G01 X-2.7978 Y0.1385  
G01 X-2.7990 Y0.1461  
G01 X-2.7990 Y0.1539  
G01 X-2.7978 Y0.1615  
G01 X-2.7954 Y0.1688  
G01 X-2.7919 Y0.1757  
G01 X-2.7874 Y0.1819  
G01 X-2.7819 Y0.1874  
G01 X-2.7757 Y0.1919  
G01 X-2.7700 Y0.1948  
G01 X-2.7700 Y0.2026  
G01 X-2.7686 Y0.2077  
G01 X-2.7660 Y0.2123  
G01 X-2.7623 Y0.2160  
G01 X-2.4911 Y0.4872  
G01 X-2.4919 Y0.4899  
G01 X-2.4930 Y0.4966  
G01 X-2.4930 Y0.5034  
G01 X-2.4919 Y0.5101  
G01 X-2.4898 Y0.5165  
G01 X-2.4868 Y0.5225  
G01 X-2.4828 Y0.5280  
G01 X-2.4780 Y0.5328  
G01 X-2.4725 Y0.5368  
G01 X-2.4665 Y0.5398  
G01 X-2.4601 Y0.5419  
G01 X-2.4534 Y0.5430  
G01 X-2.4466 Y0.5430  
G01 X-2.4399 Y0.5419  
G01 X-2.4335 Y0.5398  
G01 X-2.4275 Y0.5368  
G01 X-2.4220 Y0.5328  
G00 Z0.0500  
G00 X-2.1828 Y0.5280  
G01 Z-0.0040 F10    
G01 X-2.1780 Y0.5328  F20    
G01 X-2.1725 Y0.5368  
G01 X-2.1665 Y0.5398  
G01 X-2.1601 Y0.5419  
G01 X-2.1534 Y0.5430  
G01 X-2.1466 Y0.5430  
G01 X-2.1399 Y0.5419  
G01 X-2.1335 Y0.5398  
G01 X-2.1275 Y0.5368  
G01 X-2.1220 Y0.5328  
G01 X-2.1172 Y0.5280  
G01 X-2.1132 Y0.5225  
G01 X-2.1102 Y0.5165  
G01 X-2.1081 Y0.5101  
G01 X-2.1070 Y0.5034  
G01 X-2.1070 Y0.4966  
G01 X-2.1081 Y0.4899  
G01 X-2.1102 Y0.4835  
G01 X-2.1132 Y0.4775  
G01 X-2.1172 Y0.4720  
G01 X-2.1220 Y0.4672  
G01 X-2.1275 Y0.4632  
G01 X-2.1300 Y0.4619  
G01 X-2.1300 Y0.2450  
G01 X-2.0224 Y0.2450  
G01 X-2.0173 Y0.2436  
G01 X-2.0127 Y0.2410  
G01 X-1.9675 Y0.1958  
G01 X-1.9615 Y0.1978  
G01 X-1.9539 Y0.1990  
G01 X-1.9461 Y0.1990  
G01 X-1.9385 Y0.1978  
G01 X-1.9312 Y0.1954  
G01 X-1.9243 Y0.1919  
G01 X-1.9181 Y0.1874  
G01 X-1.9126 Y0.1819  
G01 X-1.9081 Y0.1757  
G01 X-1.9046 Y0.1688  
G01 X-1.9022 Y0.1615  
G01 X-1.9010 Y0.1539  
G01 X-1.9010 Y0.1461  
G01 X-1.9022 Y0.1385  
G01 X-1.9046 Y0.1312  
G01 X-1.9081 Y0.1243  
G01 X-1.9126 Y0.1181  
G01 X-1.9181 Y0.1126  
G01 X-1.9243 Y0.1081  
G01 X-1.9312 Y0.1046  
G01 X-1.9385 Y0.1022  
G01 X-1.9461 Y0.1010  
G01 X-1.9539 Y0.1010  
G01 X-1.9615 Y0.1022  
G01 X-1.9688 Y0.1046  
G01 X-1.9757 Y0.1081  
G01 X-1.9819 Y0.1126  
G01 X-1.9874 Y0.1181  
G01 X-1.9919 Y0.1243  
G01 X-1.9954 Y0.1312  
G01 X-1.9978 Y0.1385  
G01 X-1.9990 Y0.1461  
G01 X-1.9990 Y0.1539  
G01 X-1.9978 Y0.1615  
G01 X-1.9958 Y0.1675  
G01 X-2.0333 Y0.2050  
G01 X-2.1526 Y0.2050  
G01 X-2.1577 Y0.2064  
G01 X-2.1623 Y0.2090  
G01 X-2.1660 Y0.2127  
G01 X-2.1686 Y0.2173  
G01 X-2.1700 Y0.2224  
G01 X-2.1700 Y0.4619  
G01 X-2.1725 Y0.4632  
G01 X-2.1780 Y0.4672  
G01 X-2.1828 Y0.4720  
G01 X-2.1868 Y0.4775  
G01 X-2.1898 Y0.4835  
G01 X-2.1919 Y0.4899  
G01 X-2.1930 Y0.4966  
G01 X-2.1930 Y0.5034  
G01 X-2.1919 Y0.5101  
G01 X-2.1898 Y0.5165  
G01 X-2.1868 Y0.5225  
G01 X-2.1828 Y0.5280  
G00 Z0.0500  
G00 X-2.6840 Y0.7877  
G01 Z-0.0040 F10    
G01 X-2.6877 Y0.7840  F20    
G01 X-2.6923 Y0.7814  
G01 X-2.6974 Y0.7800  
G01 X-2.7119 Y0.7800  
G01 X-2.7132 Y0.7775  
G01 X-2.7172 Y0.7720  
G01 X-2.7220 Y0.7672  
G01 X-2.7275 Y0.7632  
G01 X-2.7335 Y0.7602  
G01 X-2.7399 Y0.7581  
G01 X-2.7466 Y0.7570  
G01 X-2.7534 Y0.7570  
G01 X-2.7601 Y0.7581  
G01 X-2.7665 Y0.7602  
G01 X-2.7725 Y0.7632  
G01 X-2.7780 Y0.7672  
G01 X-2.7828 Y0.7720  
G01 X-2.7868 Y0.7775  
G01 X-2.7881 Y0.7800  
G01 X-2.8742 Y0.7800  
G01 X-3.1419 Y0.5123  
G01 X-3.1423 Y0.5118  
G01 X-3.1438 Y0.5104  
G01 X-3.1452 Y0.5090  
G01 X-3.1457 Y0.5087  
G01 X-3.1462 Y0.5083  
G01 X-3.1480 Y0.5074  
G01 X-3.1498 Y0.5064  
G01 X-3.1504 Y0.5062  
G01 X-3.1509 Y0.5059  
G01 X-3.1529 Y0.5055  
G01 X-3.1549 Y0.5050  
G01 X-3.1555 Y0.5050  
G01 X-3.2493 Y0.4858  
G01 X-3.2502 Y0.4854  
G01 X-3.2519 Y0.4852  
G01 X-3.2536 Y0.4849  
G01 X-3.2545 Y0.4849  
G01 X-3.2599 Y0.4843  
G01 X-3.2602 Y0.4835  
G01 X-3.2632 Y0.4775  
G01 X-3.2672 Y0.4720  
G01 X-3.2720 Y0.4672  
G01 X-3.2775 Y0.4632  
G01 X-3.2835 Y0.4602  
G01 X-3.2899 Y0.4581  
G01 X-3.2966 Y0.4570  
G01 X-3.3034 Y0.4570  
G01 X-3.3101 Y0.4581  
G01 X-3.3165 Y0.4602  
G01 X-3.3225 Y0.4632  
G01 X-3.3280 Y0.4672  
G01 X-3.3328 Y0.4720  
G01 X-3.3368 Y0.4775  
G01 X-3.3398 Y0.4835  
G01 X-3.3419 Y0.4899  
G01 X-3.3430 Y0.4966  
G01 X-3.3430 Y0.5034  
G01 X-3.3419 Y0.5101  
G01 X-3.3398 Y0.5165  
G01 X-3.3368 Y0.5225  
G01 X-3.3328 Y0.5280  
G01 X-3.3280 Y0.5328  
G01 X-3.3225 Y0.5368  
G01 X-3.3165 Y0.5398  
G01 X-3.3101 Y0.5419  
G01 X-3.3034 Y0.5430  
G01 X-3.2966 Y0.5430  
G01 X-3.2899 Y0.5419  
G01 X-3.2835 Y0.5398  
G01 X-3.2775 Y0.5368  
G01 X-3.2720 Y0.5328  
G01 X-3.2672 Y0.5280  
G01 X-3.2643 Y0.5241  
G01 X-3.2581 Y0.5248  
G01 X-3.1674 Y0.5434  
G01 X-2.8985 Y0.8123  
G01 X-2.8948 Y0.8160  
G01 X-2.8902 Y0.8186  
G01 X-2.8851 Y0.8200  
G01 X-2.7881 Y0.8200  
G01 X-2.7868 Y0.8225  
G01 X-2.7828 Y0.8280  
G01 X-2.7780 Y0.8328  
G01 X-2.7725 Y0.8368  
G01 X-2.7665 Y0.8398  
G01 X-2.7601 Y0.8419  
G01 X-2.7534 Y0.8430  
G01 X-2.7466 Y0.8430  
G01 X-2.7399 Y0.8419  
G01 X-2.7335 Y0.8398  
G01 X-2.7275 Y0.8368  
G01 X-2.7220 Y0.8328  
G01 X-2.7200 Y0.8308  
G01 X-2.7200 Y1.0206  
G01 X-2.7205 Y1.0215  
G01 X-2.7220 Y1.0271  
G01 X-2.7220 Y1.0329  
G01 X-2.7205 Y1.0385  
G01 X-2.7200 Y1.0394  
G01 X-2.7200 Y1.1489  
G01 X-2.7204 Y1.1491  
G01 X-2.7249 Y1.1536  
G01 X-2.7284 Y1.1588  
G01 X-2.7308 Y1.1647  
G01 X-2.7320 Y1.1708  
G01 X-2.7320 Y1.2292  
G01 X-2.7308 Y1.2353  
G01 X-2.7284 Y1.2412  
G01 X-2.7249 Y1.2464  
G01 X-2.7204 Y1.2509  
G01 X-2.7152 Y1.2544  
G01 X-2.7093 Y1.2568  
G01 X-2.7032 Y1.2580  
G01 X-2.6968 Y1.2580  
G01 X-2.6907 Y1.2568  
G01 X-2.6848 Y1.2544  
G01 X-2.6796 Y1.2509  
G01 X-2.6751 Y1.2464  
G01 X-2.6716 Y1.2412  
G01 X-2.6692 Y1.2353  
G01 X-2.6680 Y1.2292  
G01 X-2.6680 Y1.1708  
G01 X-2.6692 Y1.1647  
G01 X-2.6716 Y1.1588  
G01 X-2.6751 Y1.1536  
G01 X-2.6796 Y1.1491  
G01 X-2.6800 Y1.1489  
G01 X-2.6800 Y1.0726  
G01 X-2.6422 Y1.0726  
G01 X-2.6400 Y1.0717  
G01 X-2.6383 Y1.0700  
G01 X-2.6374 Y1.0678  
G01 X-2.6374 Y1.0122  
G01 X-2.6383 Y1.0100  
G01 X-2.6400 Y1.0083  
G01 X-2.6422 Y1.0074  
G01 X-2.6800 Y1.0074  
G01 X-2.6800 Y0.7974  
G01 X-2.6814 Y0.7923  
G01 X-2.6840 Y0.7877  
G00 Z0.0500  
G00 X-2.6204 Y1.4491  
G01 Z-0.0040 F10    
G01 X-2.6249 Y1.4536  F20    
G01 X-2.6284 Y1.4588  
G01 X-2.6308 Y1.4647  
G01 X-2.6320 Y1.4708  
G01 X-2.6320 Y1.5292  
G01 X-2.6308 Y1.5353  
G01 X-2.6284 Y1.5412  
G01 X-2.6249 Y1.5464  
G01 X-2.6204 Y1.5509  
G01 X-2.6200 Y1.5511  
G01 X-2.6200 Y1.9776  
G01 X-2.6186 Y1.9827  
G01 X-2.6160 Y1.9873  
G01 X-2.6123 Y1.9910  
G01 X-2.6077 Y1.9936  
G01 X-2.6026 Y1.9950  
G01 X-2.3924 Y1.9950  
G01 X-2.3873 Y1.9936  
G01 X-2.3827 Y1.9910  
G01 X-2.2689 Y1.8772  
G01 X-2.2675 Y1.8760  
G01 X-2.2671 Y1.8754  
G01 X-2.2665 Y1.8748  
G01 X-2.2656 Y1.8732  
G01 X-2.2645 Y1.8717  
G01 X-2.2643 Y1.8709  
G01 X-2.2639 Y1.8702  
G01 X-2.2634 Y1.8684  
G01 X-2.2628 Y1.8667  
G01 X-2.2627 Y1.8659  
G01 X-2.2625 Y1.8651  
G01 X-2.2625 Y1.8633  
G01 X-2.2440 Y1.6325  
G01 X-1.5958 Y1.6325  
G01 X-1.5484 Y1.6798  
G01 X-1.5485 Y1.7201  
G01 X-1.5201 Y1.7485  
G01 X-1.4799 Y1.7485  
G01 X-1.4700 Y1.7386  
G01 X-1.4700 Y1.7619  
G01 X-1.4725 Y1.7632  
G01 X-1.4780 Y1.7672  
G01 X-1.4828 Y1.7720  
G01 X-1.4868 Y1.7775  
G01 X-1.4898 Y1.7835  
G01 X-1.4919 Y1.7899  
G01 X-1.4930 Y1.7966  
G01 X-1.4930 Y1.8034  
G01 X-1.4919 Y1.8101  
G01 X-1.4898 Y1.8165  
G01 X-1.4868 Y1.8225  
G01 X-1.4828 Y1.8280  
G01 X-1.4780 Y1.8328  
G01 X-1.4725 Y1.8368  
G01 X-1.4665 Y1.8398  
G01 X-1.4601 Y1.8419  
G01 X-1.4534 Y1.8430  
G01 X-1.4466 Y1.8430  
G01 X-1.4399 Y1.8419  
G01 X-1.4335 Y1.8398  
G01 X-1.4275 Y1.8368  
G01 X-1.4220 Y1.8328  
G01 X-1.4172 Y1.8280  
G01 X-1.4132 Y1.8225  
G01 X-1.4102 Y1.8165  
G01 X-1.4081 Y1.8101  
G01 X-1.4070 Y1.8034  
G01 X-1.4070 Y1.7966  
G01 X-1.4081 Y1.7899  
G01 X-1.4102 Y1.7835  
G01 X-1.4132 Y1.7775  
G01 X-1.4172 Y1.7720  
G01 X-1.4220 Y1.7672  
G01 X-1.4275 Y1.7632  
G01 X-1.4300 Y1.7619  
G01 X-1.4300 Y1.7099  
G01 X-1.4314 Y1.7048  
G01 X-1.4340 Y1.7002  
G01 X-1.4377 Y1.6965  
G01 X-1.4423 Y1.6939  
G01 X-1.4474 Y1.6925  
G01 X-1.4515 Y1.6925  
G01 X-1.4515 Y1.6799  
G01 X-1.4799 Y1.6515  
G01 X-1.5201 Y1.6515  
G01 X-1.5752 Y1.5965  
G01 X-1.5798 Y1.5939  
G01 X-1.5849 Y1.5925  
G01 X-2.2617 Y1.5925  
G01 X-2.2635 Y1.5924  
G01 X-2.2643 Y1.5925  
G01 X-2.2651 Y1.5925  
G01 X-2.2669 Y1.5930  
G01 X-2.2687 Y1.5933  
G01 X-2.2694 Y1.5937  
G01 X-2.2702 Y1.5939  
G01 X-2.2718 Y1.5948  
G01 X-2.2735 Y1.5956  
G01 X-2.2741 Y1.5961  
G01 X-2.2748 Y1.5965  
G01 X-2.2761 Y1.5978  
G01 X-2.2775 Y1.5990  
G01 X-2.2779 Y1.5996  
G01 X-2.2785 Y1.6002  
G01 X-2.2794 Y1.6018  
G01 X-2.2805 Y1.6033  
G01 X-2.2807 Y1.6041  
G01 X-2.2811 Y1.6048  
G01 X-2.2816 Y1.6066  
G01 X-2.2822 Y1.6083  
G01 X-2.2823 Y1.6091  
G01 X-2.2825 Y1.6099  
G01 X-2.2825 Y1.6117  
G01 X-2.3018 Y1.8536  
G01 X-2.4033 Y1.9550  
G01 X-2.5800 Y1.9550  
G01 X-2.5800 Y1.5511  
G01 X-2.5796 Y1.5509  
G01 X-2.5751 Y1.5464  
G01 X-2.5716 Y1.5412  
G01 X-2.5692 Y1.5353  
G01 X-2.5680 Y1.5292  
G01 X-2.5680 Y1.4708  
G01 X-2.5692 Y1.4647  
G01 X-2.5716 Y1.4588  
G01 X-2.5751 Y1.4536  
G01 X-2.5796 Y1.4491  
G01 X-2.5848 Y1.4456  
G01 X-2.5907 Y1.4432  
G01 X-2.5968 Y1.4420  
G01 X-2.6032 Y1.4420  
G01 X-2.6093 Y1.4432  
G01 X-2.6152 Y1.4456  
G01 X-2.6204 Y1.4491  
G00 Z0.0500  
G00 X-2.5204 Y1.4491  
G01 Z-0.0040 F10    
G01 X-2.5249 Y1.4536  F20    
G01 X-2.5284 Y1.4588  
G01 X-2.5308 Y1.4647  
G01 X-2.5320 Y1.4708  
G01 X-2.5320 Y1.5292  
G01 X-2.5308 Y1.5353  
G01 X-2.5284 Y1.5412  
G01 X-2.5249 Y1.5464  
G01 X-2.5204 Y1.5509  
G01 X-2.5152 Y1.5544  
G01 X-2.5093 Y1.5568  
G01 X-2.5032 Y1.5580  
G01 X-2.4968 Y1.5580  
G01 X-2.4907 Y1.5568  
G01 X-2.4848 Y1.5544  
G01 X-2.4796 Y1.5509  
G01 X-2.4751 Y1.5464  
G01 X-2.4716 Y1.5412  
G01 X-2.4692 Y1.5353  
G01 X-2.4680 Y1.5292  
G01 X-2.4680 Y1.4708  
G01 X-2.4692 Y1.4647  
G01 X-2.4716 Y1.4588  
G01 X-2.4751 Y1.4536  
G01 X-2.4796 Y1.4491  
G01 X-2.4848 Y1.4456  
G01 X-2.4907 Y1.4432  
G01 X-2.4968 Y1.4420  
G01 X-2.5032 Y1.4420  
G01 X-2.5093 Y1.4432  
G01 X-2.5152 Y1.4456  
G01 X-2.5204 Y1.4491  
G00 Z0.0500  
G00 X-2.7751 Y1.4536  
G01 Z-0.0040 F10    
G01 X-2.7796 Y1.4491  F20    
G01 X-2.7848 Y1.4456  
G01 X-2.7907 Y1.4432  
G01 X-2.7968 Y1.4420  
G01 X-2.8032 Y1.4420  
G01 X-2.8093 Y1.4432  
G01 X-2.8152 Y1.4456  
G01 X-2.8204 Y1.4491  
G01 X-2.8249 Y1.4536  
G01 X-2.8284 Y1.4588  
G01 X-2.8308 Y1.4647  
G01 X-2.8320 Y1.4708  
G01 X-2.8320 Y1.5292  
G01 X-2.8308 Y1.5353  
G01 X-2.8284 Y1.5412  
G01 X-2.8249 Y1.5464  
G01 X-2.8204 Y1.5509  
G01 X-2.8152 Y1.5544  
G01 X-2.8093 Y1.5568  
G01 X-2.8040 Y1.5578  
G01 X-2.7798 Y1.6410  
G01 X-2.7798 Y1.6414  
G01 X-2.7791 Y1.6435  
G01 X-2.7785 Y1.6456  
G01 X-2.7782 Y1.6460  
G01 X-2.7781 Y1.6464  
G01 X-2.7769 Y1.6482  
G01 X-2.7757 Y1.6501  
G01 X-2.7754 Y1.6504  
G01 X-2.6800 Y1.7936  
G01 X-2.6800 Y2.0276  
G01 X-2.6786 Y2.0327  
G01 X-2.6760 Y2.0373  
G01 X-2.6723 Y2.0410  
G01 X-2.6677 Y2.0436  
G01 X-2.6626 Y2.0450  
G01 X-2.3599 Y2.0450  
G01 X-2.3548 Y2.0436  
G01 X-2.3502 Y2.0410  
G01 X-2.0877 Y1.7785  
G01 X-2.0840 Y1.7748  
G01 X-2.0814 Y1.7702  
G01 X-2.0800 Y1.7651  
G01 X-2.0800 Y1.7511  
G01 X-2.0796 Y1.7509  
G01 X-2.0751 Y1.7464  
G01 X-2.0716 Y1.7412  
G01 X-2.0692 Y1.7353  
G01 X-2.0680 Y1.7292  
G01 X-2.0680 Y1.6708  
G01 X-2.0692 Y1.6647  
G01 X-2.0716 Y1.6588  
G01 X-2.0751 Y1.6536  
G01 X-2.0796 Y1.6491  
G01 X-2.0848 Y1.6456  
G01 X-2.0907 Y1.6432  
G01 X-2.0968 Y1.6420  
G01 X-2.1032 Y1.6420  
G01 X-2.1093 Y1.6432  
G01 X-2.1152 Y1.6456  
G01 X-2.1204 Y1.6491  
G01 X-2.1249 Y1.6536  
G01 X-2.1284 Y1.6588  
G01 X-2.1308 Y1.6647  
G01 X-2.1320 Y1.6708  
G01 X-2.1320 Y1.7292  
G01 X-2.1308 Y1.7353  
G01 X-2.1284 Y1.7412  
G01 X-2.1249 Y1.7464  
G01 X-2.1204 Y1.7509  
G01 X-2.1200 Y1.7511  
G01 X-2.1200 Y1.7542  
G01 X-2.3708 Y2.0050  
G01 X-2.6400 Y2.0050  
G01 X-2.6400 Y1.7895  
G01 X-2.6399 Y1.7888  
G01 X-2.6400 Y1.7869  
G01 X-2.6400 Y1.7849  
G01 X-2.6402 Y1.7842  
G01 X-2.6402 Y1.7836  
G01 X-2.6408 Y1.7817  
G01 X-2.6414 Y1.7798  
G01 X-2.6417 Y1.7792  
G01 X-2.6419 Y1.7786  
G01 X-2.6430 Y1.7769  
G01 X-2.6440 Y1.7752  
G01 X-2.6445 Y1.7748  
G01 X-2.7417 Y1.6290  
G01 X-2.7691 Y1.5346  
G01 X-2.7680 Y1.5292  
G01 X-2.7680 Y1.4708  
G01 X-2.7692 Y1.4647  
G01 X-2.7716 Y1.4588  
G01 X-2.7751 Y1.4536  
G00 Z0.0500  
G00 X-2.9751 Y1.4536  
G01 Z-0.0040 F10    
G01 X-2.9796 Y1.4491  F20    
G01 X-2.9848 Y1.4456  
G01 X-2.9907 Y1.4432  
G01 X-2.9968 Y1.4420  
G01 X-3.0032 Y1.4420  
G01 X-3.0093 Y1.4432  
G01 X-3.0152 Y1.4456  
G01 X-3.0204 Y1.4491  
G01 X-3.0249 Y1.4536  
G01 X-3.0284 Y1.4588  
G01 X-3.0308 Y1.4647  
G01 X-3.0320 Y1.4708  
G01 X-3.0320 Y1.5292  
G01 X-3.0308 Y1.5353  
G01 X-3.0284 Y1.5412  
G01 X-3.0249 Y1.5464  
G01 X-3.0204 Y1.5509  
G01 X-3.0200 Y1.5511  
G01 X-3.0200 Y1.6813  
G01 X-3.0202 Y1.6814  
G01 X-3.0248 Y1.6840  
G01 X-3.0285 Y1.6877  
G01 X-3.0458 Y1.7050  
G01 X-3.1276 Y1.7050  
G01 X-3.1327 Y1.7064  
G01 X-3.1372 Y1.7089  
G01 X-3.1399 Y1.7081  
G01 X-3.1466 Y1.7070  
G01 X-3.1534 Y1.7070  
G01 X-3.1601 Y1.7081  
G01 X-3.1665 Y1.7102  
G01 X-3.1725 Y1.7132  
G01 X-3.1780 Y1.7172  
G01 X-3.1828 Y1.7220  
G01 X-3.1868 Y1.7275  
G01 X-3.1898 Y1.7335  
G01 X-3.1919 Y1.7399  
G01 X-3.1930 Y1.7466  
G01 X-3.1930 Y1.7534  
G01 X-3.1919 Y1.7601  
G01 X-3.1898 Y1.7665  
G01 X-3.1868 Y1.7725  
G01 X-3.1828 Y1.7780  
G01 X-3.1780 Y1.7828  
G01 X-3.1725 Y1.7868  
G01 X-3.1665 Y1.7898  
G01 X-3.1601 Y1.7919  
G01 X-3.1534 Y1.7930  
G01 X-3.1466 Y1.7930  
G01 X-3.1399 Y1.7919  
G01 X-3.1335 Y1.7898  
G01 X-3.1275 Y1.7868  
G01 X-3.1220 Y1.7828  
G01 X-3.1172 Y1.7780  
G01 X-3.1132 Y1.7725  
G01 X-3.1102 Y1.7665  
G01 X-3.1081 Y1.7601  
G01 X-3.1070 Y1.7534  
G01 X-3.1070 Y1.7466  
G01 X-3.1073 Y1.7450  
G01 X-3.0349 Y1.7450  
G01 X-3.0298 Y1.7436  
G01 X-3.0252 Y1.7410  
G01 X-3.0042 Y1.7200  
G01 X-2.9381 Y1.7200  
G01 X-2.9368 Y1.7225  
G01 X-2.9328 Y1.7280  
G01 X-2.9280 Y1.7328  
G01 X-2.9225 Y1.7368  
G01 X-2.9165 Y1.7398  
G01 X-2.9101 Y1.7419  
G01 X-2.9034 Y1.7430  
G01 X-2.8966 Y1.7430  
G01 X-2.8899 Y1.7419  
G01 X-2.8835 Y1.7398  
G01 X-2.8775 Y1.7368  
G01 X-2.8720 Y1.7328  
G01 X-2.8672 Y1.7280  
G01 X-2.8632 Y1.7225  
G01 X-2.8602 Y1.7165  
G01 X-2.8581 Y1.7101  
G01 X-2.8570 Y1.7034  
G01 X-2.8570 Y1.6966  
G01 X-2.8581 Y1.6899  
G01 X-2.8602 Y1.6835  
G01 X-2.8632 Y1.6775  
G01 X-2.8672 Y1.6720  
G01 X-2.8720 Y1.6672  
G01 X-2.8775 Y1.6632  
G01 X-2.8835 Y1.6602  
G01 X-2.8899 Y1.6581  
G01 X-2.8966 Y1.6570  
G01 X-2.9034 Y1.6570  
G01 X-2.9101 Y1.6581  
G01 X-2.9165 Y1.6602  
G01 X-2.9225 Y1.6632  
G01 X-2.9280 Y1.6672  
G01 X-2.9328 Y1.6720  
G01 X-2.9368 Y1.6775  
G01 X-2.9381 Y1.6800  
G01 X-2.9800 Y1.6800  
G01 X-2.9800 Y1.5511  
G01 X-2.9796 Y1.5509  
G01 X-2.9751 Y1.5464  
G01 X-2.9716 Y1.5412  
G01 X-2.9692 Y1.5353  
G01 X-2.9680 Y1.5292  
G01 X-2.9680 Y1.4708  
G01 X-2.9692 Y1.4647  
G01 X-2.9716 Y1.4588  
G01 X-2.9751 Y1.4536  
G00 Z0.0500  
G00 X-3.0751 Y1.4536  
G01 Z-0.0040 F10    
G01 X-3.0796 Y1.4491  F20    
G01 X-3.0848 Y1.4456  
G01 X-3.0907 Y1.4432  
G01 X-3.0968 Y1.4420  
G01 X-3.1032 Y1.4420  
G01 X-3.1093 Y1.4432  
G01 X-3.1152 Y1.4456  
G01 X-3.1204 Y1.4491  
G01 X-3.1249 Y1.4536  
G01 X-3.1284 Y1.4588  
G01 X-3.1308 Y1.4647  
G01 X-3.1320 Y1.4708  
G01 X-3.1320 Y1.5292  
G01 X-3.1308 Y1.5353  
G01 X-3.1284 Y1.5412  
G01 X-3.1249 Y1.5464  
G01 X-3.1204 Y1.5509  
G01 X-3.1200 Y1.5511  
G01 X-3.1200 Y1.6250  
G01 X-3.1728 Y1.6250  
G01 X-3.1733 Y1.6249  
G01 X-3.1754 Y1.6250  
G01 X-3.1776 Y1.6250  
G01 X-3.1781 Y1.6251  
G01 X-3.1785 Y1.6251  
G01 X-3.1806 Y1.6258  
G01 X-3.1827 Y1.6264  
G01 X-3.1831 Y1.6266  
G01 X-3.1835 Y1.6267  
G01 X-3.1854 Y1.6279  
G01 X-3.1873 Y1.6290  
G01 X-3.1876 Y1.6293  
G01 X-3.1880 Y1.6296  
G01 X-3.1895 Y1.6312  
G01 X-3.1910 Y1.6327  
G01 X-3.1912 Y1.6331  
G01 X-3.2970 Y1.7487  
G01 X-3.2985 Y1.7502  
G01 X-3.2987 Y1.7506  
G01 X-3.2990 Y1.7509  
G01 X-3.3000 Y1.7529  
G01 X-3.3011 Y1.7548  
G01 X-3.3013 Y1.7552  
G01 X-3.3015 Y1.7556  
G01 X-3.3019 Y1.7578  
G01 X-3.3025 Y1.7599  
G01 X-3.3025 Y1.7603  
G01 X-3.3026 Y1.7608  
G01 X-3.3025 Y1.7629  
G01 X-3.3025 Y2.0351  
G01 X-3.4160 Y2.0690  
G01 X-3.4208 Y2.0680  
G01 X-3.4455 Y2.0680  
G01 X-3.4474 Y2.0675  
G01 X-3.5175 Y2.0675  
G01 X-3.5175 Y1.9833  
G01 X-3.4917 Y1.9575  
G01 X-3.4849 Y1.9575  
G01 X-3.4798 Y1.9561  
G01 X-3.4752 Y1.9535  
G01 X-3.4715 Y1.9498  
G01 X-3.4537 Y1.9320  
G01 X-3.4208 Y1.9320  
G01 X-3.4147 Y1.9308  
G01 X-3.4088 Y1.9284  
G01 X-3.4036 Y1.9249  
G01 X-3.3991 Y1.9204  
G01 X-3.3956 Y1.9152  
G01 X-3.3932 Y1.9093  
G01 X-3.3920 Y1.9032  
G01 X-3.3920 Y1.8968  
G01 X-3.3932 Y1.8907  
G01 X-3.3956 Y1.8848  
G01 X-3.3991 Y1.8796  
G01 X-3.4036 Y1.8751  
G01 X-3.4088 Y1.8716  
G01 X-3.4147 Y1.8692  
G01 X-3.4208 Y1.8680  
G01 X-3.4792 Y1.8680  
G01 X-3.4853 Y1.8692  
G01 X-3.4912 Y1.8716  
G01 X-3.4964 Y1.8751  
G01 X-3.5009 Y1.8796  
G01 X-3.5044 Y1.8848  
G01 X-3.5068 Y1.8907  
G01 X-3.5080 Y1.8968  
G01 X-3.5080 Y1.9032  
G01 X-3.5068 Y1.9093  
G01 X-3.5044 Y1.9152  
G01 X-3.5028 Y1.9175  
G01 X-3.5077 Y1.9189  
G01 X-3.5123 Y1.9215  
G01 X-3.5498 Y1.9590  
G01 X-3.5535 Y1.9627  
G01 X-3.5561 Y1.9673  
G01 X-3.5575 Y1.9724  
G01 X-3.5575 Y2.0901  
G01 X-3.5561 Y2.0952  
G01 X-3.5535 Y2.0998  
G01 X-3.5498 Y2.1035  
G01 X-3.5452 Y2.1061  
G01 X-3.5401 Y2.1075  
G01 X-3.5071 Y2.1075  
G01 X-3.5068 Y2.1093  
G01 X-3.5044 Y2.1152  
G01 X-3.5009 Y2.1204  
G01 X-3.4964 Y2.1249  
G01 X-3.4912 Y2.1284  
G01 X-3.4853 Y2.1308  
G01 X-3.4792 Y2.1320  
G01 X-3.4208 Y2.1320  
G01 X-3.4147 Y2.1308  
G01 X-3.4088 Y2.1284  
G01 X-3.4036 Y2.1249  
G01 X-3.3991 Y2.1204  
G01 X-3.3956 Y2.1152  
G01 X-3.3932 Y2.1093  
G01 X-3.3921 Y2.1036  
G01 X-3.2770 Y2.0692  
G01 X-3.2748 Y2.0686  
G01 X-3.2745 Y2.0685  
G01 X-3.2743 Y2.0684  
G01 X-3.2723 Y2.0672  
G01 X-3.2702 Y2.0660  
G01 X-3.2700 Y2.0658  
G01 X-3.2698 Y2.0657  
G01 X-3.2682 Y2.0639  
G01 X-3.2665 Y2.0623  
G01 X-3.2664 Y2.0620  
G01 X-3.2662 Y2.0618  
G01 X-3.2650 Y2.0598  
G01 X-3.2639 Y2.0577  
G01 X-3.2638 Y2.0574  
G01 X-3.2637 Y2.0572  
G01 X-3.2631 Y2.0549  
G01 X-3.2625 Y2.0526  
G01 X-3.2625 Y2.0523  
G01 X-3.2624 Y2.0521  
G01 X-3.2625 Y2.0497  
G01 X-3.2625 Y1.7703  
G01 X-3.1662 Y1.6650  
G01 X-3.0974 Y1.6650  
G01 X-3.0923 Y1.6636  
G01 X-3.0877 Y1.6610  
G01 X-3.0840 Y1.6573  
G01 X-3.0814 Y1.6527  
G01 X-3.0800 Y1.6476  
G01 X-3.0800 Y1.5511  
G01 X-3.0796 Y1.5509  
G01 X-3.0751 Y1.5464  
G01 X-3.0716 Y1.5412  
G01 X-3.0692 Y1.5353  
G01 X-3.0680 Y1.5292  
G01 X-3.0680 Y1.4708  
G01 X-3.0692 Y1.4647  
G01 X-3.0716 Y1.4588  
G01 X-3.0751 Y1.4536  
G00 Z0.0500  
G00 X-3.1751 Y1.4536  
G01 Z-0.0040 F10    
G01 X-3.1796 Y1.4491  F20    
G01 X-3.1848 Y1.4456  
G01 X-3.1907 Y1.4432  
G01 X-3.1968 Y1.4420  
G01 X-3.2032 Y1.4420  
G01 X-3.2093 Y1.4432  
G01 X-3.2152 Y1.4456  
G01 X-3.2204 Y1.4491  
G01 X-3.2215 Y1.4502  
G01 X-3.4090 Y1.2627  
G01 X-3.4127 Y1.2590  
G01 X-3.4173 Y1.2564  
G01 X-3.4224 Y1.2550  
G01 X-3.5401 Y1.2550  
